; G-Code generated by Simplify3D(R) Version 4.0.1
; Oct 8, 2018 at 12:21:39 AM
; Settings Summary
;   processName,Process1
;   applyToModels,3D_printer_test_mini
;   profileName,Ender3 - 100% Infill
;   profileVersion,2018-07-11 08:00:00
;   baseProfile,Creality Ender 3(2) (modified)
;   printMaterial,PLA
;   printQuality,Medium
;   printExtruders,
;   extruderName,Primary Extruder
;   extruderToolheadNumber,0
;   extruderDiameter,0.4
;   extruderAutoWidth,0
;   extruderWidth,0.4
;   extrusionMultiplier,0.9
;   extruderUseRetract,1
;   extruderRetractionDistance,4
;   extruderExtraRestartDistance,0
;   extruderRetractionZLift,0
;   extruderRetractionSpeed,2400
;   extruderUseCoasting,0
;   extruderCoastingDistance,0.2
;   extruderUseWipe,0
;   extruderWipeDistance,5
;   primaryExtruder,0
;   layerHeight,0.2
;   topSolidLayers,3
;   bottomSolidLayers,3
;   perimeterOutlines,2
;   printPerimetersInsideOut,1
;   startPointOption,2
;   startPointOriginX,0
;   startPointOriginY,0
;   sequentialIslands,0
;   spiralVaseMode,0
;   firstLayerHeightPercentage,120
;   firstLayerWidthPercentage,150
;   firstLayerUnderspeed,0.5
;   useRaft,0
;   raftExtruder,0
;   raftTopLayers,3
;   raftBaseLayers,2
;   raftOffset,3
;   raftSeparationDistance,0.14
;   raftTopInfill,100
;   aboveRaftSpeedMultiplier,0.3
;   useSkirt,1
;   skirtExtruder,0
;   skirtLayers,1
;   skirtOutlines,2
;   skirtOffset,4
;   usePrimePillar,0
;   primePillarExtruder,999
;   primePillarWidth,12
;   primePillarLocation,7
;   primePillarSpeedMultiplier,1
;   useOozeShield,0
;   oozeShieldExtruder,999
;   oozeShieldOffset,2
;   oozeShieldOutlines,1
;   oozeShieldSidewallShape,1
;   oozeShieldSidewallAngle,30
;   oozeShieldSpeedMultiplier,1
;   infillExtruder,0
;   internalInfillPattern,Rectilinear
;   externalInfillPattern,Rectilinear
;   infillPercentage,100
;   outlineOverlapPercentage,15
;   infillExtrusionWidthPercentage,100
;   minInfillLength,5
;   infillLayerInterval,1
;   internalInfillAngles,45,-45
;   overlapInternalInfillAngles,0
;   externalInfillAngles,45,-45
;   generateSupport,0
;   supportExtruder,0
;   supportInfillPercentage,30
;   supportExtraInflation,0
;   supportBaseLayers,0
;   denseSupportExtruder,0
;   denseSupportLayers,0
;   denseSupportInfillPercentage,70
;   supportLayerInterval,1
;   supportHorizontalPartOffset,0.3
;   supportUpperSeparationLayers,1
;   supportLowerSeparationLayers,1
;   supportType,0
;   supportGridSpacing,4
;   maxOverhangAngle,45
;   supportAngles,0
;   temperatureName,Primary Extruder,Heated Bed
;   temperatureNumber,0,0
;   temperatureSetpointCount,1,1
;   temperatureSetpointLayers,1,1
;   temperatureSetpointTemperatures,210,60
;   temperatureStabilizeAtStartup,1,1
;   temperatureHeatedBed,0,1
;   temperatureRelayBetweenLayers,0,0
;   temperatureRelayBetweenLoops,0,0
;   fanLayers,1,2
;   fanSpeeds,0,100
;   blipFanToFullPower,0
;   adjustSpeedForCooling,1
;   minSpeedLayerTime,15
;   minCoolingSpeedSlowdown,20
;   increaseFanForCooling,0
;   minFanLayerTime,45
;   maxCoolingFanSpeed,100
;   increaseFanForBridging,0
;   bridgingFanSpeed,100
;   use5D,1
;   relativeEdistances,0
;   allowEaxisZeroing,1
;   independentExtruderAxes,0
;   includeM10123,0
;   stickySupport,1
;   applyToolheadOffsets,0
;   gcodeXoffset,0
;   gcodeYoffset,0
;   gcodeZoffset,0
;   overrideMachineDefinition,1
;   machineTypeOverride,0
;   strokeXoverride,220
;   strokeYoverride,220
;   strokeZoverride,250
;   originOffsetXoverride,-5
;   originOffsetYoverride,-5
;   originOffsetZoverride,0
;   homeXdirOverride,-1
;   homeYdirOverride,-1
;   homeZdirOverride,-1
;   flipXoverride,1
;   flipYoverride,-1
;   flipZoverride,1
;   toolheadOffsets,0,0|0,0|0,0|0,0|0,0|0,0
;   overrideFirmwareConfiguration,1
;   firmwareTypeOverride,RepRap (Marlin/Repetier/Sprinter)
;   GPXconfigOverride,r2
;   baudRateOverride,115200
;   overridePrinterModels,1
;   printerModelsOverride
;   startingGcode,G28 ; home all axes,G1 X5 Y10 Z0.2 F3000 ; get ready to prime,G92 E0 ; reset extrusion distance,G1 X160 E15 F600 ; prime nozzle,G1 X180 F5000 ; quick wipe
;   layerChangeGcode,
;   retractionGcode,
;   toolChangeGcode,
;   endingGcode,G28 X0 ; home X axis,M106 S0 ; turn off cooling fan,M104 S0 ; turn off extruder,M140 S0 ; turn off bed,M84 ; disable motors
;   exportFileFormat,gcode
;   celebration,0
;   celebrationSong,Funky Town
;   postProcessing,
;   defaultSpeed,2400
;   outlineUnderspeed,0.5
;   solidInfillUnderspeed,0.8
;   supportUnderspeed,0.8
;   rapidXYspeed,4800
;   rapidZspeed,1000
;   minBridgingArea,50
;   bridgingExtraInflation,0
;   bridgingExtrusionMultiplier,1
;   bridgingSpeedMultiplier,1
;   useFixedBridgingAngle,0
;   fixedBridgingAngle,0
;   applyBridgingToPerimeters,0
;   filamentDiameters,1.75|1.75|1.75|1.75|1.75|1.75
;   filamentPricesPerKg,46|46|46|46|46|46
;   filamentDensities,1.25|1.25|1.25|1.25|1.25|1.25
;   useMinPrintHeight,0
;   minPrintHeight,0
;   useMaxPrintHeight,0
;   maxPrintHeight,0
;   useDiaphragm,0
;   diaphragmLayerInterval,20
;   robustSlicing,1
;   mergeAllIntoSolid,0
;   onlyRetractWhenCrossingOutline,1
;   retractBetweenLayers,1
;   useRetractionMinTravel,0
;   retractionMinTravel,3
;   retractWhileWiping,0
;   onlyWipeOutlines,1
;   avoidCrossingOutline,0
;   maxMovementDetourFactor,3
;   toolChangeRetractionDistance,12
;   toolChangeExtraRestartDistance,-0.5
;   toolChangeRetractionSpeed,600
;   externalThinWallType,0
;   internalThinWallType,2
;   thinWallAllowedOverlapPercentage,10
;   singleExtrusionMinLength,1
;   singleExtrusionMinPrintingWidthPercentage,50
;   singleExtrusionMaxPrintingWidthPercentage,200
;   singleExtrusionEndpointExtension,0.2
;   horizontalSizeCompensation,0
G90
M82
M106 S0
M140 S60
M190 S60
M104 S210 T0
M109 S210 T0
G28 ; home all axes
G1 X5 Y10 Z0.2 F3000 ; get ready to prime
G92 E0 ; reset extrusion distance
G1 X160 E15 F600 ; prime nozzle
G1 X180 F5000 ; quick wipe
G92 E0
G1 E-4.0000 F2400
G1 Z0.240 F1000
; process Process1
; layer 1, Z = 0.240
T0
; tool H0.240 W0.600
; skirt
G1 X77.991 Y80.503 F4800
G1 E0.0000 F720
G92 E0
G1 X80.503 Y77.991 E0.1914 F1200
G1 X80.724 Y77.900 E0.2043
G1 X149.276 Y77.900 E3.8980
G1 X149.497 Y77.991 E3.9108
G1 X152.009 Y80.503 E4.1022
G1 X152.100 Y80.724 E4.1151
G1 X152.100 Y149.276 E7.8088
G1 X152.009 Y149.497 E7.8217
G1 X149.497 Y152.009 E8.0131
G1 X149.276 Y152.100 E8.0259
G1 X80.724 Y152.100 E11.7196
G1 X80.503 Y152.009 E11.7325
G1 X77.991 Y149.497 E11.9239
G1 X77.900 Y149.276 E11.9368
G1 X77.900 Y80.724 E15.6305
G1 X77.991 Y80.503 E15.6433
G1 X78.330 Y80.730 F4800
G92 E0
G1 X80.730 Y78.330 E0.1828 F1200
G1 X80.803 Y78.300 E0.1871
G1 X149.197 Y78.300 E3.8722
G1 X149.270 Y78.330 E3.8765
G1 X151.670 Y80.730 E4.0594
G1 X151.700 Y80.803 E4.0637
G1 X151.700 Y149.197 E7.7488
G1 X151.670 Y149.270 E7.7531
G1 X149.270 Y151.670 E7.9359
G1 X149.197 Y151.700 E7.9402
G1 X80.803 Y151.700 E11.6253
G1 X80.730 Y151.670 E11.6296
G1 X78.330 Y149.270 E11.8124
G1 X78.300 Y149.197 E11.8167
G1 X78.300 Y80.803 E15.5019
G1 X78.330 Y80.730 E15.5061
G92 E0
G1 E-4.0000 F2400
; inner perimeter
G1 X83.400 Y83.400 F4800
G1 E0.0000 F2400
G92 E0
G1 X146.600 Y83.400 E3.4053 F900
G1 X146.600 Y146.600 E6.8106
G1 X83.400 Y146.600 E10.2159
G1 X83.400 Y83.400 E13.6212
; outer perimeter
G1 X82.800 Y82.800 F4800
G92 E0
G1 X147.200 Y82.800 E3.4700 F600
G1 X147.200 Y147.200 E6.9399
G1 X82.800 Y147.200 E10.4099
G1 X82.800 Y82.800 E13.8799
; solid layer
G1 X145.853 Y83.910 F4800
G92 E0
G1 X146.090 Y84.147 E0.0181 F960
G1 X146.090 Y84.996 E0.0638
G1 X145.004 Y83.910 E0.1466
G1 X144.156 Y83.910 E0.1923
G1 X146.090 Y85.844 E0.3397
G1 X146.090 Y86.693 E0.3854
G1 X143.307 Y83.910 E0.5975
G1 X142.458 Y83.910 E0.6432
G1 X146.090 Y87.542 E0.9199
G1 X146.090 Y88.390 E0.9656
G1 X141.610 Y83.910 E1.3070
G1 X140.761 Y83.910 E1.3527
G1 X146.090 Y89.239 E1.7588
G1 X146.090 Y90.087 E1.8045
G1 X139.913 Y83.910 E2.2752
G1 X139.064 Y83.910 E2.3209
G1 X146.090 Y90.936 E2.8563
G1 X146.090 Y91.784 E2.9020
G1 X138.216 Y83.910 E3.5020
G1 X137.367 Y83.910 E3.5477
G1 X146.090 Y92.633 E4.2124
G1 X146.090 Y93.481 E4.2581
G1 X136.519 Y83.910 E4.9874
G1 X135.670 Y83.910 E5.0332
G1 X146.090 Y94.330 E5.8271
G1 X146.090 Y95.178 E5.8729
G1 X134.822 Y83.910 E6.7315
G1 X133.973 Y83.910 E6.7772
G1 X146.090 Y96.027 E7.7005
G1 X146.090 Y96.875 E7.7462
G1 X133.125 Y83.910 E8.7342
G1 X132.276 Y83.910 E8.7799
G1 X146.090 Y97.724 E9.8325
G1 X146.090 Y98.572 E9.8783
G1 X131.428 Y83.910 E10.9955
G1 X130.579 Y83.910 E11.0412
G1 X146.090 Y99.421 E12.2232
G1 X146.090 Y100.269 E12.2689
G1 X129.731 Y83.910 E13.5155
G1 X128.882 Y83.910 E13.5612
G1 X146.090 Y101.118 E14.8724
G1 X146.090 Y101.967 E14.9182
G1 X128.033 Y83.910 E16.2941
G1 X127.185 Y83.910 E16.3398
G1 X146.090 Y102.815 E17.7804
G1 X146.090 Y103.664 E17.8261
G1 X126.336 Y83.910 E19.3313
G1 X125.488 Y83.910 E19.3770
G1 X146.090 Y104.512 E20.9469
G1 X146.090 Y105.361 E20.9926
G1 X124.639 Y83.910 E22.6271
G1 X123.791 Y83.910 E22.6729
G1 X146.090 Y106.209 E24.3721
G1 X146.090 Y107.058 E24.4178
G1 X122.942 Y83.910 E26.1816
G1 X122.094 Y83.910 E26.2273
G1 X146.090 Y107.906 E28.0559
G1 X146.090 Y108.755 E28.1016
G1 X121.245 Y83.910 E29.9947
G1 X120.397 Y83.910 E30.0405
G1 X146.090 Y109.603 E31.9983
G1 X146.090 Y110.452 E32.0440
G1 X119.548 Y83.910 E34.0665
G1 X118.700 Y83.910 E34.1122
G1 X146.090 Y111.300 E36.1993
G1 X146.090 Y112.149 E36.2451
G1 X117.851 Y83.910 E38.3969
G1 X117.003 Y83.910 E38.4426
G1 X146.090 Y112.997 E40.6590
G1 X146.090 Y113.846 E40.7048
G1 X116.154 Y83.910 E42.9859
G1 X115.306 Y83.910 E43.0316
G1 X146.090 Y114.694 E45.3774
G1 X146.090 Y115.543 E45.4231
G1 X114.457 Y83.910 E47.8335
G1 X113.609 Y83.910 E47.8792
G1 X146.090 Y116.391 E50.3543
G1 X146.090 Y117.240 E50.4000
G1 X112.760 Y83.910 E52.9398
G1 X111.911 Y83.910 E52.9855
G1 X146.090 Y118.089 E55.5899
G1 X146.090 Y118.937 E55.6356
G1 X111.063 Y83.910 E58.3047
G1 X110.214 Y83.910 E58.3504
G1 X146.090 Y119.786 E61.0841
G1 X146.090 Y120.634 E61.1298
G1 X109.366 Y83.910 E63.9282
G1 X108.517 Y83.910 E63.9739
G1 X146.090 Y121.483 E66.8369
G1 X146.090 Y122.331 E66.8827
G1 X107.669 Y83.910 E69.8104
G1 X106.820 Y83.910 E69.8561
G1 X146.090 Y123.180 E72.8484
G1 X146.090 Y124.028 E72.8941
G1 X105.972 Y83.910 E75.9511
G1 X105.123 Y83.910 E75.9969
G1 X146.090 Y124.877 E79.1185
G1 X146.090 Y125.725 E79.1642
G1 X104.275 Y83.910 E82.3506
G1 X103.426 Y83.910 E82.3963
G1 X146.090 Y126.574 E85.6473
G1 X146.090 Y127.422 E85.6930
G1 X102.578 Y83.910 E89.0086
G1 X101.729 Y83.910 E89.0543
G1 X146.090 Y128.271 E92.4346
G1 X146.090 Y129.119 E92.4803
G1 X100.881 Y83.910 E95.9253
G1 X100.032 Y83.910 E95.9710
G1 X146.090 Y129.968 E99.4806
G1 X146.090 Y130.816 E99.5263
G1 X99.184 Y83.910 E103.1006
G1 X98.335 Y83.910 E103.1463
G1 X146.090 Y131.665 E106.7853
G1 X146.090 Y132.514 E106.8310
G1 X97.486 Y83.910 E110.5346
G1 X96.638 Y83.910 E110.5803
G1 X146.090 Y133.362 E114.3485
G1 X146.090 Y134.211 E114.3942
G1 X95.789 Y83.910 E118.2271
G1 X94.941 Y83.910 E118.2729
G1 X146.090 Y135.059 E122.1704
G1 X146.090 Y135.908 E122.2161
G1 X94.092 Y83.910 E126.1783
G1 X93.244 Y83.910 E126.2241
G1 X146.090 Y136.756 E130.2509
G1 X146.090 Y137.605 E130.2966
G1 X92.395 Y83.910 E134.3882
G1 X91.547 Y83.910 E134.4339
G1 X146.090 Y138.453 E138.5901
G1 X146.090 Y139.302 E138.6358
G1 X90.698 Y83.910 E142.8566
G1 X89.850 Y83.910 E142.9024
G1 X146.090 Y140.150 E147.1879
G1 X146.090 Y140.999 E147.2336
G1 X89.001 Y83.910 E151.5837
G1 X88.153 Y83.910 E151.6295
G1 X146.090 Y141.847 E156.0443
G1 X146.090 Y142.696 E156.0900
G1 X87.304 Y83.910 E160.5695
G1 X86.456 Y83.910 E160.6152
G1 X146.090 Y143.544 E165.1593
G1 X146.090 Y144.393 E165.2050
G1 X85.607 Y83.910 E169.8138
G1 X84.759 Y83.910 E169.8596
G1 X146.090 Y145.241 E174.5330
G1 X146.090 Y146.090 E174.5787
G1 X83.910 Y83.910 E179.3168
G1 X83.910 Y84.759 E179.3625
G1 X145.241 Y146.090 E184.0360
G1 X144.393 Y146.090 E184.0817
G1 X83.910 Y85.607 E188.6905
G1 X83.910 Y86.456 E188.7362
G1 X143.544 Y146.090 E193.2804
G1 X142.696 Y146.090 E193.3261
G1 X83.910 Y87.304 E197.8056
G1 X83.910 Y88.153 E197.8513
G1 X141.847 Y146.090 E202.2661
G1 X140.999 Y146.090 E202.3118
G1 X83.910 Y89.001 E206.6620
G1 X83.910 Y89.850 E206.7077
G1 X140.150 Y146.090 E210.9932
G1 X139.302 Y146.090 E211.0389
G1 X83.910 Y90.698 E215.2598
G1 X83.910 Y91.547 E215.3055
G1 X138.453 Y146.090 E219.4617
G1 X137.605 Y146.090 E219.5074
G1 X83.910 Y92.395 E223.5989
G1 X83.910 Y93.244 E223.6446
G1 X136.756 Y146.090 E227.6715
G1 X135.908 Y146.090 E227.7172
G1 X83.910 Y94.092 E231.6794
G1 X83.910 Y94.941 E231.7252
G1 X135.059 Y146.090 E235.6227
G1 X134.211 Y146.090 E235.6684
G1 X83.910 Y95.789 E239.5013
G1 X83.910 Y96.638 E239.5471
G1 X133.362 Y146.090 E243.3153
G1 X132.514 Y146.090 E243.3610
G1 X83.910 Y97.486 E247.0646
G1 X83.910 Y98.335 E247.1103
G1 X131.665 Y146.090 E250.7492
G1 X130.817 Y146.090 E250.7950
G1 X83.910 Y99.183 E254.3692
G1 X83.910 Y100.032 E254.4150
G1 X129.968 Y146.090 E257.9246
G1 X129.119 Y146.090 E257.9703
G1 X83.910 Y100.881 E261.4152
G1 X83.910 Y101.729 E261.4610
G1 X128.271 Y146.090 E264.8413
G1 X127.422 Y146.090 E264.8870
G1 X83.910 Y102.578 E268.2026
G1 X83.910 Y103.426 E268.2483
G1 X126.574 Y146.090 E271.4993
G1 X125.725 Y146.090 E271.5450
G1 X83.910 Y104.275 E274.7314
G1 X83.910 Y105.123 E274.7771
G1 X124.877 Y146.090 E277.8987
G1 X124.028 Y146.090 E277.9445
G1 X83.910 Y105.972 E281.0015
G1 X83.910 Y106.820 E281.0472
G1 X123.180 Y146.090 E284.0395
G1 X122.331 Y146.090 E284.0853
G1 X83.910 Y107.669 E287.0129
G1 X83.910 Y108.517 E287.0587
G1 X121.483 Y146.090 E289.9217
G1 X120.634 Y146.090 E289.9674
G1 X83.910 Y109.366 E292.7658
G1 X83.910 Y110.214 E292.8115
G1 X119.786 Y146.090 E295.5452
G1 X118.937 Y146.090 E295.5910
G1 X83.910 Y111.063 E298.2600
G1 X83.910 Y111.911 E298.3057
G1 X118.089 Y146.090 E300.9101
G1 X117.240 Y146.090 E300.9559
G1 X83.910 Y112.760 E303.4956
G1 X83.910 Y113.608 E303.5413
G1 X116.392 Y146.090 E306.0164
G1 X115.543 Y146.090 E306.0621
G1 X83.910 Y114.457 E308.4726
G1 X83.910 Y115.306 E308.5183
G1 X114.694 Y146.090 E310.8640
G1 X113.846 Y146.090 E310.9098
G1 X83.910 Y116.154 E313.1909
G1 X83.910 Y117.003 E313.2366
G1 X112.997 Y146.090 E315.4531
G1 X112.149 Y146.090 E315.4988
G1 X83.910 Y117.851 E317.6506
G1 X83.910 Y118.700 E317.6963
G1 X111.300 Y146.090 E319.7834
G1 X110.452 Y146.090 E319.8292
G1 X83.910 Y119.548 E321.8516
G1 X83.910 Y120.397 E321.8974
G1 X109.603 Y146.090 E323.8552
G1 X108.755 Y146.090 E323.9009
G1 X83.910 Y121.245 E325.7941
G1 X83.910 Y122.094 E325.8398
G1 X107.906 Y146.090 E327.6683
G1 X107.058 Y146.090 E327.7140
G1 X83.910 Y122.942 E329.4779
G1 X83.910 Y123.791 E329.5236
G1 X106.209 Y146.090 E331.2228
G1 X105.361 Y146.090 E331.2685
G1 X83.910 Y124.639 E332.9030
G1 X83.910 Y125.488 E332.9488
G1 X104.512 Y146.090 E334.5186
G1 X103.664 Y146.090 E334.5644
G1 X83.910 Y126.336 E336.0696
G1 X83.910 Y127.185 E336.1153
G1 X102.815 Y146.090 E337.5559
G1 X101.967 Y146.090 E337.6016
G1 X83.910 Y128.033 E338.9775
G1 X83.910 Y128.882 E339.0232
G1 X101.118 Y146.090 E340.3345
G1 X100.269 Y146.090 E340.3802
G1 X83.910 Y129.731 E341.6268
G1 X83.910 Y130.579 E341.6725
G1 X99.421 Y146.090 E342.8544
G1 X98.572 Y146.090 E342.9002
G1 X83.910 Y131.428 E344.0174
G1 X83.910 Y132.276 E344.0631
G1 X97.724 Y146.090 E345.1158
G1 X96.875 Y146.090 E345.1615
G1 X83.910 Y133.125 E346.1494
G1 X83.910 Y133.973 E346.1952
G1 X96.027 Y146.090 E347.1185
G1 X95.178 Y146.090 E347.1642
G1 X83.910 Y134.822 E348.0228
G1 X83.910 Y135.670 E348.0686
G1 X94.330 Y146.090 E348.8625
G1 X93.481 Y146.090 E348.9083
G1 X83.910 Y136.519 E349.6376
G1 X83.910 Y137.367 E349.6833
G1 X92.633 Y146.090 E350.3480
G1 X91.784 Y146.090 E350.3937
G1 X83.910 Y138.216 E350.9937
G1 X83.910 Y139.064 E351.0394
G1 X90.936 Y146.090 E351.5748
G1 X90.087 Y146.090 E351.6205
G1 X83.910 Y139.913 E352.0912
G1 X83.910 Y140.761 E352.1369
G1 X89.239 Y146.090 E352.5430
G1 X88.390 Y146.090 E352.5887
G1 X83.910 Y141.610 E352.9301
G1 X83.910 Y142.458 E352.9758
G1 X87.542 Y146.090 E353.2525
G1 X86.693 Y146.090 E353.2982
G1 X83.910 Y143.307 E353.5103
