; G-Code generated by Simplify3D(R) Version 4.0.1
; Oct 8, 2018 at 3:58:07 PM
; Settings Summary
;   processName,Benchy
;   applyToModels,calicat
;   profileName,Ender3 - Benchy (modified)
;   profileVersion,2018-07-11 08:00:00
;   baseProfile,Creality Ender 3(2) (modified)
;   printMaterial,PLA
;   printQuality,High
;   printExtruders,
;   extruderName,Primary Extruder
;   extruderToolheadNumber,0
;   extruderDiameter,0.4
;   extruderAutoWidth,0
;   extruderWidth,0.4
;   extrusionMultiplier,0.9
;   extruderUseRetract,1
;   extruderRetractionDistance,4
;   extruderExtraRestartDistance,0
;   extruderRetractionZLift,0
;   extruderRetractionSpeed,2600
;   extruderUseCoasting,0
;   extruderCoastingDistance,0.2
;   extruderUseWipe,0
;   extruderWipeDistance,5
;   primaryExtruder,0
;   layerHeight,0.1
;   topSolidLayers,4
;   bottomSolidLayers,4
;   perimeterOutlines,2
;   printPerimetersInsideOut,1
;   startPointOption,2
;   startPointOriginX,0
;   startPointOriginY,0
;   sequentialIslands,0
;   spiralVaseMode,0
;   firstLayerHeightPercentage,120
;   firstLayerWidthPercentage,150
;   firstLayerUnderspeed,0.5
;   useRaft,0
;   raftExtruder,0
;   raftTopLayers,3
;   raftBaseLayers,2
;   raftOffset,3
;   raftSeparationDistance,0.14
;   raftTopInfill,100
;   aboveRaftSpeedMultiplier,0.3
;   useSkirt,1
;   skirtExtruder,0
;   skirtLayers,2
;   skirtOutlines,2
;   skirtOffset,4
;   usePrimePillar,0
;   primePillarExtruder,999
;   primePillarWidth,12
;   primePillarLocation,7
;   primePillarSpeedMultiplier,1
;   useOozeShield,0
;   oozeShieldExtruder,999
;   oozeShieldOffset,2
;   oozeShieldOutlines,1
;   oozeShieldSidewallShape,1
;   oozeShieldSidewallAngle,30
;   oozeShieldSpeedMultiplier,1
;   infillExtruder,0
;   internalInfillPattern,Fast Honeycomb
;   externalInfillPattern,Rectilinear
;   infillPercentage,15
;   outlineOverlapPercentage,15
;   infillExtrusionWidthPercentage,100
;   minInfillLength,5
;   infillLayerInterval,1
;   internalInfillAngles,45
;   overlapInternalInfillAngles,0
;   externalInfillAngles,45
;   generateSupport,0
;   supportExtruder,0
;   supportInfillPercentage,40
;   supportExtraInflation,0
;   supportBaseLayers,0
;   denseSupportExtruder,0
;   denseSupportLayers,0
;   denseSupportInfillPercentage,70
;   supportLayerInterval,1
;   supportHorizontalPartOffset,0.3
;   supportUpperSeparationLayers,1
;   supportLowerSeparationLayers,1
;   supportType,0
;   supportGridSpacing,4
;   maxOverhangAngle,45
;   supportAngles,0
;   temperatureName,Primary Extruder,Heated Bed
;   temperatureNumber,0,0
;   temperatureSetpointCount,1,1
;   temperatureSetpointLayers,1,1
;   temperatureSetpointTemperatures,238,50
;   temperatureStabilizeAtStartup,1,1
;   temperatureHeatedBed,0,1
;   temperatureRelayBetweenLayers,0,0
;   temperatureRelayBetweenLoops,0,0
;   fanLayers,1,2
;   fanSpeeds,0,100
;   blipFanToFullPower,0
;   adjustSpeedForCooling,1
;   minSpeedLayerTime,15
;   minCoolingSpeedSlowdown,20
;   increaseFanForCooling,0
;   minFanLayerTime,45
;   maxCoolingFanSpeed,100
;   increaseFanForBridging,0
;   bridgingFanSpeed,100
;   use5D,1
;   relativeEdistances,0
;   allowEaxisZeroing,1
;   independentExtruderAxes,0
;   includeM10123,0
;   stickySupport,1
;   applyToolheadOffsets,0
;   gcodeXoffset,0
;   gcodeYoffset,0
;   gcodeZoffset,0
;   overrideMachineDefinition,1
;   machineTypeOverride,0
;   strokeXoverride,220
;   strokeYoverride,220
;   strokeZoverride,250
;   originOffsetXoverride,-5
;   originOffsetYoverride,-5
;   originOffsetZoverride,0
;   homeXdirOverride,-1
;   homeYdirOverride,-1
;   homeZdirOverride,-1
;   flipXoverride,1
;   flipYoverride,-1
;   flipZoverride,1
;   toolheadOffsets,0,0|0,0|0,0|0,0|0,0|0,0
;   overrideFirmwareConfiguration,1
;   firmwareTypeOverride,RepRap (Marlin/Repetier/Sprinter)
;   GPXconfigOverride,r2
;   baudRateOverride,115200
;   overridePrinterModels,1
;   printerModelsOverride
;   startingGcode,G28 ; home all axes,G1 X5 Y10 Z0.2 F3000 ; get ready to prime,G92 E0 ; reset extrusion distance,G1 X160 E15 F600 ; prime nozzle,G1 X180 F5000 ; quick wipe
;   layerChangeGcode,
;   retractionGcode,
;   toolChangeGcode,
;   endingGcode,G28 X0 ; home X axis,M106 S0 ; turn off cooling fan,M104 S0 ; turn off extruder,M140 S0 ; turn off bed,M84 ; disable motors
;   exportFileFormat,gcode
;   celebration,0
;   celebrationSong,Funky Town
;   postProcessing,
;   defaultSpeed,2400
;   outlineUnderspeed,0.5
;   solidInfillUnderspeed,0.8
;   supportUnderspeed,0.8
;   rapidXYspeed,4800
;   rapidZspeed,1000
;   minBridgingArea,50
;   bridgingExtraInflation,0
;   bridgingExtrusionMultiplier,1
;   bridgingSpeedMultiplier,1
;   useFixedBridgingAngle,0
;   fixedBridgingAngle,0
;   applyBridgingToPerimeters,0
;   filamentDiameters,1.75|1.75|1.75|1.75|1.75|1.75
;   filamentPricesPerKg,46|46|46|46|46|46
;   filamentDensities,1.25|1.25|1.25|1.25|1.25|1.25
;   useMinPrintHeight,0
;   minPrintHeight,0
;   useMaxPrintHeight,0
;   maxPrintHeight,0
;   useDiaphragm,0
;   diaphragmLayerInterval,20
;   robustSlicing,1
;   mergeAllIntoSolid,0
;   onlyRetractWhenCrossingOutline,1
;   retractBetweenLayers,1
;   useRetractionMinTravel,0
;   retractionMinTravel,3
;   retractWhileWiping,0
;   onlyWipeOutlines,1
;   avoidCrossingOutline,0
;   maxMovementDetourFactor,3
;   toolChangeRetractionDistance,12
;   toolChangeExtraRestartDistance,-0.5
;   toolChangeRetractionSpeed,600
;   externalThinWallType,0
;   internalThinWallType,2
;   thinWallAllowedOverlapPercentage,10
;   singleExtrusionMinLength,1
;   singleExtrusionMinPrintingWidthPercentage,50
;   singleExtrusionMaxPrintingWidthPercentage,200
;   singleExtrusionEndpointExtension,0.2
;   horizontalSizeCompensation,0
G90
M82
M106 S0
M140 S50
M190 S50
M104 S238 T0
M109 S238 T0
G28 ; home all axes
G1 X5 Y10 Z0.2 F3000 ; get ready to prime
G92 E0 ; reset extrusion distance
G1 X160 E15 F600 ; prime nozzle
G1 X180 F5000 ; quick wipe
G92 E0
G1 E-4.0000 F2600
G1 Z0.120 F1000
; process Benchy
; layer 1, Z = 0.120
T0
; tool H0.120 W0.600
; skirt
G1 X104.759 Y98.753 F4800
G1 E0.0000 F780
G92 E0
G1 X107.271 Y96.241 E0.0957 F1200
G1 X107.492 Y96.150 E0.1021
G1 X119.044 Y96.150 E0.4134
G1 X119.264 Y96.241 E0.4198
G1 X119.268 Y96.245 E0.4199
G1 X119.271 Y96.241 E0.4200
G1 X119.492 Y96.150 E0.4265
G1 X131.044 Y96.150 E0.7377
G1 X131.265 Y96.241 E0.7441
G1 X133.776 Y98.753 E0.8398
G1 X133.868 Y98.974 E0.8463
G1 X133.868 Y123.526 E1.5077
G1 X133.776 Y123.747 E1.5142
G1 X131.265 Y126.259 E1.6099
G1 X131.044 Y126.350 E1.6163
G1 X126.368 Y126.350 E1.7423
G1 X126.368 Y131.026 E1.8683
G1 X126.276 Y131.247 E1.8747
G1 X123.764 Y133.759 E1.9704
G1 X123.544 Y133.850 E1.9768
G1 X110.286 Y133.850 E2.3340
G1 X110.065 Y133.759 E2.3404
G1 X107.554 Y131.247 E2.4361
G1 X107.462 Y131.026 E2.4426
G1 X107.462 Y126.338 E2.5689
G1 X107.271 Y126.259 E2.5745
G1 X104.759 Y123.747 E2.6702
G1 X104.668 Y123.526 E2.6766
G1 X104.668 Y98.974 E3.3380
G1 X104.759 Y98.753 E3.3445
G1 X105.098 Y98.980 F4800
G92 E0
G1 X107.498 Y96.580 E0.0914 F1200
G1 X107.571 Y96.550 E0.0936
G1 X118.964 Y96.550 E0.4005
G1 X119.038 Y96.580 E0.4026
G1 X119.268 Y96.810 E0.4114
G1 X119.498 Y96.580 E0.4202
G1 X119.571 Y96.550 E0.4223
G1 X130.964 Y96.550 E0.7292
G1 X131.038 Y96.580 E0.7314
G1 X133.437 Y98.980 E0.8228
G1 X133.468 Y99.053 E0.8250
G1 X133.468 Y123.447 E1.4821
G1 X133.437 Y123.520 E1.4843
G1 X131.038 Y125.920 E1.5757
G1 X130.964 Y125.950 E1.5778
G1 X125.968 Y125.950 E1.7124
G1 X125.968 Y130.947 E1.8471
G1 X125.937 Y131.020 E1.8492
G1 X123.538 Y133.420 E1.9406
G1 X123.464 Y133.450 E1.9428
G1 X110.366 Y133.450 E2.2957
G1 X110.292 Y133.420 E2.2978
G1 X107.893 Y131.020 E2.3892
G1 X107.862 Y130.947 E2.3914
G1 X107.862 Y125.950 E2.5260
G1 X107.571 Y125.950 E2.5338
G1 X107.498 Y125.920 E2.5360
G1 X105.098 Y123.520 E2.6274
G1 X105.068 Y123.447 E2.6295
G1 X105.068 Y99.053 E3.2867
G1 X105.098 Y98.980 E3.2888
G92 E0
G1 E-4.0000 F2600
; inner perimeter
G1 X110.168 Y101.650 F4800
G1 E0.0000 F2600
G92 E0
G1 X116.368 Y101.650 E0.1670 F900
G1 X116.368 Y108.850 E0.3610
G1 X110.168 Y108.850 E0.5280
G1 X110.168 Y101.650 E0.7220
; outer perimeter
G1 X109.568 Y101.050 F4800
G92 E0
G1 X116.968 Y101.050 E0.1994 F600
G1 X116.968 Y109.450 E0.4257
G1 X109.568 Y109.450 E0.6250
G1 X109.568 Y101.050 E0.8513
; solid layer
G1 X115.736 Y102.160 F4800
G92 E0
G1 X115.858 Y102.281 E0.0046 F960
G1 X115.858 Y103.130 E0.0275
G1 X114.888 Y102.160 E0.0644
G1 X114.039 Y102.160 E0.0873
G1 X115.858 Y103.978 E0.1566
G1 X115.858 Y104.827 E0.1794
G1 X113.191 Y102.160 E0.2810
G1 X112.342 Y102.160 E0.3039
G1 X115.858 Y105.675 E0.4378
G1 X115.858 Y106.524 E0.4607
G1 X111.494 Y102.160 E0.6270
G1 X110.678 Y102.160 E0.6489
G1 X110.678 Y102.192 E0.6498
G1 X115.858 Y107.372 E0.8472
G1 X115.858 Y108.221 E0.8700
G1 X110.678 Y103.041 E1.0674
G1 X110.678 Y103.890 E1.0903
G1 X115.128 Y108.340 E1.2598
G1 X114.280 Y108.340 E1.2827
G1 X110.678 Y104.738 E1.4199
G1 X110.678 Y105.587 E1.4428
G1 X113.431 Y108.340 E1.5477
G1 X112.583 Y108.340 E1.5705
G1 X110.678 Y106.435 E1.6431
G1 X110.678 Y107.284 E1.6660
G1 X111.734 Y108.340 E1.7062
G1 X110.886 Y108.340 E1.7291
G1 X110.678 Y108.132 E1.7370
G92 E0
G1 E-4.0000 F2600
; inner perimeter
G1 X110.168 Y113.650 F4800
G1 E0.0000 F2600
G92 E0
G1 X116.368 Y113.650 E0.1670 F900
G1 X116.368 Y118.650 E0.3017
G1 X122.168 Y118.650 E0.4580
G1 X122.168 Y113.650 E0.5927
G1 X128.368 Y113.650 E0.7597
G1 X128.368 Y120.850 E0.9537
G1 X120.868 Y120.850 E1.1558
G1 X120.868 Y128.350 E1.3578
G1 X113.072 Y128.350 E1.5678
G1 X113.072 Y125.150 E1.6540
G1 X117.668 Y125.150 E1.7778
G1 X117.668 Y120.850 E1.8937
G1 X110.168 Y120.850 E2.0957
G1 X110.168 Y113.650 E2.2897
; outer perimeter
G1 X109.568 Y113.050 F4800
G92 E0
G1 X116.968 Y113.050 E0.1994 F600
G1 X116.968 Y118.050 E0.3341
G1 X121.568 Y118.050 E0.4580
G1 X121.568 Y113.050 E0.5927
G1 X128.968 Y113.050 E0.7921
G1 X128.968 Y121.450 E1.0184
G1 X121.468 Y121.450 E1.2204
G1 X121.468 Y128.950 E1.4225
G1 X112.472 Y128.950 E1.6648
G1 X112.472 Y124.550 E1.7834
G1 X117.068 Y124.550 E1.9072
G1 X117.068 Y121.450 E1.9907
G1 X109.568 Y121.450 E2.1927
G1 X109.568 Y113.050 E2.4190
; solid layer
G1 X110.766 Y114.160 F4800
G92 E0
G1 X116.946 Y120.340 E0.2355 F960
G1 X116.097 Y120.340 E0.2583
G1 X110.678 Y114.920 E0.4648
G1 X110.678 Y115.769 E0.4877
G1 X115.249 Y120.340 E0.6618
G1 X114.400 Y120.340 E0.6847
G1 X110.678 Y116.617 E0.8265
G1 X110.678 Y117.466 E0.8494
G1 X113.552 Y120.340 E0.9589
G1 X112.703 Y120.340 E0.9817
G1 X110.678 Y118.314 E1.0589
G1 X110.678 Y119.163 E1.0818
G1 X111.855 Y120.340 E1.1266
G1 X111.006 Y120.340 E1.1495
G1 X110.678 Y120.012 E1.1620
G1 X118.178 Y121.572 F4800
G92 E0
G1 X120.358 Y123.752 E0.0831 F960
G1 X120.358 Y124.600 E0.1059
G1 X118.178 Y122.420 E0.1890
G1 X118.178 Y123.269 E0.2118
G1 X120.358 Y125.449 E0.2949
G1 X120.358 Y126.297 E0.3178
G1 X118.178 Y124.117 E0.4008
G1 X118.178 Y124.966 E0.4237
G1 X120.358 Y127.146 E0.5067
G1 X120.358 Y127.840 E0.5254
G1 X120.203 Y127.840 E0.5296
G1 X118.023 Y125.660 E0.6127
G1 X117.175 Y125.660 E0.6355
G1 X119.355 Y127.840 E0.7186
G1 X118.506 Y127.840 E0.7414
G1 X116.326 Y125.660 E0.8245
G1 X115.478 Y125.660 E0.8474
G1 X117.658 Y127.840 E0.9304
G1 X116.809 Y127.840 E0.9533
G1 X114.629 Y125.660 E1.0363
G1 X113.781 Y125.660 E1.0592
G1 X115.961 Y127.840 E1.1422
G1 X115.112 Y127.840 E1.1651
G1 X113.582 Y126.310 E1.2234
G1 X113.582 Y127.159 E1.2463
G1 X114.264 Y127.840 E1.2722
G92 E0
G1 E-4.0000 F2600
G1 X115.858 Y114.161 F4800
G1 E0.0000 F2600
G92 E0
G1 X115.009 Y114.160 E0.0229 F960
G1 X115.858 Y115.009 E0.0552
G1 X115.858 Y115.858 E0.0781
G1 X114.160 Y114.160 E0.1428
G1 X113.311 Y114.160 E0.1656
G1 X115.858 Y116.706 E0.2626
G1 X115.858 Y117.555 E0.2855
G1 X112.463 Y114.160 E0.4148
G1 X111.614 Y114.160 E0.4377
G1 X115.858 Y118.403 E0.5994
G1 X115.858 Y119.160 E0.6197
G1 X116.614 Y119.160 E0.6401
G1 X117.794 Y120.340 E0.6851
G1 X118.178 Y120.340 E0.6954
G1 X118.178 Y120.723 E0.7057
G1 X120.358 Y122.903 E0.7888
G1 X120.358 Y122.055 E0.8117
G1 X117.463 Y119.160 E0.9220
G1 X118.311 Y119.160 E0.9448
G1 X120.358 Y121.206 E1.0228
G1 X120.358 Y120.358 E1.0456
G1 X119.160 Y119.160 E1.0913
G1 X120.009 Y119.160 E1.1141
G1 X121.189 Y120.340 E1.1591
G1 X122.037 Y120.340 E1.1820
G1 X120.857 Y119.160 E1.2269
G1 X121.706 Y119.160 E1.2498
G1 X122.886 Y120.340 E1.2947
G1 X123.734 Y120.340 E1.3176
G1 X122.554 Y119.160 E1.3625
G1 X122.678 Y119.160 E1.3659
G1 X122.678 Y118.435 E1.3854
G1 X124.583 Y120.340 E1.4580
G1 X125.431 Y120.340 E1.4808
G1 X122.678 Y117.587 E1.5857
G1 X122.678 Y116.738 E1.6086
G1 X126.280 Y120.340 E1.7458
G1 X127.128 Y120.340 E1.7687
G1 X122.678 Y115.890 E1.9383
G1 X122.678 Y115.041 E1.9611
G1 X127.858 Y120.221 E2.1585
G1 X127.858 Y119.372 E2.1813
G1 X122.678 Y114.192 E2.3787
G1 X122.678 Y114.160 E2.3796
G1 X123.494 Y114.160 E2.4016
G1 X127.858 Y118.524 E2.5678
G1 X127.858 Y117.675 E2.5907
G1 X124.342 Y114.160 E2.7246
G1 X125.191 Y114.160 E2.7475
G1 X127.858 Y116.827 E2.8491
G1 X127.858 Y115.978 E2.8719
G1 X126.039 Y114.160 E2.9412
G1 X126.888 Y114.160 E2.9641
G1 X127.858 Y115.130 E3.0010
G1 X127.858 Y114.281 E3.0239
G1 X127.736 Y114.160 E3.0285
G92 E0
G1 E-4.0000 F2600
; inner perimeter
G1 X128.368 Y108.850 F4800
G1 E0.0000 F2600
G92 E0
G1 X122.168 Y108.850 E0.1670 F900
G1 X122.168 Y101.650 E0.3610
G1 X128.368 Y101.650 E0.5280
G1 X128.368 Y108.850 E0.7220
; outer perimeter
G1 X128.968 Y109.450 F4800
G92 E0
G1 X121.568 Y109.450 E0.1994 F600
G1 X121.568 Y101.050 E0.4257
G1 X128.968 Y101.050 E0.6250
G1 X128.968 Y109.450 E0.8513
; solid layer
G1 X122.678 Y108.253 F4800
G92 E0
G1 X122.765 Y108.340 E0.0033 F960
G1 X123.614 Y108.340 E0.0262
G1 X122.678 Y107.404 E0.0618
G1 X122.678 Y106.556 E0.0847
G1 X124.462 Y108.340 E0.1527
G1 X125.311 Y108.340 E0.1755
G1 X122.678 Y105.707 E0.2758
G1 X122.678 Y104.859 E0.2987
G1 X126.159 Y108.340 E0.4313
G1 X127.008 Y108.340 E0.4542
G1 X122.678 Y104.010 E0.6192
G1 X122.678 Y103.162 E0.6420
G1 X127.856 Y108.340 E0.8393
G1 X127.858 Y108.340 E0.8394
G1 X127.858 Y107.493 E0.8622
G1 X122.678 Y102.313 E1.0595
G1 X122.678 Y102.160 E1.0637
G1 X123.373 Y102.160 E1.0824
G1 X127.858 Y106.645 E1.2533
G1 X127.858 Y105.796 E1.2761
G1 X124.222 Y102.160 E1.4147
G1 X125.070 Y102.160 E1.4375
G1 X127.858 Y104.948 E1.5437
G1 X127.858 Y104.099 E1.5666
G1 X125.919 Y102.160 E1.6405
G1 X126.767 Y102.160 E1.6633
G1 X127.858 Y103.250 E1.7049
G1 X127.858 Y102.402 E1.7277
G1 X127.616 Y102.160 E1.7369
G92 E0
G1 E-4.0000 F2600
; layer 2, Z = 0.220
M106 S255
; tool H0.100 W0.400
; skirt
G1 X131.044 Y96.150 F4800
G1 Z0.220 F1000
G1 E0.0000 F2600
G92 E0
G1 X131.265 Y96.241 E0.0036 F2400
G1 X133.776 Y98.753 E0.0567
G1 X133.868 Y98.974 E0.0603
G1 X133.868 Y123.526 E0.4278
G1 X133.776 Y123.747 E0.4314
G1 X131.265 Y126.259 E0.4845
G1 X131.044 Y126.350 E0.4881
G1 X126.368 Y126.350 E0.5581
G1 X126.368 Y131.026 E0.6281
G1 X126.276 Y131.247 E0.6317
G1 X123.764 Y133.759 E0.6848
G1 X123.544 Y133.850 E0.6884
G1 X110.286 Y133.850 E0.8868
G1 X110.065 Y133.759 E0.8904
G1 X107.554 Y131.247 E0.9436
G1 X107.462 Y131.026 E0.9471
G1 X107.462 Y126.338 E1.0173
G1 X107.271 Y126.259 E1.0204
G1 X104.759 Y123.747 E1.0736
G1 X104.668 Y123.526 E1.0772
G1 X104.668 Y98.974 E1.4446
G1 X104.759 Y98.753 E1.4482
G1 X107.271 Y96.241 E1.5014
G1 X107.492 Y96.150 E1.5049
G1 X119.044 Y96.150 E1.6779
G1 X119.264 Y96.241 E1.6814
G1 X119.268 Y96.245 E1.6815
G1 X119.271 Y96.241 E1.6816
G1 X119.492 Y96.150 E1.6851
G1 X131.044 Y96.150 E1.8580
G1 X130.964 Y96.550 F4800
G92 E0
G1 X131.038 Y96.580 E0.0012 F2400
G1 X133.437 Y98.980 E0.0520
G1 X133.468 Y99.053 E0.0532
G1 X133.468 Y123.447 E0.4183
G1 X133.437 Y123.520 E0.4195
G1 X131.038 Y125.920 E0.4702
G1 X130.964 Y125.950 E0.4714
G1 X125.968 Y125.950 E0.5462
G1 X125.968 Y130.947 E0.6210
G1 X125.937 Y131.020 E0.6222
G1 X123.538 Y133.420 E0.6730
G1 X123.464 Y133.450 E0.6742
G1 X110.366 Y133.450 E0.8702
G1 X110.292 Y133.420 E0.8714
G1 X107.893 Y131.020 E0.9222
G1 X107.862 Y130.947 E0.9234
G1 X107.862 Y125.950 E0.9982
G1 X107.571 Y125.950 E1.0025
G1 X107.498 Y125.920 E1.0037
G1 X105.098 Y123.520 E1.0545
G1 X105.068 Y123.447 E1.0557
