; G-Code generated by Simplify3D(R) Version 4.0.1
; Oct 8, 2018 at 3:33:31 PM
; Settings Summary
;   processName,Benchy
;   applyToModels,calicat
;   profileName,Ender3 - Benchy
;   profileVersion,2018-07-11 08:00:00
;   baseProfile,Creality Ender 3(2) (modified)
;   printMaterial,PLA
;   printQuality,High
;   printExtruders,
;   extruderName,Primary Extruder
;   extruderToolheadNumber,0
;   extruderDiameter,0.4
;   extruderAutoWidth,0
;   extruderWidth,0.4
;   extrusionMultiplier,0.9
;   extruderUseRetract,1
;   extruderRetractionDistance,4
;   extruderExtraRestartDistance,0
;   extruderRetractionZLift,0
;   extruderRetractionSpeed,2600
;   extruderUseCoasting,0
;   extruderCoastingDistance,0.2
;   extruderUseWipe,0
;   extruderWipeDistance,5
;   primaryExtruder,0
;   layerHeight,0.2
;   topSolidLayers,4
;   bottomSolidLayers,4
;   perimeterOutlines,2
;   printPerimetersInsideOut,1
;   startPointOption,2
;   startPointOriginX,0
;   startPointOriginY,0
;   sequentialIslands,0
;   spiralVaseMode,0
;   firstLayerHeightPercentage,120
;   firstLayerWidthPercentage,150
;   firstLayerUnderspeed,0.5
;   useRaft,0
;   raftExtruder,0
;   raftTopLayers,3
;   raftBaseLayers,2
;   raftOffset,3
;   raftSeparationDistance,0.14
;   raftTopInfill,100
;   aboveRaftSpeedMultiplier,0.3
;   useSkirt,1
;   skirtExtruder,0
;   skirtLayers,2
;   skirtOutlines,2
;   skirtOffset,4
;   usePrimePillar,0
;   primePillarExtruder,999
;   primePillarWidth,12
;   primePillarLocation,7
;   primePillarSpeedMultiplier,1
;   useOozeShield,0
;   oozeShieldExtruder,999
;   oozeShieldOffset,2
;   oozeShieldOutlines,1
;   oozeShieldSidewallShape,1
;   oozeShieldSidewallAngle,30
;   oozeShieldSpeedMultiplier,1
;   infillExtruder,0
;   internalInfillPattern,Fast Honeycomb
;   externalInfillPattern,Rectilinear
;   infillPercentage,15
;   outlineOverlapPercentage,15
;   infillExtrusionWidthPercentage,100
;   minInfillLength,5
;   infillLayerInterval,1
;   internalInfillAngles,45
;   overlapInternalInfillAngles,0
;   externalInfillAngles,45
;   generateSupport,0
;   supportExtruder,0
;   supportInfillPercentage,40
;   supportExtraInflation,0
;   supportBaseLayers,0
;   denseSupportExtruder,0
;   denseSupportLayers,0
;   denseSupportInfillPercentage,70
;   supportLayerInterval,1
;   supportHorizontalPartOffset,0.3
;   supportUpperSeparationLayers,1
;   supportLowerSeparationLayers,1
;   supportType,0
;   supportGridSpacing,4
;   maxOverhangAngle,45
;   supportAngles,0
;   temperatureName,Primary Extruder,Heated Bed
;   temperatureNumber,0,0
;   temperatureSetpointCount,1,1
;   temperatureSetpointLayers,1,1
;   temperatureSetpointTemperatures,238,50
;   temperatureStabilizeAtStartup,1,1
;   temperatureHeatedBed,0,1
;   temperatureRelayBetweenLayers,0,0
;   temperatureRelayBetweenLoops,0,0
;   fanLayers,1,2
;   fanSpeeds,0,100
;   blipFanToFullPower,0
;   adjustSpeedForCooling,1
;   minSpeedLayerTime,15
;   minCoolingSpeedSlowdown,20
;   increaseFanForCooling,0
;   minFanLayerTime,45
;   maxCoolingFanSpeed,100
;   increaseFanForBridging,0
;   bridgingFanSpeed,100
;   use5D,1
;   relativeEdistances,0
;   allowEaxisZeroing,1
;   independentExtruderAxes,0
;   includeM10123,0
;   stickySupport,1
;   applyToolheadOffsets,0
;   gcodeXoffset,0
;   gcodeYoffset,0
;   gcodeZoffset,0
;   overrideMachineDefinition,1
;   machineTypeOverride,0
;   strokeXoverride,220
;   strokeYoverride,220
;   strokeZoverride,250
;   originOffsetXoverride,-5
;   originOffsetYoverride,-5
;   originOffsetZoverride,0
;   homeXdirOverride,-1
;   homeYdirOverride,-1
;   homeZdirOverride,-1
;   flipXoverride,1
;   flipYoverride,-1
;   flipZoverride,1
;   toolheadOffsets,0,0|0,0|0,0|0,0|0,0|0,0
;   overrideFirmwareConfiguration,1
;   firmwareTypeOverride,RepRap (Marlin/Repetier/Sprinter)
;   GPXconfigOverride,r2
;   baudRateOverride,115200
;   overridePrinterModels,1
;   printerModelsOverride
;   startingGcode,G28 ; home all axes,G1 X5 Y10 Z0.2 F3000 ; get ready to prime,G92 E0 ; reset extrusion distance,G1 X160 E15 F600 ; prime nozzle,G1 X180 F5000 ; quick wipe
;   layerChangeGcode,
;   retractionGcode,
;   toolChangeGcode,
;   endingGcode,G28 X0 ; home X axis,M106 S0 ; turn off cooling fan,M104 S0 ; turn off extruder,M140 S0 ; turn off bed,M84 ; disable motors
;   exportFileFormat,gcode
;   celebration,0
;   celebrationSong,Funky Town
;   postProcessing,
;   defaultSpeed,2400
;   outlineUnderspeed,0.5
;   solidInfillUnderspeed,0.8
;   supportUnderspeed,0.8
;   rapidXYspeed,4800
;   rapidZspeed,1000
;   minBridgingArea,50
;   bridgingExtraInflation,0
;   bridgingExtrusionMultiplier,1
;   bridgingSpeedMultiplier,1
;   useFixedBridgingAngle,0
;   fixedBridgingAngle,0
;   applyBridgingToPerimeters,0
;   filamentDiameters,1.75|1.75|1.75|1.75|1.75|1.75
;   filamentPricesPerKg,46|46|46|46|46|46
;   filamentDensities,1.25|1.25|1.25|1.25|1.25|1.25
;   useMinPrintHeight,0
;   minPrintHeight,0
;   useMaxPrintHeight,0
;   maxPrintHeight,0
;   useDiaphragm,0
;   diaphragmLayerInterval,20
;   robustSlicing,1
;   mergeAllIntoSolid,0
;   onlyRetractWhenCrossingOutline,1
;   retractBetweenLayers,1
;   useRetractionMinTravel,0
;   retractionMinTravel,3
;   retractWhileWiping,0
;   onlyWipeOutlines,1
;   avoidCrossingOutline,0
;   maxMovementDetourFactor,3
;   toolChangeRetractionDistance,12
;   toolChangeExtraRestartDistance,-0.5
;   toolChangeRetractionSpeed,600
;   externalThinWallType,0
;   internalThinWallType,2
;   thinWallAllowedOverlapPercentage,10
;   singleExtrusionMinLength,1
;   singleExtrusionMinPrintingWidthPercentage,50
;   singleExtrusionMaxPrintingWidthPercentage,200
;   singleExtrusionEndpointExtension,0.2
;   horizontalSizeCompensation,0
G90
M82
M106 S0
M140 S50
M190 S50
M104 S238 T0
M109 S238 T0
G28 ; home all axes
G1 X5 Y10 Z0.2 F3000 ; get ready to prime
G92 E0 ; reset extrusion distance
G1 X160 E15 F600 ; prime nozzle
G1 X180 F5000 ; quick wipe
G92 E0
G1 E-4.0000 F2600
G1 Z0.240 F1000
; process Benchy
; layer 1, Z = 0.240
T0
; tool H0.240 W0.600
; skirt
G1 X106.192 Y102.316 F4800
G1 E0.0000 F780
G92 E0
G1 X108.704 Y99.804 E0.1914 F1200
G1 X108.925 Y99.712 E0.2043
G1 X127.477 Y99.712 E1.2039
G1 X127.698 Y99.804 E1.2168
G1 X130.209 Y102.316 E1.4082
G1 X130.301 Y102.536 E1.4210
G1 X130.301 Y121.839 E2.4611
G1 X130.209 Y122.059 E2.4739
G1 X127.698 Y124.571 E2.6653
G1 X127.477 Y124.662 E2.6782
G1 X124.676 Y124.662 E2.8291
G1 X124.676 Y127.464 E2.9801
G1 X124.584 Y127.684 E2.9929
G1 X122.073 Y130.196 E3.1843
G1 X121.852 Y130.287 E3.1972
G1 X110.808 Y130.287 E3.7923
G1 X110.587 Y130.196 E3.8051
G1 X108.076 Y127.684 E3.9965
G1 X107.984 Y127.464 E4.0094
G1 X107.984 Y123.851 E4.2040
G1 X106.192 Y122.059 E4.3406
G1 X106.101 Y121.839 E4.3535
G1 X106.101 Y102.536 E5.3935
G1 X106.192 Y102.316 E5.4064
G1 X106.531 Y102.542 F4800
G92 E0
G1 X108.931 Y100.143 E0.1828 F1200
G1 X109.004 Y100.112 E0.1871
G1 X127.397 Y100.112 E1.1782
G1 X127.471 Y100.143 E1.1825
G1 X129.870 Y102.542 E1.3653
G1 X129.901 Y102.616 E1.3696
G1 X129.901 Y121.759 E2.4011
G1 X129.870 Y121.833 E2.4053
G1 X127.471 Y124.232 E2.5882
G1 X127.397 Y124.263 E2.5925
G1 X124.276 Y124.263 E2.7607
G1 X124.276 Y127.384 E2.9289
G1 X124.245 Y127.458 E2.9331
G1 X121.846 Y129.857 E3.1160
G1 X121.772 Y129.887 E3.1203
G1 X110.888 Y129.887 E3.7068
G1 X110.814 Y129.857 E3.7111
G1 X108.415 Y127.458 E3.8939
G1 X108.384 Y127.384 E3.8982
G1 X108.384 Y123.686 E4.0975
G1 X106.531 Y121.833 E4.2386
G1 X106.501 Y121.759 E4.2429
G1 X106.501 Y102.616 E5.2744
G1 X106.531 Y102.542 E5.2787
G92 E0
G1 E-4.0000 F2600
; inner perimeter
G1 X111.601 Y105.212 F4800
G1 E0.0000 F2600
G92 E0
G1 X115.801 Y105.212 E0.2263 F900
G1 X115.801 Y110.162 E0.4930
G1 X111.601 Y110.162 E0.7193
G1 X111.601 Y105.212 E0.9860
; outer perimeter
G1 X111.001 Y104.612 F4800
G92 E0
G1 X116.401 Y104.612 E0.2910 F600
G1 X116.401 Y110.762 E0.6223
G1 X111.001 Y110.762 E0.9133
G1 X111.001 Y104.612 E1.2447
; solid layer
G1 X115.056 Y105.722 F4800
G92 E0
G1 X115.291 Y105.957 E0.0179 F960
G1 X115.291 Y106.806 E0.0636
G1 X114.208 Y105.722 E0.1461
G1 X113.359 Y105.722 E0.1918
G1 X115.291 Y107.654 E0.3390
G1 X115.291 Y108.503 E0.3847
G1 X112.511 Y105.722 E0.5966
G1 X112.111 Y105.722 E0.6181
G1 X112.111 Y106.171 E0.6423
G1 X115.291 Y109.351 E0.8846
G1 X115.291 Y109.652 E0.9009
G1 X114.744 Y109.652 E0.9303
G1 X112.111 Y107.020 E1.1310
G1 X112.111 Y107.868 E1.1767
G1 X113.895 Y109.652 E1.3126
G1 X113.047 Y109.652 E1.3584
G1 X112.111 Y108.717 E1.4297
G1 X112.111 Y109.565 E1.4754
G1 X112.198 Y109.652 E1.4820
G92 E0
G1 E-4.0000 F2600
; inner perimeter
G1 X111.601 Y114.213 F4800
G1 E0.0000 F2600
G92 E0
G1 X115.801 Y114.213 E0.2263 F900
G1 X115.801 Y117.963 E0.4284
G1 X120.601 Y117.963 E0.6870
G1 X120.601 Y114.213 E0.8890
G1 X124.801 Y114.213 E1.1153
G1 X124.801 Y119.162 E1.3821
G1 X119.176 Y119.162 E1.6851
G1 X119.176 Y124.787 E1.9882
G1 X113.704 Y124.787 E2.2830
G1 X113.704 Y122.837 E2.3881
G1 X117.226 Y122.837 E2.5779
G1 X117.226 Y119.162 E2.7759
G1 X111.601 Y119.162 E3.0790
G1 X111.601 Y114.213 E3.3457
; outer perimeter
G1 X111.001 Y113.613 F4800
G92 E0
G1 X116.401 Y113.612 E0.2910 F600
G1 X116.401 Y117.362 E0.4930
G1 X120.001 Y117.362 E0.6870
G1 X120.001 Y113.612 E0.8890
G1 X125.401 Y113.612 E1.1800
G1 X125.401 Y119.763 E1.5114
G1 X119.776 Y119.763 E1.8145
G1 X119.776 Y125.388 E2.1175
G1 X113.104 Y125.388 E2.4770
G1 X113.104 Y122.237 E2.6467
G1 X116.626 Y122.237 E2.8365
G1 X116.626 Y119.763 E2.9699
G1 X111.001 Y119.763 E3.2729
G1 X111.001 Y113.612 E3.6043
; solid layer
G1 X112.111 Y116.353 F4800
G92 E0
G1 X114.410 Y118.653 E0.1752 F960
G1 X113.561 Y118.653 E0.2209
G1 X112.111 Y117.202 E0.3314
G1 X112.111 Y118.050 E0.3772
G1 X112.713 Y118.653 E0.4230
G1 X114.723 Y114.723 F4800
G92 E0
G1 X115.291 Y115.291 E0.0433 F960
G1 X115.291 Y116.139 E0.0890
G1 X113.874 Y114.722 E0.1970
G1 X113.025 Y114.722 E0.2427
G1 X115.291 Y116.988 E0.4153
G1 X115.291 Y117.836 E0.4610
G1 X112.177 Y114.722 E0.6983
G1 X112.111 Y114.722 E0.7019
G1 X112.111 Y115.505 E0.7440
G1 X115.258 Y118.653 E0.9839
G1 X116.107 Y118.653 E1.0296
G1 X115.927 Y118.472 E1.0433
G1 X116.775 Y118.472 E1.0890
G1 X116.955 Y118.653 E1.1028
G1 X117.736 Y118.653 E1.1448
G1 X117.736 Y119.433 E1.1869
G1 X118.666 Y120.363 E1.2577
G1 X118.666 Y119.514 E1.3034
G1 X117.624 Y118.472 E1.3828
G1 X118.473 Y118.472 E1.4286
G1 X118.666 Y118.666 E1.4433
G1 X118.666 Y118.653 E1.4440
G1 X119.501 Y118.653 E1.4890
G1 X119.321 Y118.472 E1.5027
G1 X120.170 Y118.472 E1.5484
G1 X120.350 Y118.653 E1.5622
G1 X121.198 Y118.653 E1.6079
G1 X121.018 Y118.472 E1.6216
G1 X121.111 Y118.472 E1.6266
G1 X121.111 Y117.717 E1.6673
G1 X122.047 Y118.653 E1.7386
G1 X122.895 Y118.653 E1.7843
G1 X121.111 Y116.868 E1.9203
G1 X121.111 Y116.020 E1.9660
G1 X123.744 Y118.653 E2.1666
G1 X124.291 Y118.653 E2.1961
G1 X124.291 Y118.351 E2.2124
G1 X121.111 Y115.171 E2.4547
G1 X121.111 Y114.722 E2.4789
G1 X121.511 Y114.722 E2.5004
G1 X124.291 Y117.503 E2.7122
G1 X124.291 Y116.654 E2.7580
G1 X122.359 Y114.722 E2.9051
G1 X123.208 Y114.722 E2.9509
G1 X124.291 Y115.806 E3.0334
G1 X124.291 Y114.957 E3.0791
G1 X124.056 Y114.722 E3.0970
G1 X117.736 Y120.281 F4800
G92 E0
G1 X118.666 Y121.211 E0.0709 F960
G1 X118.666 Y122.060 E0.1166
G1 X117.736 Y121.130 E0.1875
G1 X117.736 Y121.978 E0.2332
G1 X118.666 Y122.908 E0.3040
G1 X118.666 Y123.757 E0.3498
G1 X117.736 Y122.827 E0.4206
G1 X117.736 Y123.347 E0.4487
G1 X117.408 Y123.347 E0.4664
G1 X118.338 Y124.278 E0.5372
G1 X117.489 Y124.278 E0.5829
G1 X116.559 Y123.347 E0.6538
G1 X115.711 Y123.347 E0.6995
G1 X116.641 Y124.278 E0.7704
G1 X115.792 Y124.278 E0.8161
G1 X114.862 Y123.347 E0.8870
G1 X114.214 Y123.347 E0.9219
G1 X114.214 Y123.548 E0.9327
G1 X114.944 Y124.278 E0.9883
G92 E0
G1 E-4.0000 F2600
; inner perimeter
G1 X120.601 Y110.162 F4800
G1 E0.0000 F2600
G92 E0
G1 X120.601 Y105.212 E0.2667 F900
G1 X124.801 Y105.212 E0.4930
G1 X124.801 Y110.162 E0.7597
G1 X120.601 Y110.162 E0.9860
; outer perimeter
G1 X120.001 Y110.762 F4800
G92 E0
G1 X120.001 Y104.612 E0.3314 F600
G1 X125.401 Y104.612 E0.6223
G1 X125.401 Y110.762 E0.9537
G1 X120.001 Y110.762 E1.2447
; solid layer
G1 X121.111 Y109.231 F4800
G92 E0
G1 X121.532 Y109.652 E0.0321 F960
G1 X122.380 Y109.652 E0.0778
G1 X121.111 Y108.383 E0.1745
G1 X121.111 Y107.534 E0.2203
G1 X123.229 Y109.652 E0.3817
G1 X124.077 Y109.652 E0.4274
G1 X121.111 Y106.686 E0.6534
G1 X121.111 Y105.837 E0.6992
G1 X124.291 Y109.017 E0.9415
G1 X124.291 Y108.169 E0.9872
G1 X121.845 Y105.722 E1.1736
G1 X122.693 Y105.722 E1.2193
G1 X124.291 Y107.320 E1.3411
G1 X124.291 Y106.472 E1.3868
G1 X123.542 Y105.722 E1.4439
G92 E0
G1 E-4.0000 F2600
; layer 2, Z = 0.440
M106 S255
; tool H0.200 W0.400
; skirt
G1 X127.477 Y99.712 F4800
G1 Z0.440 F1000
G1 E0.0000 F2600
G92 E0
G1 X127.698 Y99.804 E0.0071 F2400
G1 X130.209 Y102.316 E0.1135
G1 X130.301 Y102.536 E0.1206
G1 X130.301 Y121.839 E0.6984
G1 X130.209 Y122.059 E0.7056
G1 X127.698 Y124.571 E0.8119
G1 X127.477 Y124.662 E0.8191
G1 X124.676 Y124.662 E0.9029
G1 X124.676 Y127.464 E0.9868
G1 X124.584 Y127.684 E0.9939
G1 X122.073 Y130.196 E1.1002
G1 X121.852 Y130.287 E1.1074
G1 X110.808 Y130.287 E1.4380
G1 X110.587 Y130.196 E1.4451
G1 X108.076 Y127.684 E1.5515
G1 X107.984 Y127.464 E1.5586
G1 X107.984 Y123.851 E1.6667
G1 X106.192 Y122.059 E1.7426
G1 X106.101 Y121.839 E1.7498
G1 X106.101 Y102.536 E2.3276
G1 X106.192 Y102.316 E2.3347
G1 X108.704 Y99.804 E2.4410
G1 X108.925 Y99.712 E2.4482
G1 X127.477 Y99.712 E3.0035
G1 X127.397 Y100.112 F4800
G92 E0
G1 X127.471 Y100.143 E0.0024 F2400
G1 X129.870 Y102.542 E0.1040
G1 X129.901 Y102.616 E0.1063
G1 X129.901 Y121.759 E0.6794
G1 X129.870 Y121.833 E0.6818
G1 X127.471 Y124.232 E0.7833
G1 X127.397 Y124.263 E0.7857
G1 X124.276 Y124.263 E0.8792
G1 X124.276 Y127.384 E0.9726
G1 X124.245 Y127.458 E0.9750
G1 X121.846 Y129.857 E1.0766
G1 X121.772 Y129.887 E1.0789
G1 X110.888 Y129.887 E1.4048
G1 X110.814 Y129.857 E1.4072
G1 X108.415 Y127.458 E1.5087
G1 X108.384 Y127.384 E1.5111
G1 X108.384 Y123.686 E1.6218
G1 X106.531 Y121.833 E1.7003
G1 X106.501 Y121.759 E1.7026
G1 X106.501 Y102.616 E2.2757
G1 X106.531 Y102.542 E2.2781
G1 X108.931 Y100.143 E2.3796
G1 X109.004 Y100.112 E2.3820
G1 X127.397 Y100.112 E2.9326
G92 E0
G1 E-4.0000 F2600
; inner perimeter
G1 X125.101 Y104.912 F4800
G1 E0.0000 F2600
G92 E0
G1 X125.101 Y110.462 E0.1661 F1800
G1 X120.301 Y110.462 E0.3098
G1 X120.301 Y104.912 E0.4760
G1 X125.101 Y104.912 E0.6196
; outer perimeter
G1 X125.501 Y104.512 F4800
G92 E0
G1 X125.501 Y110.862 E0.1901 F1200
G1 X119.901 Y110.862 E0.3577
G1 X119.901 Y104.512 E0.5478
G1 X125.501 Y104.512 E0.7154
; solid layer
G1 X124.486 Y105.252 F4800
G92 E0
G1 X124.761 Y105.528 E0.0116 F1920
G1 X124.761 Y106.093 E0.0286
G1 X123.920 Y105.252 E0.0642
G1 X123.354 Y105.252 E0.0811
G1 X124.761 Y106.659 E0.1406
G1 X124.761 Y107.225 E0.1576
G1 X122.789 Y105.252 E0.2411
G1 X122.223 Y105.252 E0.2580
G1 X124.761 Y107.790 E0.3654
G1 X124.761 Y108.356 E0.3824
G1 X121.657 Y105.252 E0.5137
G1 X121.092 Y105.252 E0.5307
G1 X124.761 Y108.922 E0.6860
G1 X124.761 Y109.487 E0.7029
G1 X120.641 Y105.367 E0.8773
G1 X120.641 Y105.933 E0.8943
G1 X124.761 Y110.053 E1.0687
G1 X124.761 Y110.122 E1.0708
G1 X124.265 Y110.122 E1.0856
G1 X120.641 Y106.499 E1.2390
G1 X120.641 Y107.064 E1.2560
G1 X123.699 Y110.122 E1.3854
G1 X123.133 Y110.122 E1.4024
G1 X120.641 Y107.630 E1.5079
G1 X120.641 Y108.196 E1.5248
G1 X122.568 Y110.122 E1.6064
G1 X122.002 Y110.122 E1.6233
G1 X120.641 Y108.761 E1.6809
G1 X120.641 Y109.327 E1.6979
G1 X121.436 Y110.122 E1.7315
G1 X120.871 Y110.122 E1.7485
G1 X120.641 Y109.893 E1.7582
G92 E0
G1 E-4.0000 F2600
; inner perimeter
G1 X120.301 Y113.912 F4800
G1 E0.0000 F2600
G92 E0
G1 X125.101 Y113.912 E0.1437 F1800
G1 X125.101 Y119.463 E0.3098
G1 X119.476 Y119.463 E0.4782
G1 X119.476 Y125.088 E0.6466
G1 X113.184 Y125.088 E0.8349
G1 X113.184 Y122.537 E0.9112
G1 X116.926 Y122.537 E1.0232
G1 X116.926 Y119.463 E1.1153
G1 X111.301 Y119.463 E1.2837
G1 X111.301 Y113.912 E1.4498
G1 X116.101 Y113.912 E1.5935
G1 X116.101 Y117.662 E1.7057
G1 X120.301 Y117.662 E1.8315
G1 X120.301 Y113.912 E1.9437
; outer perimeter
