; G-Code generated by Simplify3D(R) Version 4.0.1
; Oct 8, 2018 at 11:35:09 AM
; Settings Summary
;   processName,Benchy
;   applyToModels,cali-dog-LINE
;   profileName,Ender3 - Benchy
;   profileVersion,2018-07-11 08:00:00
;   baseProfile,Creality Ender 3(2) (modified)
;   printMaterial,PLA
;   printQuality,Medium
;   printExtruders,
;   extruderName,Primary Extruder
;   extruderToolheadNumber,0
;   extruderDiameter,0.4
;   extruderAutoWidth,0
;   extruderWidth,0.4
;   extrusionMultiplier,0.9
;   extruderUseRetract,1
;   extruderRetractionDistance,4
;   extruderExtraRestartDistance,0
;   extruderRetractionZLift,0
;   extruderRetractionSpeed,2400
;   extruderUseCoasting,0
;   extruderCoastingDistance,0.2
;   extruderUseWipe,0
;   extruderWipeDistance,5
;   primaryExtruder,0
;   layerHeight,0.2
;   topSolidLayers,3
;   bottomSolidLayers,3
;   perimeterOutlines,2
;   printPerimetersInsideOut,1
;   startPointOption,2
;   startPointOriginX,0
;   startPointOriginY,0
;   sequentialIslands,0
;   spiralVaseMode,0
;   firstLayerHeightPercentage,120
;   firstLayerWidthPercentage,150
;   firstLayerUnderspeed,0.5
;   useRaft,0
;   raftExtruder,0
;   raftTopLayers,3
;   raftBaseLayers,2
;   raftOffset,3
;   raftSeparationDistance,0.14
;   raftTopInfill,100
;   aboveRaftSpeedMultiplier,0.3
;   useSkirt,1
;   skirtExtruder,0
;   skirtLayers,1
;   skirtOutlines,2
;   skirtOffset,4
;   usePrimePillar,0
;   primePillarExtruder,999
;   primePillarWidth,12
;   primePillarLocation,7
;   primePillarSpeedMultiplier,1
;   useOozeShield,0
;   oozeShieldExtruder,999
;   oozeShieldOffset,2
;   oozeShieldOutlines,1
;   oozeShieldSidewallShape,1
;   oozeShieldSidewallAngle,30
;   oozeShieldSpeedMultiplier,1
;   infillExtruder,0
;   internalInfillPattern,Rectilinear
;   externalInfillPattern,Rectilinear
;   infillPercentage,20
;   outlineOverlapPercentage,15
;   infillExtrusionWidthPercentage,100
;   minInfillLength,5
;   infillLayerInterval,1
;   internalInfillAngles,45,-45
;   overlapInternalInfillAngles,0
;   externalInfillAngles,45,-45
;   generateSupport,0
;   supportExtruder,0
;   supportInfillPercentage,30
;   supportExtraInflation,0
;   supportBaseLayers,0
;   denseSupportExtruder,0
;   denseSupportLayers,0
;   denseSupportInfillPercentage,70
;   supportLayerInterval,1
;   supportHorizontalPartOffset,0.3
;   supportUpperSeparationLayers,1
;   supportLowerSeparationLayers,1
;   supportType,0
;   supportGridSpacing,4
;   maxOverhangAngle,45
;   supportAngles,0
;   temperatureName,Primary Extruder,Heated Bed
;   temperatureNumber,0,0
;   temperatureSetpointCount,1,1
;   temperatureSetpointLayers,1,1
;   temperatureSetpointTemperatures,210,60
;   temperatureStabilizeAtStartup,1,1
;   temperatureHeatedBed,0,1
;   temperatureRelayBetweenLayers,0,0
;   temperatureRelayBetweenLoops,0,0
;   fanLayers,1,2
;   fanSpeeds,0,100
;   blipFanToFullPower,0
;   adjustSpeedForCooling,1
;   minSpeedLayerTime,15
;   minCoolingSpeedSlowdown,20
;   increaseFanForCooling,0
;   minFanLayerTime,45
;   maxCoolingFanSpeed,100
;   increaseFanForBridging,0
;   bridgingFanSpeed,100
;   use5D,1
;   relativeEdistances,0
;   allowEaxisZeroing,1
;   independentExtruderAxes,0
;   includeM10123,0
;   stickySupport,1
;   applyToolheadOffsets,0
;   gcodeXoffset,0
;   gcodeYoffset,0
;   gcodeZoffset,0
;   overrideMachineDefinition,1
;   machineTypeOverride,0
;   strokeXoverride,220
;   strokeYoverride,220
;   strokeZoverride,250
;   originOffsetXoverride,-5
;   originOffsetYoverride,-5
;   originOffsetZoverride,0
;   homeXdirOverride,-1
;   homeYdirOverride,-1
;   homeZdirOverride,-1
;   flipXoverride,1
;   flipYoverride,-1
;   flipZoverride,1
;   toolheadOffsets,0,0|0,0|0,0|0,0|0,0|0,0
;   overrideFirmwareConfiguration,1
;   firmwareTypeOverride,RepRap (Marlin/Repetier/Sprinter)
;   GPXconfigOverride,r2
;   baudRateOverride,115200
;   overridePrinterModels,1
;   printerModelsOverride
;   startingGcode,G28 ; home all axes,G1 X5 Y10 Z0.2 F3000 ; get ready to prime,G92 E0 ; reset extrusion distance,G1 X160 E15 F600 ; prime nozzle,G1 X180 F5000 ; quick wipe
;   layerChangeGcode,
;   retractionGcode,
;   toolChangeGcode,
;   endingGcode,G28 X0 ; home X axis,M106 S0 ; turn off cooling fan,M104 S0 ; turn off extruder,M140 S0 ; turn off bed,M84 ; disable motors
;   exportFileFormat,gcode
;   celebration,0
;   celebrationSong,Funky Town
;   postProcessing,
;   defaultSpeed,2400
;   outlineUnderspeed,0.5
;   solidInfillUnderspeed,0.8
;   supportUnderspeed,0.8
;   rapidXYspeed,4800
;   rapidZspeed,1000
;   minBridgingArea,50
;   bridgingExtraInflation,0
;   bridgingExtrusionMultiplier,1
;   bridgingSpeedMultiplier,1
;   useFixedBridgingAngle,0
;   fixedBridgingAngle,0
;   applyBridgingToPerimeters,0
;   filamentDiameters,1.75|1.75|1.75|1.75|1.75|1.75
;   filamentPricesPerKg,46|46|46|46|46|46
;   filamentDensities,1.25|1.25|1.25|1.25|1.25|1.25
;   useMinPrintHeight,0
;   minPrintHeight,0
;   useMaxPrintHeight,0
;   maxPrintHeight,0
;   useDiaphragm,0
;   diaphragmLayerInterval,20
;   robustSlicing,1
;   mergeAllIntoSolid,0
;   onlyRetractWhenCrossingOutline,1
;   retractBetweenLayers,1
;   useRetractionMinTravel,0
;   retractionMinTravel,3
;   retractWhileWiping,0
;   onlyWipeOutlines,1
;   avoidCrossingOutline,0
;   maxMovementDetourFactor,3
;   toolChangeRetractionDistance,12
;   toolChangeExtraRestartDistance,-0.5
;   toolChangeRetractionSpeed,600
;   externalThinWallType,0
;   internalThinWallType,2
;   thinWallAllowedOverlapPercentage,10
;   singleExtrusionMinLength,1
;   singleExtrusionMinPrintingWidthPercentage,50
;   singleExtrusionMaxPrintingWidthPercentage,200
;   singleExtrusionEndpointExtension,0.2
;   horizontalSizeCompensation,0
G90
M82
M106 S0
M140 S60
M190 S60
M104 S210 T0
M109 S210 T0
G28 ; home all axes
G1 X5 Y10 Z0.2 F3000 ; get ready to prime
G92 E0 ; reset extrusion distance
G1 X160 E15 F600 ; prime nozzle
G1 X180 F5000 ; quick wipe
G92 E0
G1 E-4.0000 F2400
G1 Z0.240 F1000
; process Benchy
; layer 1, Z = 0.240
T0
; tool H0.240 W0.600
; skirt
G1 X100.491 Y98.503 F4800
G1 E0.0000 F720
G92 E0
G1 X103.003 Y95.991 E0.1914 F1200
G1 X103.224 Y95.900 E0.2043
G1 X114.776 Y95.900 E0.8267
G1 X114.997 Y95.991 E0.8396
G1 X115.000 Y95.995 E0.8398
G1 X115.003 Y95.991 E0.8401
G1 X115.224 Y95.900 E0.8530
G1 X126.776 Y95.900 E1.4754
G1 X126.997 Y95.991 E1.4883
G1 X129.509 Y98.503 E1.6797
G1 X129.600 Y98.724 E1.6925
G1 X129.600 Y123.276 E3.0155
G1 X129.509 Y123.497 E3.0283
G1 X126.997 Y126.009 E3.2197
G1 X126.776 Y126.100 E3.2326
G1 X119.431 Y126.100 E3.6284
G1 X118.997 Y126.534 E3.6614
G1 X118.776 Y126.625 E3.6743
G1 X111.224 Y126.625 E4.0812
G1 X111.003 Y126.534 E4.0941
G1 X110.569 Y126.100 E4.1272
G1 X103.224 Y126.100 E4.5230
G1 X103.003 Y126.009 E4.5358
G1 X100.491 Y123.497 E4.7272
G1 X100.400 Y123.276 E4.7401
G1 X100.400 Y98.724 E6.0630
G1 X100.491 Y98.503 E6.0759
G1 X100.830 Y98.730 F4800
G92 E0
G1 X103.230 Y96.330 E0.1828 F1200
G1 X103.303 Y96.300 E0.1871
G1 X114.697 Y96.300 E0.8010
G1 X114.770 Y96.330 E0.8053
G1 X115.000 Y96.560 E0.8228
G1 X115.230 Y96.330 E0.8403
G1 X115.303 Y96.300 E0.8446
G1 X126.697 Y96.300 E1.4585
G1 X126.770 Y96.330 E1.4628
G1 X129.170 Y98.730 E1.6456
G1 X129.200 Y98.803 E1.6499
G1 X129.200 Y123.197 E2.9642
G1 X129.170 Y123.270 E2.9685
G1 X126.770 Y125.670 E3.1514
G1 X126.697 Y125.700 E3.1557
G1 X119.265 Y125.700 E3.5561
G1 X118.770 Y126.195 E3.5938
G1 X118.697 Y126.225 E3.5981
G1 X111.303 Y126.225 E3.9964
G1 X111.230 Y126.195 E4.0007
G1 X110.735 Y125.700 E4.0384
G1 X103.303 Y125.700 E4.4389
G1 X103.230 Y125.670 E4.4431
G1 X100.830 Y123.270 E4.6260
G1 X100.800 Y123.197 E4.6303
G1 X100.800 Y98.803 E5.9446
G1 X100.830 Y98.730 E5.9489
G92 E0
G1 E-4.0000 F2400
; inner perimeter
G1 X105.900 Y101.400 F4800
G1 E0.0000 F2400
G92 E0
G1 X112.100 Y101.400 E0.3341 F900
G1 X112.100 Y108.302 E0.7059
G1 X105.900 Y108.302 E1.0400
G1 X105.900 Y101.400 E1.4119
; outer perimeter
G1 X105.300 Y100.800 F4800
G92 E0
G1 X112.700 Y100.800 E0.3987 F600
G1 X112.700 Y108.902 E0.8353
G1 X105.300 Y108.902 E1.2340
G1 X105.300 Y100.800 E1.6705
; solid layer
G1 X111.244 Y101.910 F4800
G92 E0
G1 X111.590 Y102.256 E0.0264 F960
G1 X111.590 Y103.105 E0.0721
G1 X110.395 Y101.910 E0.1631
G1 X109.547 Y101.910 E0.2089
G1 X111.590 Y103.953 E0.3645
G1 X111.590 Y104.802 E0.4103
G1 X108.698 Y101.910 E0.6306
G1 X107.850 Y101.910 E0.6763
G1 X111.590 Y105.650 E0.9614
G1 X111.590 Y106.499 E1.0071
G1 X107.001 Y101.910 E1.3567
G1 X106.410 Y101.910 E1.3886
G1 X106.410 Y102.167 E1.4025
G1 X111.590 Y107.347 E1.7972
G1 X111.590 Y107.792 E1.8211
G1 X111.186 Y107.792 E1.8429
G1 X106.410 Y103.016 E2.2068
G1 X106.410 Y103.864 E2.2525
G1 X110.337 Y107.792 E2.5518
G1 X109.489 Y107.792 E2.5975
G1 X106.410 Y104.713 E2.8321
G1 X106.410 Y105.561 E2.8778
G1 X108.640 Y107.792 E3.0478
G1 X107.792 Y107.792 E3.0935
G1 X106.410 Y106.410 E3.1988
G1 X106.410 Y107.259 E3.2445
G1 X106.943 Y107.792 E3.2851
G92 E0
G1 E-4.0000 F2400
; inner perimeter
G1 X105.900 Y113.102 F4800
G1 E0.0000 F2400
G92 E0
G1 X112.100 Y113.102 E0.3341 F900
G1 X112.100 Y119.925 E0.7017
G1 X117.900 Y119.925 E1.0142
G1 X117.900 Y113.102 E1.3819
G1 X124.100 Y113.102 E1.7160
G1 X124.100 Y120.600 E2.1200
G1 X116.100 Y120.600 E2.5510
G1 X116.100 Y121.125 E2.5793
G1 X113.900 Y121.125 E2.6979
G1 X113.900 Y120.600 E2.7262
G1 X105.900 Y120.600 E3.1572
G1 X105.900 Y113.102 E3.5612
; outer perimeter
G1 X105.300 Y112.502 F4800
G92 E0
G1 X112.700 Y112.502 E0.3987 F600
G1 X112.700 Y119.325 E0.7664
G1 X117.300 Y119.325 E1.0142
G1 X117.300 Y112.502 E1.3819
G1 X124.700 Y112.502 E1.7806
G1 X124.700 Y121.200 E2.2493
G1 X116.700 Y121.200 E2.6803
G1 X116.700 Y121.725 E2.7086
G1 X113.300 Y121.725 E2.8918
G1 X113.300 Y121.200 E2.9201
G1 X105.300 Y121.200 E3.3512
G1 X105.300 Y112.502 E3.8199
; solid layer
G1 X111.066 Y113.612 F4800
G92 E0
G1 X111.590 Y114.136 E0.0399 F960
G1 X111.590 Y114.984 E0.0856
G1 X110.218 Y113.612 E0.1902
G1 X109.369 Y113.612 E0.2359
G1 X111.590 Y115.833 E0.4052
G1 X111.590 Y116.681 E0.4509
G1 X108.521 Y113.612 E0.6848
G1 X107.672 Y113.612 E0.7305
G1 X111.590 Y117.530 E1.0290
G1 X111.590 Y118.378 E1.0748
G1 X106.824 Y113.612 E1.4380
G1 X106.410 Y113.612 E1.4603
G1 X106.410 Y114.047 E1.4837
G1 X111.590 Y119.227 E1.8784
G1 X111.590 Y120.075 E1.9241
G1 X106.410 Y114.895 E2.3188
G1 X106.410 Y115.744 E2.3646
G1 X110.756 Y120.090 E2.6957
G1 X109.908 Y120.090 E2.7415
G1 X106.410 Y116.592 E3.0080
G1 X106.410 Y117.441 E3.0537
G1 X109.059 Y120.090 E3.2556
G1 X108.211 Y120.090 E3.3013
G1 X106.410 Y118.289 E3.4385
G1 X106.410 Y119.138 E3.4842
G1 X107.362 Y120.090 E3.5568
G1 X106.514 Y120.090 E3.6025
G1 X106.410 Y119.986 E3.6104
G1 X114.495 Y120.435 F4800
G92 E0
G1 X114.675 Y120.615 E0.0137 F960
G1 X115.524 Y120.615 E0.0594
G1 X115.344 Y120.435 E0.0732
G1 X119.241 Y120.090 F4800
G92 E0
G1 X118.410 Y119.259 E0.0634 F960
G1 X118.410 Y118.410 E0.1091
G1 X120.090 Y120.090 E0.2371
G1 X120.939 Y120.090 E0.2828
G1 X118.410 Y117.561 E0.4755
G1 X118.410 Y116.713 E0.5212
G1 X121.787 Y120.090 E0.7785
G1 X122.636 Y120.090 E0.8243
G1 X118.410 Y115.864 E1.1463
G1 X118.410 Y115.016 E1.1920
G1 X123.484 Y120.090 E1.5786
G1 X123.590 Y120.090 E1.5843
G1 X123.590 Y119.347 E1.6243
G1 X118.410 Y114.167 E2.0191
G1 X118.410 Y113.612 E2.0490
G1 X118.703 Y113.612 E2.0648
G1 X123.590 Y118.499 E2.4372
G1 X123.590 Y117.650 E2.4829
G1 X119.551 Y113.612 E2.7906
G1 X120.400 Y113.612 E2.8363
G1 X123.590 Y116.802 E3.0794
G1 X123.590 Y115.953 E3.1251
G1 X121.248 Y113.612 E3.3036
G1 X122.097 Y113.612 E3.3493
G1 X123.590 Y115.105 E3.4631
G1 X123.590 Y114.256 E3.5088
G1 X122.946 Y113.612 E3.5579
G92 E0
G1 E-4.0000 F2400
; inner perimeter
G1 X124.100 Y108.302 F4800
G1 E0.0000 F2400
G92 E0
G1 X117.900 Y108.302 E0.3341 F900
G1 X117.900 Y101.400 E0.7059
G1 X124.100 Y101.400 E1.0400
G1 X124.100 Y108.302 E1.4119
; outer perimeter
G1 X124.700 Y108.902 F4800
G92 E0
G1 X117.300 Y108.902 E0.3987 F600
G1 X117.300 Y100.800 E0.8353
G1 X124.700 Y100.800 E1.2340
G1 X124.700 Y108.902 E1.6705
; solid layer
G1 X118.823 Y107.792 F4800
G92 E0
G1 X118.410 Y107.379 E0.0314 F960
G1 X118.410 Y106.531 E0.0772
G1 X119.671 Y107.792 E0.1733
G1 X120.520 Y107.792 E0.2190
G1 X118.410 Y105.682 E0.3797
G1 X118.410 Y104.834 E0.4255
G1 X121.368 Y107.792 E0.6509
G1 X122.217 Y107.792 E0.6966
G1 X118.410 Y103.985 E0.9867
G1 X118.410 Y103.136 E1.0324
G1 X123.065 Y107.792 E1.3871
G1 X123.590 Y107.792 E1.4154
G1 X123.590 Y107.468 E1.4328
G1 X118.410 Y102.288 E1.8275
G1 X118.410 Y101.910 E1.8479
G1 X118.881 Y101.910 E1.8733
G1 X123.590 Y106.619 E2.2321
G1 X123.590 Y105.771 E2.2778
G1 X119.729 Y101.910 E2.5720
G1 X120.578 Y101.910 E2.6178
G1 X123.590 Y104.922 E2.8473
G1 X123.590 Y104.074 E2.8930
G1 X121.426 Y101.910 E3.0579
G1 X122.275 Y101.910 E3.1036
G1 X123.590 Y103.225 E3.2038
G1 X123.590 Y102.377 E3.2496
G1 X123.123 Y101.910 E3.2851
G92 E0
G1 E-4.0000 F2400
; layer 2, Z = 0.440
M106 S255
; tool H0.200 W0.400
; inner perimeter
G1 X124.400 Y101.100 F4800
G1 Z0.440 F1000
G1 E0.0000 F2400
G92 E0
G1 X124.400 Y108.602 E0.2246 F1800
G1 X117.600 Y108.602 E0.4281
G1 X117.600 Y101.100 E0.6527
G1 X124.400 Y101.100 E0.8562
; outer perimeter
G1 X124.800 Y100.700 F4800
G92 E0
G1 X124.800 Y109.002 E0.2485 F1200
G1 X117.200 Y109.002 E0.4760
G1 X117.200 Y100.700 E0.7245
G1 X124.800 Y100.700 E0.9520
; solid layer
G1 X117.940 Y101.878 F4800
G92 E0
G1 X118.378 Y101.440 E0.0185 F1920
G1 X118.943 Y101.440 E0.0355
G1 X117.940 Y102.443 E0.0779
G1 X117.940 Y103.009 E0.0949
G1 X119.509 Y101.440 E0.1613
G1 X120.075 Y101.440 E0.1782
G1 X117.940 Y103.575 E0.2686
G1 X117.940 Y104.140 E0.2855
G1 X120.640 Y101.440 E0.3999
G1 X121.206 Y101.440 E0.4168
G1 X117.940 Y104.706 E0.5551
G1 X117.940 Y105.272 E0.5720
G1 X121.772 Y101.440 E0.7342
G1 X122.337 Y101.440 E0.7511
G1 X117.940 Y105.837 E0.9373
G1 X117.940 Y106.403 E0.9542
G1 X122.903 Y101.440 E1.1643
G1 X123.469 Y101.440 E1.1813
G1 X117.940 Y106.969 E1.4153
G1 X117.940 Y107.535 E1.4323
G1 X124.035 Y101.440 E1.6903
G1 X124.060 Y101.440 E1.6910
G1 X124.060 Y101.980 E1.7072
G1 X117.940 Y108.100 E1.9663
G1 X117.940 Y108.262 E1.9711
G1 X118.344 Y108.262 E1.9832
G1 X124.060 Y102.546 E2.2252
G1 X124.060 Y103.112 E2.2421
G1 X118.910 Y108.262 E2.4601
G1 X119.476 Y108.262 E2.4771
G1 X124.060 Y103.677 E2.6711
G1 X124.060 Y104.243 E2.6881
G1 X120.041 Y108.262 E2.8582
G1 X120.607 Y108.262 E2.8751
G1 X124.060 Y104.809 E3.0213
G1 X124.060 Y105.374 E3.0382
G1 X121.173 Y108.262 E3.1605
G1 X121.738 Y108.262 E3.1774
G1 X124.060 Y105.940 E3.2757
G1 X124.060 Y106.506 E3.2926
G1 X122.304 Y108.262 E3.3670
G1 X122.870 Y108.262 E3.3839
G1 X124.060 Y107.071 E3.4343
G1 X124.060 Y107.637 E3.4512
G1 X123.435 Y108.262 E3.4777
G1 X124.001 Y108.262 E3.4946
G1 X124.060 Y108.203 E3.4971
G92 E0
G1 E-4.0000 F2400
; inner perimeter
G1 X124.400 Y112.802 F4800
G1 E0.0000 F2400
G92 E0
G1 X124.400 Y120.900 E0.2424 F1800
G1 X116.400 Y120.900 E0.4819
G1 X116.400 Y121.425 E0.4976
G1 X113.600 Y121.425 E0.5814
G1 X113.600 Y120.900 E0.5971
G1 X105.600 Y120.900 E0.8366
G1 X105.600 Y112.802 E1.0790
G1 X112.400 Y112.802 E1.2826
G1 X112.400 Y119.625 E1.4868
G1 X117.600 Y119.625 E1.6425
G1 X117.600 Y112.802 E1.8467
G1 X124.400 Y112.802 E2.0503
; outer perimeter
G1 X124.800 Y112.402 F4800
G92 E0
G1 X124.800 Y121.300 E0.2664 F1200
G1 X116.800 Y121.300 E0.5058
G1 X116.800 Y121.825 E0.5216
G1 X113.200 Y121.825 E0.6293
G1 X113.200 Y121.300 E0.6450
G1 X105.200 Y121.300 E0.8845
G1 X105.200 Y112.402 E1.1509
G1 X112.800 Y112.402 E1.3784
G1 X112.800 Y119.225 E1.5826
G1 X117.200 Y119.225 E1.7143
G1 X117.200 Y112.402 E1.9186
G1 X124.800 Y112.402 E2.1461
; solid layer
G1 X117.940 Y113.191 F4800
G92 E0
G1 X117.990 Y113.142 E0.0021 F1920
G1 X118.555 Y113.142 E0.0190
G1 X117.940 Y113.757 E0.0451
G1 X117.940 Y114.323 E0.0620
G1 X119.121 Y113.142 E0.1120
G1 X119.687 Y113.142 E0.1290
G1 X117.940 Y114.888 E0.2029
G1 X117.940 Y115.454 E0.2198
G1 X120.252 Y113.142 E0.3177
G1 X120.818 Y113.142 E0.3347
G1 X117.940 Y116.020 E0.4565
G1 X117.940 Y116.586 E0.4734
G1 X121.384 Y113.142 E0.6192
G1 X121.949 Y113.142 E0.6362
G1 X117.940 Y117.151 E0.8059
G1 X117.940 Y117.717 E0.8228
