; G-Code generated by Simplify3D(R) Version 4.0.1
; Oct 8, 2018 at 2:17:14 PM
; Settings Summary
;   processName,Benchy
;   applyToModels,Dice_of_Decisions
;   profileName,Ender3 - Benchy
;   profileVersion,2018-07-11 08:00:00
;   baseProfile,Creality Ender 3(2) (modified)
;   printMaterial,PLA
;   printQuality,Medium
;   printExtruders,
;   extruderName,Primary Extruder
;   extruderToolheadNumber,0
;   extruderDiameter,0.4
;   extruderAutoWidth,0
;   extruderWidth,0.4
;   extrusionMultiplier,0.9
;   extruderUseRetract,1
;   extruderRetractionDistance,4
;   extruderExtraRestartDistance,0
;   extruderRetractionZLift,0
;   extruderRetractionSpeed,2400
;   extruderUseCoasting,0
;   extruderCoastingDistance,0.2
;   extruderUseWipe,0
;   extruderWipeDistance,5
;   primaryExtruder,0
;   layerHeight,0.2
;   topSolidLayers,3
;   bottomSolidLayers,3
;   perimeterOutlines,2
;   printPerimetersInsideOut,1
;   startPointOption,2
;   startPointOriginX,0
;   startPointOriginY,0
;   sequentialIslands,0
;   spiralVaseMode,0
;   firstLayerHeightPercentage,120
;   firstLayerWidthPercentage,150
;   firstLayerUnderspeed,0.5
;   useRaft,0
;   raftExtruder,0
;   raftTopLayers,3
;   raftBaseLayers,2
;   raftOffset,3
;   raftSeparationDistance,0.14
;   raftTopInfill,100
;   aboveRaftSpeedMultiplier,0.3
;   useSkirt,1
;   skirtExtruder,0
;   skirtLayers,1
;   skirtOutlines,2
;   skirtOffset,4
;   usePrimePillar,0
;   primePillarExtruder,999
;   primePillarWidth,12
;   primePillarLocation,7
;   primePillarSpeedMultiplier,1
;   useOozeShield,0
;   oozeShieldExtruder,999
;   oozeShieldOffset,2
;   oozeShieldOutlines,1
;   oozeShieldSidewallShape,1
;   oozeShieldSidewallAngle,30
;   oozeShieldSpeedMultiplier,1
;   infillExtruder,0
;   internalInfillPattern,Rectilinear
;   externalInfillPattern,Rectilinear
;   infillPercentage,20
;   outlineOverlapPercentage,15
;   infillExtrusionWidthPercentage,100
;   minInfillLength,5
;   infillLayerInterval,1
;   internalInfillAngles,45,-45
;   overlapInternalInfillAngles,0
;   externalInfillAngles,45,-45
;   generateSupport,0
;   supportExtruder,0
;   supportInfillPercentage,30
;   supportExtraInflation,0
;   supportBaseLayers,0
;   denseSupportExtruder,0
;   denseSupportLayers,0
;   denseSupportInfillPercentage,70
;   supportLayerInterval,1
;   supportHorizontalPartOffset,0.3
;   supportUpperSeparationLayers,1
;   supportLowerSeparationLayers,1
;   supportType,0
;   supportGridSpacing,4
;   maxOverhangAngle,45
;   supportAngles,0
;   temperatureName,Primary Extruder,Heated Bed
;   temperatureNumber,0,0
;   temperatureSetpointCount,1,1
;   temperatureSetpointLayers,1,1
;   temperatureSetpointTemperatures,234,50
;   temperatureStabilizeAtStartup,1,1
;   temperatureHeatedBed,0,1
;   temperatureRelayBetweenLayers,0,0
;   temperatureRelayBetweenLoops,0,0
;   fanLayers,1,2
;   fanSpeeds,0,100
;   blipFanToFullPower,0
;   adjustSpeedForCooling,1
;   minSpeedLayerTime,15
;   minCoolingSpeedSlowdown,20
;   increaseFanForCooling,0
;   minFanLayerTime,45
;   maxCoolingFanSpeed,100
;   increaseFanForBridging,0
;   bridgingFanSpeed,100
;   use5D,1
;   relativeEdistances,0
;   allowEaxisZeroing,1
;   independentExtruderAxes,0
;   includeM10123,0
;   stickySupport,1
;   applyToolheadOffsets,0
;   gcodeXoffset,0
;   gcodeYoffset,0
;   gcodeZoffset,0
;   overrideMachineDefinition,1
;   machineTypeOverride,0
;   strokeXoverride,220
;   strokeYoverride,220
;   strokeZoverride,250
;   originOffsetXoverride,-5
;   originOffsetYoverride,-5
;   originOffsetZoverride,0
;   homeXdirOverride,-1
;   homeYdirOverride,-1
;   homeZdirOverride,-1
;   flipXoverride,1
;   flipYoverride,-1
;   flipZoverride,1
;   toolheadOffsets,0,0|0,0|0,0|0,0|0,0|0,0
;   overrideFirmwareConfiguration,1
;   firmwareTypeOverride,RepRap (Marlin/Repetier/Sprinter)
;   GPXconfigOverride,r2
;   baudRateOverride,115200
;   overridePrinterModels,1
;   printerModelsOverride
;   startingGcode,G28 ; home all axes,G1 X5 Y10 Z0.2 F3000 ; get ready to prime,G92 E0 ; reset extrusion distance,G1 X160 E15 F600 ; prime nozzle,G1 X180 F5000 ; quick wipe
;   layerChangeGcode,
;   retractionGcode,
;   toolChangeGcode,
;   endingGcode,G28 X0 ; home X axis,M106 S0 ; turn off cooling fan,M104 S0 ; turn off extruder,M140 S0 ; turn off bed,M84 ; disable motors
;   exportFileFormat,gcode
;   celebration,0
;   celebrationSong,Funky Town
;   postProcessing,
;   defaultSpeed,2400
;   outlineUnderspeed,0.5
;   solidInfillUnderspeed,0.8
;   supportUnderspeed,0.8
;   rapidXYspeed,4800
;   rapidZspeed,1000
;   minBridgingArea,50
;   bridgingExtraInflation,0
;   bridgingExtrusionMultiplier,1
;   bridgingSpeedMultiplier,1
;   useFixedBridgingAngle,0
;   fixedBridgingAngle,0
;   applyBridgingToPerimeters,0
;   filamentDiameters,1.75|1.75|1.75|1.75|1.75|1.75
;   filamentPricesPerKg,46|46|46|46|46|46
;   filamentDensities,1.25|1.25|1.25|1.25|1.25|1.25
;   useMinPrintHeight,0
;   minPrintHeight,0
;   useMaxPrintHeight,0
;   maxPrintHeight,0
;   useDiaphragm,0
;   diaphragmLayerInterval,20
;   robustSlicing,1
;   mergeAllIntoSolid,0
;   onlyRetractWhenCrossingOutline,1
;   retractBetweenLayers,1
;   useRetractionMinTravel,0
;   retractionMinTravel,3
;   retractWhileWiping,0
;   onlyWipeOutlines,1
;   avoidCrossingOutline,0
;   maxMovementDetourFactor,3
;   toolChangeRetractionDistance,12
;   toolChangeExtraRestartDistance,-0.5
;   toolChangeRetractionSpeed,600
;   externalThinWallType,0
;   internalThinWallType,2
;   thinWallAllowedOverlapPercentage,10
;   singleExtrusionMinLength,1
;   singleExtrusionMinPrintingWidthPercentage,50
;   singleExtrusionMaxPrintingWidthPercentage,200
;   singleExtrusionEndpointExtension,0.2
;   horizontalSizeCompensation,0
G90
M82
M106 S0
M140 S50
M190 S50
M104 S234 T0
M109 S234 T0
G28 ; home all axes
G1 X5 Y10 Z0.2 F3000 ; get ready to prime
G92 E0 ; reset extrusion distance
G1 X160 E15 F600 ; prime nozzle
G1 X180 F5000 ; quick wipe
G92 E0
G1 E-4.0000 F2400
G1 Z0.240 F1000
; process Benchy
; layer 1, Z = 0.240
T0
; tool H0.240 W0.600
; skirt
G1 X109.419 Y117.739 F4800
G1 E0.0000 F720
G92 E0
G1 X110.166 Y117.066 E0.0542 F1200
G1 X110.178 Y117.056 E0.0550
G1 X110.346 Y116.918 E0.0667
G1 X110.358 Y116.909 E0.0676
G1 X111.168 Y116.316 E0.1216
G1 X111.181 Y116.307 E0.1225
G1 X111.369 Y116.184 E0.1346
G1 X111.382 Y116.176 E0.1354
G1 X112.127 Y115.742 E0.1819
G1 X112.139 Y115.735 E0.1826
G1 X112.307 Y115.647 E0.1928
G1 X112.319 Y115.641 E0.1936
G1 X113.327 Y115.167 E0.2536
G1 X113.342 Y115.161 E0.2544
G1 X113.552 Y115.076 E0.2667
G1 X113.567 Y115.070 E0.2675
G1 X114.467 Y114.758 E0.3188
G1 X114.480 Y114.754 E0.3196
G1 X114.676 Y114.696 E0.3306
G1 X114.690 Y114.693 E0.3314
G1 X115.593 Y114.473 E0.3814
G1 X115.608 Y114.470 E0.3822
G1 X115.811 Y114.431 E0.3934
G1 X115.825 Y114.429 E0.3942
G1 X116.737 Y114.298 E0.4438
G1 X116.751 Y114.297 E0.4445
G1 X116.952 Y114.277 E0.4554
G1 X116.966 Y114.276 E0.4562
G1 X117.882 Y114.232 E0.5056
G1 X117.896 Y114.232 E0.5064
G1 X118.102 Y114.232 E0.5175
G1 X118.117 Y114.232 E0.5183
G1 X119.033 Y114.276 E0.5677
G1 X119.048 Y114.277 E0.5685
G1 X119.249 Y114.296 E0.5794
G1 X119.263 Y114.298 E0.5801
G1 X120.175 Y114.429 E0.6298
G1 X120.189 Y114.431 E0.6305
G1 X120.392 Y114.470 E0.6417
G1 X120.407 Y114.473 E0.6425
G1 X121.310 Y114.693 E0.6926
G1 X121.324 Y114.697 E0.6934
G1 X121.521 Y114.755 E0.7044
G1 X121.535 Y114.759 E0.7052
G1 X122.433 Y115.070 E0.7564
G1 X122.448 Y115.076 E0.7573
G1 X122.656 Y115.161 E0.7694
G1 X122.671 Y115.167 E0.7702
G1 X123.679 Y115.640 E0.8303
G1 X123.691 Y115.646 E0.8310
G1 X123.861 Y115.735 E0.8413
G1 X123.873 Y115.742 E0.8420
G1 X124.618 Y116.176 E0.8885
G1 X124.631 Y116.184 E0.8894
G1 X124.819 Y116.307 E0.9015
G1 X124.832 Y116.316 E0.9023
G1 X125.642 Y116.909 E0.9564
G1 X125.654 Y116.918 E0.9572
G1 X125.822 Y117.056 E0.9689
G1 X125.834 Y117.066 E0.9697
G1 X126.581 Y117.739 E1.0239
G1 X126.592 Y117.749 E1.0248
G1 X126.750 Y117.906 E1.0367
G1 X126.760 Y117.918 E1.0376
G1 X127.436 Y118.667 E1.0919
G1 X127.446 Y118.679 E1.0928
G1 X127.587 Y118.852 E1.1048
G1 X127.597 Y118.864 E1.1056
G1 X128.188 Y119.674 E1.1597
G1 X128.196 Y119.686 E1.1605
G1 X128.315 Y119.868 E1.1722
G1 X128.323 Y119.881 E1.1730
G1 X128.758 Y120.624 E1.2194
G1 X128.765 Y120.636 E1.2201
G1 X128.856 Y120.811 E1.2308
G1 X128.863 Y120.823 E1.2315
G1 X129.335 Y121.833 E1.2916
G1 X129.341 Y121.847 E1.2924
G1 X129.425 Y122.053 E1.3044
G1 X129.431 Y122.067 E1.3052
G1 X129.743 Y122.966 E1.3565
G1 X129.748 Y122.980 E1.3573
G1 X129.806 Y123.180 E1.3685
G1 X129.810 Y123.194 E1.3693
G1 X130.029 Y124.097 E1.4193
G1 X130.032 Y124.111 E1.4201
G1 X130.070 Y124.310 E1.4311
G1 X130.072 Y124.324 E1.4318
G1 X130.204 Y125.237 E1.4815
G1 X130.206 Y125.251 E1.4823
G1 X130.225 Y125.457 E1.4934
G1 X130.226 Y125.471 E1.4942
G1 X130.269 Y126.384 E1.5434
G1 X130.269 Y126.398 E1.5442
G1 X130.270 Y126.594 E1.5547
G1 X130.269 Y126.607 E1.5554
G1 X130.239 Y127.286 E1.5921
G1 X130.239 Y127.298 E1.5927
G1 X130.225 Y127.465 E1.6017
G1 X130.223 Y127.477 E1.6024
G1 X130.084 Y128.607 E1.6637
G1 X130.082 Y128.625 E1.6647
G1 X130.037 Y128.868 E1.6780
G1 X130.034 Y128.885 E1.6789
G1 X129.810 Y129.809 E1.7302
G1 X129.806 Y129.824 E1.7310
G1 X129.748 Y130.024 E1.7422
G1 X129.743 Y130.038 E1.7430
G1 X129.431 Y130.937 E1.7943
G1 X129.425 Y130.951 E1.7951
G1 X129.341 Y131.157 E1.8071
G1 X129.335 Y131.171 E1.8079
G1 X128.863 Y132.181 E1.8680
G1 X128.857 Y132.193 E1.8687
G1 X128.765 Y132.368 E1.8794
G1 X128.758 Y132.380 E1.8801
G1 X128.323 Y133.123 E1.9265
G1 X128.315 Y133.136 E1.9273
G1 X128.196 Y133.318 E1.9390
G1 X128.188 Y133.330 E1.9398
G1 X127.597 Y134.140 E1.9939
G1 X127.587 Y134.152 E1.9947
G1 X127.446 Y134.325 E2.0067
G1 X127.436 Y134.337 E2.0076
G1 X126.760 Y135.086 E2.0619
G1 X126.750 Y135.098 E2.0628
G1 X126.592 Y135.255 E2.0747
G1 X126.581 Y135.265 E2.0756
G1 X125.834 Y135.939 E2.1298
G1 X125.822 Y135.948 E2.1306
G1 X125.653 Y136.086 E2.1423
G1 X125.641 Y136.095 E2.1431
G1 X124.832 Y136.688 E2.1972
G1 X124.819 Y136.697 E2.1980
G1 X124.631 Y136.820 E2.2101
G1 X124.618 Y136.828 E2.2110
G1 X123.873 Y137.262 E2.2575
G1 X123.861 Y137.269 E2.2582
G1 X123.691 Y137.358 E2.2685
G1 X123.679 Y137.364 E2.2692
G1 X122.671 Y137.837 E2.3293
G1 X122.656 Y137.843 E2.3301
G1 X122.448 Y137.928 E2.3422
G1 X122.433 Y137.934 E2.3431
G1 X121.535 Y138.245 E2.3943
G1 X121.521 Y138.250 E2.3951
G1 X121.324 Y138.308 E2.4061
G1 X121.310 Y138.311 E2.4069
G1 X120.406 Y138.531 E2.4570
G1 X120.392 Y138.534 E2.4578
G1 X120.189 Y138.573 E2.4690
G1 X120.175 Y138.575 E2.4697
G1 X119.263 Y138.706 E2.5194
G1 X119.249 Y138.707 E2.5201
G1 X119.048 Y138.727 E2.5310
G1 X119.034 Y138.728 E2.5318
G1 X118.117 Y138.772 E2.5812
G1 X118.102 Y138.772 E2.5820
G1 X117.896 Y138.772 E2.5931
G1 X117.882 Y138.772 E2.5939
G1 X116.966 Y138.728 E2.6433
G1 X116.952 Y138.727 E2.6441
G1 X116.751 Y138.707 E2.6550
G1 X116.737 Y138.706 E2.6557
G1 X115.825 Y138.575 E2.7053
G1 X115.811 Y138.573 E2.7061
G1 X115.608 Y138.534 E2.7173
G1 X115.593 Y138.531 E2.7180
G1 X114.690 Y138.311 E2.7681
G1 X114.676 Y138.308 E2.7689
G1 X114.480 Y138.250 E2.7799
G1 X114.467 Y138.246 E2.7807
G1 X113.567 Y137.934 E2.8320
G1 X113.552 Y137.928 E2.8328
G1 X113.342 Y137.843 E2.8451
G1 X113.327 Y137.837 E2.8459
G1 X112.319 Y137.363 E2.9059
G1 X112.307 Y137.357 E2.9067
G1 X112.139 Y137.269 E2.9169
G1 X112.127 Y137.262 E2.9176
G1 X111.382 Y136.828 E2.9641
G1 X111.369 Y136.820 E2.9649
G1 X111.181 Y136.697 E2.9770
G1 X111.168 Y136.688 E2.9779
G1 X110.359 Y136.095 E3.0319
G1 X110.346 Y136.086 E3.0328
G1 X110.178 Y135.948 E3.0445
G1 X110.166 Y135.939 E3.0453
G1 X109.419 Y135.265 E3.0995
G1 X109.408 Y135.255 E3.1003
G1 X109.250 Y135.098 E3.1123
G1 X109.240 Y135.086 E3.1131
G1 X108.564 Y134.338 E3.1675
G1 X108.554 Y134.326 E3.1683
G1 X108.415 Y134.155 E3.1802
G1 X108.406 Y134.143 E3.1810
G1 X107.813 Y133.332 E3.2351
G1 X107.804 Y133.319 E3.2360
G1 X107.682 Y133.134 E3.2479
G1 X107.674 Y133.121 E3.2487
G1 X107.240 Y132.376 E3.2952
G1 X107.233 Y132.364 E3.2959
G1 X107.143 Y132.192 E3.3064
G1 X107.137 Y132.180 E3.3072
G1 X106.665 Y131.171 E3.3672
G1 X106.658 Y131.157 E3.3680
G1 X106.575 Y130.951 E3.3799
G1 X106.569 Y130.937 E3.3808
G1 X106.257 Y130.038 E3.4321
G1 X106.252 Y130.024 E3.4328
G1 X106.194 Y129.824 E3.4441
G1 X106.190 Y129.810 E3.4449
G1 X105.971 Y128.907 E3.4949
G1 X105.968 Y128.893 E3.4957
G1 X105.930 Y128.694 E3.5066
G1 X105.927 Y128.680 E3.5074
G1 X105.796 Y127.768 E3.5570
G1 X105.794 Y127.754 E3.5578
G1 X105.775 Y127.551 E3.5688
G1 X105.774 Y127.536 E3.5696
G1 X105.730 Y126.620 E3.6190
G1 X105.729 Y126.605 E3.6198
G1 X105.729 Y126.399 E3.6309
G1 X105.730 Y126.384 E3.6317
G1 X105.774 Y125.468 E3.6812
G1 X105.775 Y125.453 E3.6819
G1 X105.794 Y125.250 E3.6929
G1 X105.796 Y125.236 E3.6937
G1 X105.927 Y124.324 E3.7433
G1 X105.930 Y124.310 E3.7441
G1 X105.968 Y124.111 E3.7550
G1 X105.971 Y124.097 E3.7558
G1 X106.190 Y123.194 E3.8058
G1 X106.194 Y123.180 E3.8066
G1 X106.252 Y122.980 E3.8179
G1 X106.257 Y122.966 E3.8187
G1 X106.569 Y122.067 E3.8699
G1 X106.575 Y122.053 E3.8708
G1 X106.658 Y121.847 E3.8827
G1 X106.665 Y121.833 E3.8836
G1 X107.137 Y120.824 E3.9436
G1 X107.143 Y120.812 E3.9443
G1 X107.233 Y120.640 E3.9548
G1 X107.240 Y120.628 E3.9555
G1 X107.674 Y119.883 E4.0020
G1 X107.682 Y119.870 E4.0028
G1 X107.804 Y119.685 E4.0147
G1 X107.813 Y119.672 E4.0156
G1 X108.406 Y118.861 E4.0697
G1 X108.415 Y118.849 E4.0705
G1 X108.554 Y118.678 E4.0824
G1 X108.564 Y118.666 E4.0833
G1 X109.240 Y117.918 E4.1376
G1 X109.250 Y117.906 E4.1384
G1 X109.408 Y117.749 E4.1504
G1 X109.419 Y117.739 E4.1512
G1 X109.690 Y118.032 F4800
G92 E0
G1 X110.430 Y117.366 E0.0536 F1200
G1 X110.434 Y117.363 E0.0539
G1 X110.595 Y117.232 E0.0651
G1 X110.599 Y117.229 E0.0654
G1 X111.400 Y116.642 E0.1189
G1 X111.405 Y116.639 E0.1192
G1 X111.584 Y116.522 E0.1307
G1 X111.588 Y116.519 E0.1310
G1 X112.324 Y116.090 E0.1769
G1 X112.328 Y116.088 E0.1771
G1 X112.489 Y116.003 E0.1869
G1 X112.493 Y116.001 E0.1872
G1 X113.493 Y115.532 E0.2467
G1 X113.497 Y115.530 E0.2469
G1 X113.698 Y115.448 E0.2586
G1 X113.703 Y115.446 E0.2589
G1 X114.593 Y115.138 E0.3097
G1 X114.597 Y115.136 E0.3099
G1 X114.785 Y115.082 E0.3204
G1 X114.789 Y115.080 E0.3207
G1 X115.683 Y114.863 E0.3702
G1 X115.688 Y114.862 E0.3705
G1 X115.882 Y114.825 E0.3811
G1 X115.886 Y114.824 E0.3814
G1 X116.789 Y114.695 E0.4305
G1 X116.793 Y114.694 E0.4308
G1 X116.986 Y114.676 E0.4412
G1 X116.990 Y114.676 E0.4414
G1 X117.896 Y114.632 E0.4903
G1 X117.901 Y114.632 E0.4905
G1 X118.098 Y114.632 E0.5011
G1 X118.102 Y114.632 E0.5014
G1 X119.010 Y114.676 E0.5503
G1 X119.014 Y114.676 E0.5506
G1 X119.207 Y114.694 E0.5610
G1 X119.211 Y114.695 E0.5612
G1 X120.114 Y114.824 E0.6104
G1 X120.118 Y114.825 E0.6106
G1 X120.312 Y114.862 E0.6213
G1 X120.317 Y114.863 E0.6215
G1 X121.211 Y115.080 E0.6711
G1 X121.216 Y115.082 E0.6714
G1 X121.404 Y115.137 E0.6819
G1 X121.408 Y115.138 E0.6822
G1 X122.297 Y115.447 E0.7329
G1 X122.302 Y115.448 E0.7331
G1 X122.501 Y115.529 E0.7447
G1 X122.505 Y115.531 E0.7450
G1 X123.505 Y116.000 E0.8045
G1 X123.509 Y116.002 E0.8047
G1 X123.671 Y116.087 E0.8146
G1 X123.675 Y116.089 E0.8148
G1 X124.412 Y116.519 E0.8608
G1 X124.416 Y116.522 E0.8611
G1 X124.595 Y116.639 E0.8726
G1 X124.600 Y116.642 E0.8729
G1 X125.401 Y117.229 E0.9264
G1 X125.405 Y117.232 E0.9267
G1 X125.566 Y117.363 E0.9378
G1 X125.570 Y117.366 E0.9381
G1 X126.310 Y118.032 E0.9918
G1 X126.313 Y118.036 E0.9920
G1 X126.463 Y118.186 E1.0035
G1 X126.467 Y118.189 E1.0037
G1 X127.136 Y118.931 E1.0575
G1 X127.139 Y118.935 E1.0578
G1 X127.273 Y119.100 E1.0693
G1 X127.277 Y119.104 E1.0696
G1 X127.861 Y119.906 E1.1230
G1 X127.864 Y119.910 E1.1233
G1 X127.978 Y120.083 E1.1345
G1 X127.980 Y120.087 E1.1347
G1 X128.411 Y120.822 E1.1806
G1 X128.413 Y120.826 E1.1809
G1 X128.500 Y120.993 E1.1910
G1 X128.502 Y120.997 E1.1912
G1 X128.971 Y121.998 E1.2508
G1 X128.973 Y122.002 E1.2511
G1 X129.053 Y122.199 E1.2625
G1 X129.054 Y122.203 E1.2627
G1 X129.364 Y123.093 E1.3135
G1 X129.365 Y123.098 E1.3138
G1 X129.421 Y123.289 E1.3245
G1 X129.423 Y123.293 E1.3247
G1 X129.639 Y124.187 E1.3743
