; G-Code generated by Simplify3D(R) Version 4.0.1
; Nov 13, 2018 at 1:47:09 AM
; Settings Summary
;   processName,Process1
;   applyToModels,modified_mount
;   profileName,Creality Ender-3 (modified)
;   profileVersion,2018-10-08 00:18:15
;   baseProfile,Creality Ender-3
;   printMaterial,PLA
;   printQuality,High
;   printExtruders,
;   extruderName,Primary Extruder
;   extruderToolheadNumber,0
;   extruderDiameter,0.4
;   extruderAutoWidth,1
;   extruderWidth,0.48
;   extrusionMultiplier,0.88
;   extruderUseRetract,1
;   extruderRetractionDistance,8
;   extruderExtraRestartDistance,0
;   extruderRetractionZLift,0
;   extruderRetractionSpeed,1800
;   extruderUseCoasting,1
;   extruderCoastingDistance,0.4
;   extruderUseWipe,1
;   extruderWipeDistance,5
;   primaryExtruder,0
;   layerHeight,0.2
;   topSolidLayers,4
;   bottomSolidLayers,4
;   perimeterOutlines,2
;   printPerimetersInsideOut,0
;   startPointOption,3
;   startPointOriginX,0
;   startPointOriginY,110
;   sequentialIslands,0
;   spiralVaseMode,0
;   firstLayerHeightPercentage,80
;   firstLayerWidthPercentage,105
;   firstLayerUnderspeed,0.3
;   useRaft,0
;   raftExtruder,0
;   raftTopLayers,3
;   raftBaseLayers,2
;   raftOffset,3
;   raftSeparationDistance,0.14
;   raftTopInfill,100
;   aboveRaftSpeedMultiplier,0.3
;   useSkirt,0
;   skirtExtruder,0
;   skirtLayers,2
;   skirtOutlines,2
;   skirtOffset,4
;   usePrimePillar,0
;   primePillarExtruder,999
;   primePillarWidth,12
;   primePillarLocation,7
;   primePillarSpeedMultiplier,1
;   useOozeShield,0
;   oozeShieldExtruder,999
;   oozeShieldOffset,2
;   oozeShieldOutlines,1
;   oozeShieldSidewallShape,1
;   oozeShieldSidewallAngle,30
;   oozeShieldSpeedMultiplier,1
;   infillExtruder,0
;   internalInfillPattern,Rectilinear
;   externalInfillPattern,Rectilinear
;   infillPercentage,40
;   outlineOverlapPercentage,22
;   infillExtrusionWidthPercentage,100
;   minInfillLength,5
;   infillLayerInterval,1
;   internalInfillAngles,45,-45
;   overlapInternalInfillAngles,0
;   externalInfillAngles,45,-45
;   generateSupport,0
;   supportExtruder,0
;   supportInfillPercentage,40
;   supportExtraInflation,1
;   supportBaseLayers,2
;   denseSupportExtruder,0
;   denseSupportLayers,2
;   denseSupportInfillPercentage,70
;   supportLayerInterval,1
;   supportHorizontalPartOffset,0.3
;   supportUpperSeparationLayers,1
;   supportLowerSeparationLayers,1
;   supportType,0
;   supportGridSpacing,4
;   maxOverhangAngle,45
;   supportAngles,45
;   temperatureName,Primary Extruder,Heated Bed
;   temperatureNumber,0,0
;   temperatureSetpointCount,1,1
;   temperatureSetpointLayers,1,1
;   temperatureSetpointTemperatures,230,50
;   temperatureStabilizeAtStartup,1,1
;   temperatureHeatedBed,0,1
;   temperatureRelayBetweenLayers,0,0
;   temperatureRelayBetweenLoops,0,0
;   fanLayers,1,4,5,8
;   fanSpeeds,0,30,60,100
;   blipFanToFullPower,1
;   adjustSpeedForCooling,1
;   minSpeedLayerTime,15
;   minCoolingSpeedSlowdown,20
;   increaseFanForCooling,0
;   minFanLayerTime,45
;   maxCoolingFanSpeed,100
;   increaseFanForBridging,0
;   bridgingFanSpeed,100
;   use5D,1
;   relativeEdistances,0
;   allowEaxisZeroing,1
;   independentExtruderAxes,0
;   includeM10123,0
;   stickySupport,1
;   applyToolheadOffsets,0
;   gcodeXoffset,0
;   gcodeYoffset,0
;   gcodeZoffset,0
;   overrideMachineDefinition,1
;   machineTypeOverride,0
;   strokeXoverride,220
;   strokeYoverride,220
;   strokeZoverride,250
;   originOffsetXoverride,0
;   originOffsetYoverride,0
;   originOffsetZoverride,0
;   homeXdirOverride,-1
;   homeYdirOverride,-1
;   homeZdirOverride,-1
;   flipXoverride,1
;   flipYoverride,-1
;   flipZoverride,1
;   toolheadOffsets,0,0|0,0|0,0|0,0|0,0|0,0
;   overrideFirmwareConfiguration,1
;   firmwareTypeOverride,RepRap (Marlin/Repetier/Sprinter)
;   GPXconfigOverride,r2
;   baudRateOverride,115200
;   overridePrinterModels,1
;   printerModelsOverride,Ender3bed.STL
;   startingGcode,M117 Here We Go!!!,G28 ; home all axes,M204 P500 S700  T1000,M205 X10 Y10 ; set jerk x/y=10,M117 Purging Extruder...,G1 Z1.0 F3000 ; lift Z,G1 X0.2 Y25 Z0.2 F3000.0 ; move to start-line position,G92 E0 ; reset extruder,G1 X0.2 Y150.0 F1000.0 E15 ; draw 1st line,G1 X0.7 Y150.0 F3000.0 ; move to side 0.5mm,G1 X0.7 Y50 F1000.0 E30 ; draw 2nd line,G1 X0.7 Y25 F5000.0 ; quick wipe,M117 Printing...
;   layerChangeGcode,
;   retractionGcode,
;   toolChangeGcode,
;   endingGcode,M104 S0 ; turn off extruder,M140 S0 ; turn off bed,G1 X0 Y295 F1000 ; move finished print out front,M84 ; disable motors,M106 S0 ; turn off cooling fan
;   exportFileFormat,gcode
;   celebration,0
;   celebrationSong,Funky Town
;   postProcessing,
;   defaultSpeed,7200
;   outlineUnderspeed,0.75
;   solidInfillUnderspeed,0.9
;   supportUnderspeed,0.9
;   rapidXYspeed,4800
;   rapidZspeed,1002
;   minBridgingArea,50
;   bridgingExtraInflation,0
;   bridgingExtrusionMultiplier,1
;   bridgingSpeedMultiplier,1
;   useFixedBridgingAngle,0
;   fixedBridgingAngle,0
;   applyBridgingToPerimeters,0
;   filamentDiameters,1.75|1.75|1.75|1.75|1.75|1.75
;   filamentPricesPerKg,17|46|46|46|46|46
;   filamentDensities,1.25|1.25|1.25|1.25|1.25|1.25
;   useMinPrintHeight,0
;   minPrintHeight,0
;   useMaxPrintHeight,0
;   maxPrintHeight,0
;   useDiaphragm,0
;   diaphragmLayerInterval,20
;   robustSlicing,1
;   mergeAllIntoSolid,0
;   onlyRetractWhenCrossingOutline,1
;   retractBetweenLayers,1
;   useRetractionMinTravel,0
;   retractionMinTravel,3
;   retractWhileWiping,0
;   onlyWipeOutlines,1
;   avoidCrossingOutline,0
;   maxMovementDetourFactor,3
;   toolChangeRetractionDistance,12
;   toolChangeExtraRestartDistance,-0.5
;   toolChangeRetractionSpeed,600
;   externalThinWallType,1
;   internalThinWallType,1
;   thinWallAllowedOverlapPercentage,14
;   singleExtrusionMinLength,1
;   singleExtrusionMinPrintingWidthPercentage,50
;   singleExtrusionMaxPrintingWidthPercentage,200
;   singleExtrusionEndpointExtension,0.2
;   horizontalSizeCompensation,0
G90
M82
M106 S255
G4 P500
M106 S0
M140 S50
M190 S50
M104 S230 T0
M109 S230 T0
M117 Here We Go!!!
G28 ; home all axes
M204 P500 S700  T1000
M205 X10 Y10 ; set jerk x/y=10
M117 Purging Extruder...
G1 Z1.0 F3000 ; lift Z
G1 X0.2 Y25 Z0.2 F3000.0 ; move to start-line position
G92 E0 ; reset extruder
G1 X0.2 Y150.0 F1000.0 E15 ; draw 1st line
G1 X0.7 Y150.0 F3000.0 ; move to side 0.5mm
G1 X0.7 Y50 F1000.0 E30 ; draw 2nd line
G1 X0.7 Y25 F5000.0 ; quick wipe
M117 Printing...
G92 E0
G1 E-8.0000 F1800
G1 Z0.160 F1002
; process Process1
; layer 1, Z = 0.160
T0
; tool H0.200 W0.504
; outer perimeter
G1 X98.386 Y121.732 F4800
G1 E0.0000 F540
G92 E0
G1 X102.467 Y121.732 E0.1505 F1080
G1 X102.465 Y124.728 E0.2610
G1 X98.386 Y124.728 E0.4114
G1 X98.386 Y122.132 E0.5072
G1 X98.386 Y121.732 F1080
G1 X102.467 Y121.732 F7200
G1 X102.467 Y122.651 F7200
; inner perimeter
G1 X101.963 Y122.236 F4800
G92 E0
G1 X101.962 Y124.224 E0.0733 F1260
G1 X98.890 Y124.224 E0.1866
G1 X98.890 Y122.236 E0.2599
G1 X101.563 Y122.236 E0.3585
G1 X101.963 Y122.236 F1260
; solid layer
G1 X101.247 Y122.629 F4800
G92 E0
G1 X101.569 Y122.952 E0.0168 F1296
G1 X101.569 Y123.665 E0.0431
G1 X100.534 Y122.629 E0.0971
G1 X99.821 Y122.629 E0.1234
G1 X101.023 Y123.831 E0.1861
G1 X100.310 Y123.831 E0.2123
G1 X99.283 Y122.805 E0.2659
G1 X99.283 Y123.517 E0.2922
G1 X99.314 Y123.548 E0.2938
G1 X99.597 Y123.831 F1296
G92 E0
G1 E-8.0000 F1800
; layer 2, Z = 0.360
; tool H0.200 W0.480
; outer perimeter
G1 X98.371 Y121.720 F4800
G1 Z0.360 F1002
G1 E0.0000 F1800
G92 E0
G1 X112.790 Y121.720 E0.5064 F1080
G1 X112.788 Y124.740 E0.6125
G1 X98.371 Y124.740 E1.1189
G1 X98.371 Y122.120 E1.2109
G1 X98.371 Y121.720 F1080
G1 X103.371 Y121.720 F7200
; inner perimeter
G1 X98.851 Y122.200 F4800
G92 E0
G1 X112.309 Y122.200 E0.4727 F1260
G1 X112.308 Y124.260 E0.5450
G1 X98.851 Y124.260 E1.0177
G1 X98.851 Y122.600 E1.0760
G1 X98.851 Y122.200 F1260
; solid layer
G1 X99.225 Y122.811 F4800
G92 E0
G1 X99.462 Y122.575 E0.0117 F1296
G1 X100.141 Y122.575 E0.0356
G1 X99.225 Y123.490 E0.0810
G1 X99.225 Y123.886 E0.0949
G1 X99.508 Y123.886 E0.1049
G1 X100.819 Y122.575 E0.1700
G1 X101.498 Y122.575 E0.1938
G1 X100.187 Y123.886 E0.2590
G1 X100.866 Y123.886 E0.2828
G1 X102.177 Y122.575 E0.3479
G1 X102.856 Y122.575 E0.3718
G1 X101.545 Y123.886 E0.4369
G1 X102.224 Y123.886 E0.4608
G1 X103.535 Y122.575 E0.5259
G1 X104.214 Y122.575 E0.5497
G1 X102.902 Y123.886 E0.6149
G1 X103.581 Y123.886 E0.6387
G1 X104.892 Y122.575 E0.7038
G1 X105.571 Y122.575 E0.7277
G1 X104.260 Y123.886 E0.7928
G1 X104.939 Y123.886 E0.8166
G1 X106.250 Y122.575 E0.8818
G1 X106.929 Y122.575 E0.9056
G1 X105.618 Y123.886 E0.9707
G1 X106.297 Y123.886 E0.9946
G1 X107.608 Y122.575 E1.0597
G1 X108.286 Y122.575 E1.0835
G1 X106.975 Y123.886 E1.1487
G1 X107.654 Y123.886 E1.1725
G1 X108.965 Y122.575 E1.2376
G1 X109.644 Y122.575 E1.2615
G1 X108.333 Y123.886 E1.3266
G1 X109.012 Y123.886 E1.3504
G1 X110.323 Y122.575 E1.4156
G1 X111.002 Y122.575 E1.4394
G1 X109.691 Y123.886 E1.5045
G1 X110.369 Y123.886 E1.5284
G1 X111.681 Y122.575 E1.5935
G1 X111.935 Y122.575 E1.6024
G1 X111.935 Y123.000 E1.6174
G1 X111.048 Y123.886 E1.6614
G1 X111.620 Y123.886 E1.6815
G1 X111.727 Y123.886 F1296
G1 X111.934 Y123.679 F1296
G92 E0
G1 E-8.0000 F1800
; layer 3, Z = 0.560
; outer perimeter
G1 X98.368 Y121.720 F4800
G1 Z0.560 F1002
G1 E0.0000 F1800
G92 E0
G1 X124.245 Y121.720 E0.9089 F1080
G1 X124.244 Y124.740 E1.0149
G1 X98.368 Y124.740 E1.9238
G1 X98.368 Y122.120 E2.0158
G1 X98.368 Y121.720 F1080
G1 X103.368 Y121.720 F7200
; inner perimeter
G1 X98.848 Y122.200 F4800
G92 E0
G1 X123.765 Y122.200 E0.8752 F1260
G1 X123.764 Y124.260 E0.9475
G1 X98.848 Y124.260 E1.8226
G1 X98.848 Y122.600 E1.8810
G1 X98.848 Y122.200 F1260
; solid layer
G1 X99.222 Y123.660 F4800
G92 E0
G1 X99.448 Y123.886 E0.0112 F1296
G1 X100.127 Y123.886 E0.0351
G1 X99.222 Y122.981 E0.0800
G1 X99.222 Y122.575 E0.0943
G1 X99.495 Y122.575 E0.1039
G1 X100.806 Y123.886 E0.1690
G1 X101.485 Y123.886 E0.1929
G1 X100.174 Y122.575 E0.2580
G1 X100.852 Y122.575 E0.2818
G1 X102.164 Y123.886 E0.3469
G1 X102.842 Y123.886 E0.3708
G1 X101.531 Y122.575 E0.4359
G1 X102.210 Y122.575 E0.4598
G1 X103.521 Y123.886 E0.5249
G1 X104.200 Y123.886 E0.5487
G1 X102.889 Y122.575 E0.6139
G1 X103.568 Y122.575 E0.6377
G1 X104.879 Y123.886 E0.7028
G1 X105.558 Y123.886 E0.7267
G1 X104.247 Y122.575 E0.7918
G1 X104.925 Y122.575 E0.8156
G1 X106.236 Y123.886 E0.8808
G1 X106.915 Y123.886 E0.9046
G1 X105.604 Y122.575 E0.9697
G1 X106.283 Y122.575 E0.9936
G1 X107.594 Y123.886 E1.0587
G1 X108.273 Y123.886 E1.0825
G1 X106.962 Y122.575 E1.1477
G1 X107.641 Y122.575 E1.1715
G1 X108.952 Y123.886 E1.2366
G1 X109.631 Y123.886 E1.2605
G1 X108.319 Y122.575 E1.3256
G1 X108.998 Y122.575 E1.3495
G1 X110.309 Y123.886 E1.4146
G1 X110.988 Y123.886 E1.4384
G1 X109.677 Y122.575 E1.5035
G1 X110.356 Y122.575 E1.5274
G1 X111.667 Y123.886 E1.5925
G1 X112.346 Y123.886 E1.6164
G1 X111.035 Y122.575 E1.6815
G1 X111.714 Y122.575 E1.7053
G1 X113.025 Y123.886 E1.7705
G1 X113.704 Y123.886 E1.7943
G1 X112.392 Y122.575 E1.8594
G1 X113.071 Y122.575 E1.8833
G1 X114.382 Y123.886 E1.9484
G1 X115.061 Y123.886 E1.9722
G1 X113.750 Y122.575 E2.0374
G1 X114.429 Y122.575 E2.0612
G1 X115.740 Y123.886 E2.1263
G1 X116.419 Y123.886 E2.1502
G1 X115.108 Y122.575 E2.2153
G1 X115.786 Y122.575 E2.2391
G1 X117.098 Y123.886 E2.3043
G1 X117.776 Y123.886 E2.3281
G1 X116.465 Y122.575 E2.3932
G1 X117.144 Y122.575 E2.4171
G1 X118.455 Y123.886 E2.4822
G1 X119.134 Y123.886 E2.5061
G1 X117.823 Y122.575 E2.5712
G1 X118.502 Y122.575 E2.5950
G1 X119.813 Y123.886 E2.6601
G1 X120.492 Y123.886 E2.6840
G1 X119.181 Y122.575 E2.7491
G1 X119.859 Y122.575 E2.7730
G1 X121.171 Y123.886 E2.8381
G1 X121.849 Y123.886 E2.8619
G1 X120.538 Y122.575 E2.9271
G1 X121.217 Y122.575 E2.9509
G1 X122.528 Y123.886 E3.0160
G1 X123.207 Y123.886 E3.0399
G1 X121.896 Y122.575 E3.1050
G1 X122.575 Y122.575 E3.1288
G1 X123.390 Y123.390 E3.1693
G1 X123.390 Y122.918 E3.1859
G1 X123.390 Y122.711 F1296
G1 X123.254 Y122.575 F1296
G92 E0
G1 E-8.0000 F1800
; layer 4, Z = 0.760
M106 S255
G4 P500
M106 S76
; outer perimeter
G1 X98.364 Y121.720 F4800
G1 Z0.760 F1002
G1 E0.0000 F1800
G92 E0
G1 X128.314 Y121.720 E1.0519 F1080
G1 X128.314 Y124.740 E1.1580
G1 X98.364 Y124.740 E2.2099
G1 X98.364 Y122.120 E2.3019
G1 X98.364 Y121.720 F1080
G1 X103.364 Y121.720 F7200
; inner perimeter
G1 X98.844 Y122.200 F4800
G92 E0
G1 X127.834 Y122.200 E1.0182 F1260
G1 X127.834 Y124.260 E1.0906
G1 X98.844 Y124.260 E2.1088
G1 X98.844 Y122.600 E2.1671
G1 X98.844 Y122.200 F1260
; solid layer
G1 X99.218 Y122.818 F4800
G92 E0
G1 X99.462 Y122.575 E0.0121 F1296
G1 X100.141 Y122.575 E0.0359
G1 X99.218 Y123.497 E0.0817
G1 X99.219 Y123.886 E0.0954
G1 X99.508 Y123.886 E0.1056
G1 X100.819 Y122.575 E0.1707
G1 X101.498 Y122.575 E0.1945
G1 X100.187 Y123.886 E0.2597
G1 X100.866 Y123.886 E0.2835
G1 X102.177 Y122.575 E0.3486
G1 X102.856 Y122.575 E0.3725
G1 X101.545 Y123.886 E0.4376
G1 X102.224 Y123.886 E0.4614
G1 X103.535 Y122.575 E0.5266
G1 X104.214 Y122.575 E0.5504
G1 X102.902 Y123.886 E0.6155
G1 X103.581 Y123.886 E0.6394
G1 X104.892 Y122.575 E0.7045
G1 X105.571 Y122.575 E0.7284
G1 X104.260 Y123.886 E0.7935
G1 X104.939 Y123.886 E0.8173
G1 X106.250 Y122.575 E0.8825
G1 X106.929 Y122.575 E0.9063
G1 X105.618 Y123.886 E0.9714
G1 X106.297 Y123.886 E0.9953
G1 X107.608 Y122.575 E1.0604
G1 X108.286 Y122.575 E1.0842
G1 X106.975 Y123.886 E1.1494
G1 X107.654 Y123.886 E1.1732
G1 X108.965 Y122.575 E1.2383
G1 X109.644 Y122.575 E1.2622
G1 X108.333 Y123.886 E1.3273
G1 X109.012 Y123.886 E1.3511
G1 X110.323 Y122.575 E1.4163
G1 X111.002 Y122.575 E1.4401
G1 X109.691 Y123.886 E1.5052
G1 X110.369 Y123.886 E1.5291
G1 X111.681 Y122.575 E1.5942
G1 X112.359 Y122.575 E1.6180
G1 X111.048 Y123.886 E1.6832
G1 X111.727 Y123.886 E1.7070
G1 X113.038 Y122.575 E1.7721
G1 X113.717 Y122.575 E1.7960
G1 X112.406 Y123.886 E1.8611
G1 X113.085 Y123.886 E1.8850
G1 X114.396 Y122.575 E1.9501
G1 X115.075 Y122.575 E1.9739
G1 X113.764 Y123.886 E2.0391
G1 X114.442 Y123.886 E2.0629
G1 X115.754 Y122.575 E2.1280
G1 X116.432 Y122.575 E2.1519
G1 X115.121 Y123.886 E2.2170
G1 X115.800 Y123.886 E2.2408
G1 X117.111 Y122.575 E2.3060
G1 X117.790 Y122.575 E2.3298
G1 X116.479 Y123.886 E2.3949
G1 X117.158 Y123.886 E2.4188
G1 X118.469 Y122.575 E2.4839
G1 X119.148 Y122.575 E2.5077
G1 X117.836 Y123.886 E2.5729
G1 X118.515 Y123.886 E2.5967
G1 X119.826 Y122.575 E2.6618
G1 X120.505 Y122.575 E2.6857
G1 X119.194 Y123.886 E2.7508
G1 X119.873 Y123.886 E2.7746
G1 X121.184 Y122.575 E2.8398
G1 X121.863 Y122.575 E2.8636
G1 X120.552 Y123.886 E2.9287
G1 X121.231 Y123.886 E2.9526
G1 X122.542 Y122.575 E3.0177
G1 X123.221 Y122.575 E3.0416
G1 X121.909 Y123.886 E3.1067
G1 X122.588 Y123.886 E3.1305
G1 X123.899 Y122.575 E3.1957
G1 X124.578 Y122.575 E3.2195
G1 X123.267 Y123.886 E3.2846
G1 X123.946 Y123.886 E3.3085
G1 X125.257 Y122.575 E3.3736
G1 X125.936 Y122.575 E3.3974
G1 X124.625 Y123.886 E3.4626
G1 X125.304 Y123.886 E3.4864
G1 X126.615 Y122.575 E3.5515
G1 X127.294 Y122.575 E3.5754
G1 X125.982 Y123.886 E3.6405
G1 X126.661 Y123.886 E3.6643
G1 X127.460 Y123.087 E3.7040
G1 X127.460 Y123.535 E3.7197
G1 X127.460 Y123.766 F1296
G1 X127.340 Y123.886 F1296
G92 E0
G1 E-8.0000 F1800
; layer 5, Z = 0.960
M106 S153
; outer perimeter
G1 X98.361 Y121.720 F4800
G1 Z0.960 F1002
G1 E0.0000 F1800
G92 E0
G1 X128.310 Y121.720 E1.0519 F1080
G1 X128.310 Y124.740 E1.1580
G1 X98.361 Y124.740 E2.2099
G1 X98.361 Y122.120 E2.3019
G1 X98.361 Y121.720 F1080
G1 X103.361 Y121.720 F7200
; inner perimeter
G1 X98.841 Y122.200 F4800
G92 E0
G1 X127.830 Y122.200 E1.0182 F1260
G1 X127.830 Y124.260 E1.0906
G1 X98.841 Y124.260 E2.1088
G1 X98.841 Y122.600 E2.1671
G1 X98.841 Y122.200 F1260
; solid layer
G1 X99.215 Y123.653 F4800
G92 E0
G1 X99.448 Y123.886 E0.0116 F1296
G1 X100.127 Y123.886 E0.0354
G1 X99.215 Y122.974 E0.0807
G1 X99.215 Y122.708 E0.0901
G1 X99.317 Y122.575 E0.0960
G1 X99.495 Y122.575 E0.1022
G1 X100.761 Y123.841 E0.1651
G1 X101.259 Y123.660 E0.1837
G1 X100.174 Y122.575 E0.2376
G1 X100.852 Y122.575 E0.2615
