; G-Code generated by Simplify3D(R) Version 4.0.1
; Nov 13, 2018 at 2:52:09 AM
; Settings Summary
;   processName,Process1
;   applyToModels,modified_mount
;   profileName,Creality Ender-3 (modified)
;   profileVersion,2018-10-08 00:18:15
;   baseProfile,Creality Ender-3
;   printMaterial,PLA
;   printQuality,High
;   printExtruders,
;   extruderName,Primary Extruder
;   extruderToolheadNumber,0
;   extruderDiameter,0.4
;   extruderAutoWidth,1
;   extruderWidth,0.48
;   extrusionMultiplier,0.88
;   extruderUseRetract,1
;   extruderRetractionDistance,8
;   extruderExtraRestartDistance,0
;   extruderRetractionZLift,0
;   extruderRetractionSpeed,1800
;   extruderUseCoasting,1
;   extruderCoastingDistance,0.4
;   extruderUseWipe,1
;   extruderWipeDistance,5
;   primaryExtruder,0
;   layerHeight,0.2
;   topSolidLayers,4
;   bottomSolidLayers,4
;   perimeterOutlines,2
;   printPerimetersInsideOut,0
;   startPointOption,3
;   startPointOriginX,0
;   startPointOriginY,110
;   sequentialIslands,0
;   spiralVaseMode,0
;   firstLayerHeightPercentage,100
;   firstLayerWidthPercentage,105
;   firstLayerUnderspeed,0.5
;   useRaft,0
;   raftExtruder,0
;   raftTopLayers,3
;   raftBaseLayers,2
;   raftOffset,3
;   raftSeparationDistance,0.14
;   raftTopInfill,100
;   aboveRaftSpeedMultiplier,0.3
;   useSkirt,1
;   skirtExtruder,0
;   skirtLayers,3
;   skirtOutlines,3
;   skirtOffset,4
;   usePrimePillar,0
;   primePillarExtruder,999
;   primePillarWidth,12
;   primePillarLocation,7
;   primePillarSpeedMultiplier,1
;   useOozeShield,0
;   oozeShieldExtruder,999
;   oozeShieldOffset,2
;   oozeShieldOutlines,1
;   oozeShieldSidewallShape,1
;   oozeShieldSidewallAngle,30
;   oozeShieldSpeedMultiplier,1
;   infillExtruder,0
;   internalInfillPattern,Rectilinear
;   externalInfillPattern,Rectilinear
;   infillPercentage,40
;   outlineOverlapPercentage,22
;   infillExtrusionWidthPercentage,100
;   minInfillLength,5
;   infillLayerInterval,1
;   internalInfillAngles,45,-45
;   overlapInternalInfillAngles,0
;   externalInfillAngles,45,-45
;   generateSupport,1
;   supportExtruder,0
;   supportInfillPercentage,20
;   supportExtraInflation,1
;   supportBaseLayers,2
;   denseSupportExtruder,0
;   denseSupportLayers,2
;   denseSupportInfillPercentage,70
;   supportLayerInterval,1
;   supportHorizontalPartOffset,0.3
;   supportUpperSeparationLayers,1
;   supportLowerSeparationLayers,1
;   supportType,0
;   supportGridSpacing,4
;   maxOverhangAngle,45
;   supportAngles,45
;   temperatureName,Primary Extruder,Heated Bed
;   temperatureNumber,0,0
;   temperatureSetpointCount,1,1
;   temperatureSetpointLayers,1,1
;   temperatureSetpointTemperatures,230,50
;   temperatureStabilizeAtStartup,1,1
;   temperatureHeatedBed,0,1
;   temperatureRelayBetweenLayers,0,0
;   temperatureRelayBetweenLoops,0,0
;   fanLayers,1,4,5,8
;   fanSpeeds,0,30,60,100
;   blipFanToFullPower,1
;   adjustSpeedForCooling,1
;   minSpeedLayerTime,15
;   minCoolingSpeedSlowdown,20
;   increaseFanForCooling,0
;   minFanLayerTime,45
;   maxCoolingFanSpeed,100
;   increaseFanForBridging,0
;   bridgingFanSpeed,100
;   use5D,1
;   relativeEdistances,0
;   allowEaxisZeroing,1
;   independentExtruderAxes,0
;   includeM10123,0
;   stickySupport,1
;   applyToolheadOffsets,0
;   gcodeXoffset,0
;   gcodeYoffset,0
;   gcodeZoffset,0
;   overrideMachineDefinition,1
;   machineTypeOverride,0
;   strokeXoverride,220
;   strokeYoverride,220
;   strokeZoverride,250
;   originOffsetXoverride,0
;   originOffsetYoverride,0
;   originOffsetZoverride,0
;   homeXdirOverride,-1
;   homeYdirOverride,-1
;   homeZdirOverride,-1
;   flipXoverride,1
;   flipYoverride,-1
;   flipZoverride,1
;   toolheadOffsets,0,0|0,0|0,0|0,0|0,0|0,0
;   overrideFirmwareConfiguration,1
;   firmwareTypeOverride,RepRap (Marlin/Repetier/Sprinter)
;   GPXconfigOverride,r2
;   baudRateOverride,115200
;   overridePrinterModels,1
;   printerModelsOverride,Ender3bed.STL
;   startingGcode,M117 Here We Go!!!,G28 ; home all axes,M204 P500 S700  T1000,M205 X10 Y10 ; set jerk x/y=10,M117 Purging Extruder...,G1 Z1.0 F3000 ; lift Z,G1 X0.2 Y25 Z0.2 F3000.0 ; move to start-line position,G92 E0 ; reset extruder,G1 X0.2 Y150.0 F1000.0 E15 ; draw 1st line,G1 X0.7 Y150.0 F3000.0 ; move to side 0.5mm,G1 X0.7 Y50 F1000.0 E30 ; draw 2nd line,G1 X0.7 Y25 F5000.0 ; quick wipe,M117 Printing...
;   layerChangeGcode,
;   retractionGcode,
;   toolChangeGcode,
;   endingGcode,M104 S0 ; turn off extruder,M140 S0 ; turn off bed,G1 X0 Y295 F1000 ; move finished print out front,M84 ; disable motors,M106 S0 ; turn off cooling fan
;   exportFileFormat,gcode
;   celebration,0
;   celebrationSong,Funky Town
;   postProcessing,
;   defaultSpeed,6500
;   outlineUnderspeed,0.7
;   solidInfillUnderspeed,0.85
;   supportUnderspeed,0.85
;   rapidXYspeed,4800
;   rapidZspeed,1002
;   minBridgingArea,50
;   bridgingExtraInflation,0
;   bridgingExtrusionMultiplier,1
;   bridgingSpeedMultiplier,1
;   useFixedBridgingAngle,0
;   fixedBridgingAngle,0
;   applyBridgingToPerimeters,0
;   filamentDiameters,1.75|1.75|1.75|1.75|1.75|1.75
;   filamentPricesPerKg,17|46|46|46|46|46
;   filamentDensities,1.25|1.25|1.25|1.25|1.25|1.25
;   useMinPrintHeight,0
;   minPrintHeight,0
;   useMaxPrintHeight,0
;   maxPrintHeight,0
;   useDiaphragm,0
;   diaphragmLayerInterval,20
;   robustSlicing,1
;   mergeAllIntoSolid,0
;   onlyRetractWhenCrossingOutline,1
;   retractBetweenLayers,1
;   useRetractionMinTravel,0
;   retractionMinTravel,3
;   retractWhileWiping,0
;   onlyWipeOutlines,1
;   avoidCrossingOutline,0
;   maxMovementDetourFactor,3
;   toolChangeRetractionDistance,12
;   toolChangeExtraRestartDistance,-0.5
;   toolChangeRetractionSpeed,600
;   externalThinWallType,1
;   internalThinWallType,1
;   thinWallAllowedOverlapPercentage,14
;   singleExtrusionMinLength,1
;   singleExtrusionMinPrintingWidthPercentage,50
;   singleExtrusionMaxPrintingWidthPercentage,200
;   singleExtrusionEndpointExtension,0.2
;   horizontalSizeCompensation,0
G90
M82
M106 S255
G4 P500
M106 S0
M140 S50
M190 S50
M104 S230 T0
M109 S230 T0
M117 Here We Go!!!
G28 ; home all axes
M204 P500 S700  T1000
M205 X10 Y10 ; set jerk x/y=10
M117 Purging Extruder...
G1 Z1.0 F3000 ; lift Z
G1 X0.2 Y25 Z0.2 F3000.0 ; move to start-line position
G92 E0 ; reset extruder
G1 X0.2 Y150.0 F1000.0 E15 ; draw 1st line
G1 X0.7 Y150.0 F3000.0 ; move to side 0.5mm
G1 X0.7 Y50 F1000.0 E30 ; draw 2nd line
G1 X0.7 Y25 F5000.0 ; quick wipe
M117 Printing...
G92 E0
G1 E-8.0000 F1800
G1 Z0.200 F1002
; process Process1
; layer 1, Z = 0.200
T0
; tool H0.200 W0.504
; skirt
G1 X90.443 Y89.763 F4800
G1 E0.0000 F540
G92 E0
G1 X90.884 Y89.580 E0.0176 F3250
G1 X113.116 Y89.580 E0.8375
G1 X113.557 Y89.763 E0.8551
G1 X116.237 Y92.443 E0.9949
G1 X116.420 Y92.884 E1.0125
G1 X116.420 Y103.116 E1.3898
G1 X116.237 Y103.557 E1.4074
G1 X113.557 Y106.237 E1.5472
G1 X113.116 Y106.420 E1.5648
G1 X112.420 Y106.420 E1.5905
G1 X112.420 Y109.580 E1.7070
G1 X113.116 Y109.580 E1.7327
G1 X113.557 Y109.763 E1.7503
G1 X116.237 Y112.443 E1.8901
G1 X116.420 Y112.884 E1.9077
G1 X116.420 Y113.580 E1.9333
G1 X129.116 Y113.580 E2.4015
G1 X129.557 Y113.763 E2.4191
G1 X132.237 Y116.443 E2.5589
G1 X132.420 Y116.884 E2.5766
G1 X132.420 Y127.116 E2.9539
G1 X132.237 Y127.557 E2.9715
G1 X129.557 Y130.237 E3.1113
G1 X129.116 Y130.420 E3.1289
G1 X107.697 Y130.420 E3.9188
G1 X107.256 Y130.237 E3.9364
G1 X107.199 Y130.180 E3.9394
G1 X90.910 Y130.180 E4.5401
G1 X90.469 Y129.998 E4.5577
G1 X87.789 Y127.317 E4.6975
G1 X87.606 Y126.876 E4.7151
G1 X87.606 Y123.139 E4.8529
G1 X87.580 Y123.076 E4.8554
G1 X87.580 Y92.884 E5.9688
G1 X87.763 Y92.443 E5.9864
G1 X90.161 Y90.046 E6.1115
G1 X90.443 Y89.763 F3250
G1 X90.715 Y90.170 F4800
G92 E0
G1 X90.980 Y90.060 E0.0106 F3250
G1 X113.020 Y90.060 E0.8234
G1 X113.285 Y90.170 E0.8339
G1 X115.830 Y92.715 E0.9667
G1 X115.940 Y92.980 E0.9773
G1 X115.940 Y103.020 E1.3475
G1 X115.830 Y103.285 E1.3581
G1 X113.285 Y105.830 E1.4909
G1 X113.020 Y105.940 E1.5014
G1 X111.940 Y105.940 E1.5413
G1 X111.940 Y110.060 E1.6932
G1 X113.020 Y110.060 E1.7330
G1 X113.285 Y110.170 E1.7436
G1 X115.830 Y112.715 E1.8764
G1 X115.940 Y112.980 E1.8869
G1 X115.940 Y114.060 E1.9268
G1 X129.020 Y114.060 E2.4091
G1 X129.285 Y114.170 E2.4197
G1 X131.830 Y116.715 E2.5525
G1 X131.940 Y116.980 E2.5630
G1 X131.940 Y127.020 E2.9333
G1 X131.830 Y127.285 E2.9439
G1 X129.285 Y129.830 E3.0766
G1 X129.020 Y129.940 E3.0872
G1 X107.793 Y129.940 E3.8701
G1 X107.528 Y129.830 E3.8806
G1 X107.398 Y129.700 E3.8874
G1 X91.006 Y129.700 E4.4919
G1 X90.741 Y129.591 E4.5025
G1 X88.196 Y127.045 E4.6353
G1 X88.086 Y126.780 E4.6458
G1 X88.086 Y123.043 E4.7836
G1 X88.060 Y122.980 E4.7861
G1 X88.060 Y92.980 E5.8925
G1 X88.170 Y92.715 E5.9031
G1 X90.432 Y90.452 E6.0211
G1 X90.715 Y90.170 F3250
G1 X90.987 Y90.577 F4800
G92 E0
G1 X91.075 Y90.540 E0.0035 F3250
G1 X112.925 Y90.540 E0.8093
G1 X113.013 Y90.577 E0.8128
G1 X115.423 Y92.987 E0.9385
G1 X115.460 Y93.075 E0.9421
G1 X115.460 Y102.925 E1.3053
G1 X115.423 Y103.013 E1.3088
G1 X113.013 Y105.423 E1.4345
G1 X112.925 Y105.460 E1.4381
G1 X111.460 Y105.460 E1.4921
G1 X111.460 Y110.540 E1.6794
G1 X112.925 Y110.540 E1.7334
G1 X113.013 Y110.577 E1.7369
G1 X115.423 Y112.987 E1.8627
G1 X115.460 Y113.075 E1.8662
G1 X115.460 Y114.540 E1.9202
G1 X128.925 Y114.540 E2.4168
G1 X129.013 Y114.577 E2.4203
G1 X131.423 Y116.987 E2.5460
G1 X131.460 Y117.075 E2.5495
G1 X131.460 Y126.925 E2.9128
G1 X131.423 Y127.013 E2.9163
G1 X129.013 Y129.423 E3.0420
G1 X128.925 Y129.460 E3.0455
G1 X107.888 Y129.460 E3.8213
G1 X107.800 Y129.423 E3.8249
G1 X107.597 Y129.220 E3.8355
G1 X91.101 Y129.220 E4.4438
G1 X91.013 Y129.184 E4.4473
G1 X88.603 Y126.773 E4.5730
G1 X88.566 Y126.685 E4.5765
G1 X88.566 Y122.948 E4.7144
G1 X88.540 Y122.885 E4.7169
G1 X88.540 Y93.075 E5.8162
G1 X88.577 Y92.987 E5.8197
G1 X90.704 Y90.859 E5.9307
G1 X90.987 Y90.577 F3250
G92 E0
G1 E-8.0000 F1800
; outer perimeter
G1 X93.058 Y121.732 F4800
G1 E0.0000 F1800
G92 E0
G1 X109.041 Y121.732 E0.5894 F2275
G1 X109.041 Y124.728 E0.6999
G1 X93.058 Y124.728 E1.2893
G1 X93.058 Y122.132 E1.3851
G1 X93.058 Y121.732 F2275
G1 X98.058 Y121.732 F6500
; inner perimeter
G1 X93.562 Y122.236 F4800
G92 E0
G1 X108.537 Y122.236 E0.5522 F2762
G1 X108.537 Y124.224 E0.6256
G1 X93.562 Y124.224 E1.1778
G1 X93.562 Y122.636 E1.2364
G1 X93.562 Y122.236 F2762
; solid layer
G1 X94.608 Y123.831 F4800
G92 E0
G1 X93.955 Y123.178 E0.0340 F2762
G1 X93.955 Y122.629 E0.0543
G1 X94.119 Y122.629 E0.0603
G1 X95.321 Y123.831 E0.1230
G1 X96.033 Y123.831 E0.1493
G1 X94.832 Y122.629 E0.2120
G1 X95.544 Y122.629 E0.2383
G1 X96.746 Y123.831 E0.3009
G1 X97.459 Y123.831 E0.3272
G1 X96.257 Y122.629 E0.3899
G1 X96.970 Y122.629 E0.4162
G1 X98.172 Y123.831 E0.4789
G1 X98.884 Y123.831 E0.5051
G1 X97.683 Y122.629 E0.5678
G1 X98.395 Y122.629 E0.5941
G1 X99.597 Y123.831 E0.6568
G1 X100.310 Y123.831 E0.6831
G1 X99.108 Y122.629 E0.7457
G1 X99.821 Y122.629 E0.7720
G1 X101.023 Y123.831 E0.8347
G1 X101.736 Y123.831 E0.8610
G1 X100.534 Y122.629 E0.9237
G1 X101.247 Y122.629 E0.9500
G1 X102.448 Y123.831 E1.0126
G1 X103.161 Y123.831 E1.0389
G1 X101.959 Y122.629 E1.1016
G1 X102.672 Y122.629 E1.1279
G1 X103.874 Y123.831 E1.1906
G1 X104.587 Y123.831 E1.2168
G1 X103.385 Y122.629 E1.2795
G1 X104.098 Y122.629 E1.3058
G1 X105.299 Y123.831 E1.3685
G1 X106.012 Y123.831 E1.3948
G1 X104.810 Y122.629 E1.4574
G1 X105.523 Y122.629 E1.4837
G1 X106.725 Y123.831 E1.5464
G1 X107.438 Y123.831 E1.5727
G1 X106.236 Y122.629 E1.6354
G1 X106.949 Y122.629 E1.6617
G1 X108.144 Y123.824 E1.7240
G1 X108.144 Y123.112 E1.7503
G1 X107.944 Y122.912 E1.7607
G1 X107.661 Y122.629 F2762
G92 E0
G1 E-8.0000 F1800
; support
G1 X109.843 Y121.960 F4800
G1 E0.0000 F1800
G92 E0
G1 X112.853 Y124.970 E0.1570 F2762
G1 X112.140 Y124.970 E0.1833
G1 X109.843 Y122.672 E0.3031
G1 X109.843 Y123.385 E0.3294
G1 X111.428 Y124.970 E0.4121
G1 X110.715 Y124.970 E0.4384
G1 X109.843 Y124.098 E0.4838
G1 X109.843 Y124.636 E0.5037
G1 X109.843 Y124.811 F2762
G1 X110.002 Y124.970 F2762
G92 E0
G1 E-8.0000 F1800
G1 X110.753 Y115.030 F4800
G1 E0.0000 F1800
G92 E0
G1 X110.970 Y115.247 E0.0113 F2762
G1 X110.970 Y115.959 E0.0376
G1 X110.041 Y115.030 E0.0860
G1 X109.328 Y115.030 E0.1123
G1 X110.970 Y116.672 E0.1980
G1 X110.970 Y117.385 E0.2243
G1 X108.615 Y115.030 E0.3471
G1 X107.902 Y115.030 E0.3734
G1 X110.970 Y118.098 E0.5334
G1 X110.970 Y118.810 E0.5596
G1 X107.190 Y115.030 E0.7568
G1 X106.970 Y115.030 E0.7649
G1 X106.970 Y114.810 E0.7730
G1 X99.190 Y107.030 E1.1788
G1 X98.970 Y107.030 E1.1869
G1 X98.970 Y106.810 E1.1950
G1 X93.030 Y100.870 E1.5048
G1 X93.030 Y101.583 E1.5311
G1 X116.417 Y124.970 E2.7508
G1 X117.130 Y124.970 E2.7771
G1 X111.190 Y119.030 E3.0869
G1 X111.902 Y119.030 E3.1132
G1 X117.842 Y124.970 E3.4230
G1 X118.555 Y124.970 E3.4493
G1 X112.615 Y119.030 E3.7591
G1 X113.328 Y119.030 E3.7853
G1 X119.268 Y124.970 E4.0951
G1 X119.981 Y124.970 E4.1214
G1 X114.041 Y119.030 E4.4312
G1 X114.753 Y119.030 E4.4575
G1 X120.693 Y124.970 E4.7673
G1 X121.406 Y124.970 E4.7936
G1 X115.466 Y119.030 E5.1034
G1 X116.179 Y119.030 E5.1297
G1 X122.119 Y124.970 E5.4395
G1 X122.832 Y124.970 E5.4658
G1 X116.892 Y119.030 E5.7756
G1 X117.605 Y119.030 E5.8018
G1 X123.545 Y124.970 E6.1116
G1 X124.257 Y124.970 E6.1379
G1 X118.317 Y119.030 E6.4477
G1 X119.030 Y119.030 E6.4740
G1 X124.970 Y124.970 E6.7838
G1 X125.683 Y124.970 E6.8101
G1 X119.743 Y119.030 E7.1199
G1 X120.456 Y119.030 E7.1462
G1 X126.396 Y124.970 E7.4560
G1 X126.970 Y124.970 E7.4772
G1 X126.970 Y124.832 E7.4823
G1 X121.168 Y119.030 E7.7848
G1 X121.881 Y119.030 E7.8111
G1 X126.970 Y124.119 E8.0765
G1 X126.970 Y123.406 E8.1028
G1 X122.594 Y119.030 E8.3311
G1 X123.307 Y119.030 E8.3574
G1 X126.970 Y122.693 E8.5484
G1 X126.970 Y121.981 E8.5747
G1 X124.019 Y119.030 E8.7286
G1 X124.732 Y119.030 E8.7549
G1 X126.970 Y121.268 E8.8716
G1 X126.970 Y120.555 E8.8979
G1 X125.445 Y119.030 E8.9774
G1 X126.158 Y119.030 E9.0037
G1 X126.970 Y119.842 E9.0461
G1 X126.970 Y119.389 E9.0628
G1 X126.970 Y119.130 F2762
G1 X126.870 Y119.030 F2762
G92 E0
G1 E-8.0000 F1800
G1 X106.970 Y114.098 F4800
G1 E0.0000 F1800
G92 E0
G1 X99.902 Y107.030 E0.3686 F2762
G1 X100.615 Y107.030 E0.3949
G1 X106.970 Y113.385 E0.7263
G1 X106.970 Y112.672 E0.7526
G1 X101.030 Y106.732 E1.0624
G1 X101.030 Y106.019 E1.0887
G1 X106.970 Y111.959 E1.3985
G1 X106.970 Y111.247 E1.4248
G1 X101.313 Y105.589 E1.7198
G1 X101.030 Y105.307 F2762
G92 E0
G1 E-8.0000 F1800
G1 X98.970 Y106.098 F4800
G1 E0.0000 F1800
G92 E0
G1 X93.030 Y100.158 E0.3098 F2762
G1 X93.030 Y99.445 E0.3361
G1 X98.970 Y105.385 E0.6459
G1 X98.970 Y104.970 E0.6612
G1 X99.268 Y104.970 E0.6722
G1 X93.030 Y98.732 E0.9975
G1 X93.030 Y98.019 E1.0238
G1 X99.981 Y104.970 E1.3863
G1 X100.693 Y104.970 E1.4126
G1 X93.030 Y97.307 E1.8123
G1 X93.030 Y96.594 E1.8386
G1 X106.970 Y110.534 E2.5656
G1 X106.970 Y109.821 E2.5919
G1 X93.030 Y95.881 E3.3189
G1 X93.030 Y95.168 E3.3452
G1 X106.970 Y109.108 E4.0722
G1 X106.970 Y108.396 E4.0985
G1 X93.887 Y95.313 E4.7808
G1 X93.605 Y95.030 F2762
G92 E0
G1 E-8.0000 F1800
G1 X98.594 Y95.030 F4800
G1 E0.0000 F1800
G92 E0
G1 X98.970 Y95.406 E0.0196 F2762
G1 X98.970 Y96.119 E0.0459
G1 X97.881 Y95.030 E0.1027
G1 X97.168 Y95.030 E0.1290
G1 X98.970 Y96.832 E0.2230
G1 X98.970 Y97.544 E0.2492
G1 X96.456 Y95.030 E0.3804
G1 X95.743 Y95.030 E0.4067
G1 X98.970 Y98.257 E0.5750
G1 X98.970 Y98.970 E0.6013
G1 X95.030 Y95.030 E0.8068
G1 X94.317 Y95.030 E0.8330
G1 X106.970 Y107.683 E1.4929
G1 X106.970 Y106.970 E1.5192
G1 X99.030 Y99.030 E1.9333
G1 X99.743 Y99.030 E1.9596
G1 X106.970 Y106.257 E2.3365
G1 X106.970 Y105.544 E2.3628
G1 X100.456 Y99.030 E2.7026
G1 X101.030 Y99.030 E2.7238
G1 X101.030 Y98.892 E2.7289
G1 X106.970 Y104.832 E3.0387
G1 X106.970 Y104.119 E3.0650
G1 X101.030 Y98.179 E3.3748
G1 X101.030 Y97.466 E3.4010
G1 X106.970 Y103.406 E3.7108
G1 X106.970 Y102.693 E3.7371
G1 X101.030 Y96.753 E4.0469
G1 X101.030 Y96.041 E4.0732
G1 X106.970 Y101.981 E4.3830
G1 X106.970 Y101.268 E4.4093
G1 X101.030 Y95.328 E4.7191
G1 X101.030 Y95.030 E4.7301
G1 X101.445 Y95.030 E4.7454
