; G-Code generated by Simplify3D(R) Version 4.0.1
; Nov 13, 2018 at 1:48:14 AM
; Settings Summary
;   processName,Process1
;   applyToModels,calicat
;   profileName,Creality Ender-3 (modified)
;   profileVersion,2018-10-08 00:18:15
;   baseProfile,Creality Ender-3
;   printMaterial,PLA
;   printQuality,High
;   printExtruders,
;   extruderName,Primary Extruder
;   extruderToolheadNumber,0
;   extruderDiameter,0.4
;   extruderAutoWidth,1
;   extruderWidth,0.48
;   extrusionMultiplier,0.88
;   extruderUseRetract,1
;   extruderRetractionDistance,8
;   extruderExtraRestartDistance,0
;   extruderRetractionZLift,0
;   extruderRetractionSpeed,1800
;   extruderUseCoasting,1
;   extruderCoastingDistance,0.4
;   extruderUseWipe,1
;   extruderWipeDistance,5
;   primaryExtruder,0
;   layerHeight,0.15
;   topSolidLayers,4
;   bottomSolidLayers,4
;   perimeterOutlines,2
;   printPerimetersInsideOut,0
;   startPointOption,3
;   startPointOriginX,0
;   startPointOriginY,110
;   sequentialIslands,0
;   spiralVaseMode,0
;   firstLayerHeightPercentage,80
;   firstLayerWidthPercentage,105
;   firstLayerUnderspeed,0.3
;   useRaft,0
;   raftExtruder,0
;   raftTopLayers,3
;   raftBaseLayers,2
;   raftOffset,3
;   raftSeparationDistance,0.14
;   raftTopInfill,100
;   aboveRaftSpeedMultiplier,0.3
;   useSkirt,0
;   skirtExtruder,0
;   skirtLayers,2
;   skirtOutlines,2
;   skirtOffset,4
;   usePrimePillar,0
;   primePillarExtruder,999
;   primePillarWidth,12
;   primePillarLocation,7
;   primePillarSpeedMultiplier,1
;   useOozeShield,0
;   oozeShieldExtruder,999
;   oozeShieldOffset,2
;   oozeShieldOutlines,1
;   oozeShieldSidewallShape,1
;   oozeShieldSidewallAngle,30
;   oozeShieldSpeedMultiplier,1
;   infillExtruder,0
;   internalInfillPattern,Rectilinear
;   externalInfillPattern,Rectilinear
;   infillPercentage,25
;   outlineOverlapPercentage,22
;   infillExtrusionWidthPercentage,100
;   minInfillLength,5
;   infillLayerInterval,1
;   internalInfillAngles,45,-45
;   overlapInternalInfillAngles,0
;   externalInfillAngles,45,-45
;   generateSupport,0
;   supportExtruder,0
;   supportInfillPercentage,40
;   supportExtraInflation,1
;   supportBaseLayers,2
;   denseSupportExtruder,0
;   denseSupportLayers,2
;   denseSupportInfillPercentage,70
;   supportLayerInterval,1
;   supportHorizontalPartOffset,0.3
;   supportUpperSeparationLayers,1
;   supportLowerSeparationLayers,1
;   supportType,0
;   supportGridSpacing,4
;   maxOverhangAngle,45
;   supportAngles,45
;   temperatureName,Primary Extruder,Heated Bed
;   temperatureNumber,0,0
;   temperatureSetpointCount,1,1
;   temperatureSetpointLayers,1,1
;   temperatureSetpointTemperatures,230,50
;   temperatureStabilizeAtStartup,1,1
;   temperatureHeatedBed,0,1
;   temperatureRelayBetweenLayers,0,0
;   temperatureRelayBetweenLoops,0,0
;   fanLayers,1,4,5,8
;   fanSpeeds,0,30,60,100
;   blipFanToFullPower,1
;   adjustSpeedForCooling,1
;   minSpeedLayerTime,15
;   minCoolingSpeedSlowdown,20
;   increaseFanForCooling,0
;   minFanLayerTime,45
;   maxCoolingFanSpeed,100
;   increaseFanForBridging,0
;   bridgingFanSpeed,100
;   use5D,1
;   relativeEdistances,0
;   allowEaxisZeroing,1
;   independentExtruderAxes,0
;   includeM10123,0
;   stickySupport,1
;   applyToolheadOffsets,0
;   gcodeXoffset,0
;   gcodeYoffset,0
;   gcodeZoffset,0
;   overrideMachineDefinition,1
;   machineTypeOverride,0
;   strokeXoverride,220
;   strokeYoverride,220
;   strokeZoverride,250
;   originOffsetXoverride,0
;   originOffsetYoverride,0
;   originOffsetZoverride,0
;   homeXdirOverride,-1
;   homeYdirOverride,-1
;   homeZdirOverride,-1
;   flipXoverride,1
;   flipYoverride,-1
;   flipZoverride,1
;   toolheadOffsets,0,0|0,0|0,0|0,0|0,0|0,0
;   overrideFirmwareConfiguration,1
;   firmwareTypeOverride,RepRap (Marlin/Repetier/Sprinter)
;   GPXconfigOverride,r2
;   baudRateOverride,115200
;   overridePrinterModels,1
;   printerModelsOverride,Ender3bed.STL
;   startingGcode,M117 Here We Go!!!,G28 ; home all axes,M204 P500 S700  T1000,M205 X10 Y10 ; set jerk x/y=10,M117 Purging Extruder...,G1 Z1.0 F3000 ; lift Z,G1 X0.2 Y25 Z0.2 F3000.0 ; move to start-line position,G92 E0 ; reset extruder,G1 X0.2 Y150.0 F1000.0 E15 ; draw 1st line,G1 X0.7 Y150.0 F3000.0 ; move to side 0.5mm,G1 X0.7 Y50 F1000.0 E30 ; draw 2nd line,G1 X0.7 Y25 F5000.0 ; quick wipe,M117 Printing...
;   layerChangeGcode,
;   retractionGcode,
;   toolChangeGcode,
;   endingGcode,M104 S0 ; turn off extruder,M140 S0 ; turn off bed,G1 X0 Y295 F1000 ; move finished print out front,M84 ; disable motors,M106 S0 ; turn off cooling fan
;   exportFileFormat,gcode
;   celebration,0
;   celebrationSong,Funky Town
;   postProcessing,
;   defaultSpeed,7200
;   outlineUnderspeed,0.75
;   solidInfillUnderspeed,0.9
;   supportUnderspeed,0.9
;   rapidXYspeed,4800
;   rapidZspeed,1002
;   minBridgingArea,50
;   bridgingExtraInflation,0
;   bridgingExtrusionMultiplier,1
;   bridgingSpeedMultiplier,1
;   useFixedBridgingAngle,0
;   fixedBridgingAngle,0
;   applyBridgingToPerimeters,0
;   filamentDiameters,1.75|1.75|1.75|1.75|1.75|1.75
;   filamentPricesPerKg,17|46|46|46|46|46
;   filamentDensities,1.25|1.25|1.25|1.25|1.25|1.25
;   useMinPrintHeight,0
;   minPrintHeight,0
;   useMaxPrintHeight,0
;   maxPrintHeight,0
;   useDiaphragm,0
;   diaphragmLayerInterval,20
;   robustSlicing,1
;   mergeAllIntoSolid,0
;   onlyRetractWhenCrossingOutline,1
;   retractBetweenLayers,1
;   useRetractionMinTravel,0
;   retractionMinTravel,3
;   retractWhileWiping,0
;   onlyWipeOutlines,1
;   avoidCrossingOutline,0
;   maxMovementDetourFactor,3
;   toolChangeRetractionDistance,12
;   toolChangeExtraRestartDistance,-0.5
;   toolChangeRetractionSpeed,600
;   externalThinWallType,1
;   internalThinWallType,1
;   thinWallAllowedOverlapPercentage,14
;   singleExtrusionMinLength,1
;   singleExtrusionMinPrintingWidthPercentage,50
;   singleExtrusionMaxPrintingWidthPercentage,200
;   singleExtrusionEndpointExtension,0.2
;   horizontalSizeCompensation,0
G90
M82
M106 S255
G4 P500
M106 S0
M140 S50
M190 S50
M104 S230 T0
M109 S230 T0
M117 Here We Go!!!
G28 ; home all axes
M204 P500 S700  T1000
M205 X10 Y10 ; set jerk x/y=10
M117 Purging Extruder...
G1 Z1.0 F3000 ; lift Z
G1 X0.2 Y25 Z0.2 F3000.0 ; move to start-line position
G92 E0 ; reset extruder
G1 X0.2 Y150.0 F1000.0 E15 ; draw 1st line
G1 X0.7 Y150.0 F3000.0 ; move to side 0.5mm
G1 X0.7 Y50 F1000.0 E30 ; draw 2nd line
G1 X0.7 Y25 F5000.0 ; quick wipe
M117 Printing...
G92 E0
G1 E-8.0000 F1800
G1 Z0.120 F1002
; process Process1
; layer 1, Z = 0.120
T0
; tool H0.150 W0.504
; outer perimeter
G1 X100.231 Y113.482 F4800
G1 E0.0000 F540
G92 E0
G1 X107.727 Y113.482 E0.2073 F1620
G1 X107.727 Y121.978 E0.4423
G1 X100.231 Y121.978 E0.6497
G1 X100.231 Y113.882 E0.8736
G1 X100.231 Y113.482 F1620
G1 X105.231 Y113.482 F7200
; inner perimeter
G1 X107.223 Y113.986 F4800
G92 E0
G1 X107.223 Y121.474 E0.2071 F1890
G1 X100.735 Y121.474 E0.3866
G1 X100.735 Y113.986 E0.5937
G1 X106.823 Y113.986 E0.7621
G1 X107.223 Y113.986 F1890
; solid layer
G1 X106.153 Y114.379 F4800
G92 E0
G1 X106.830 Y115.056 E0.0265 F1944
G1 X106.830 Y115.769 E0.0462
G1 X105.440 Y114.379 E0.1006
G1 X104.728 Y114.379 E0.1203
G1 X106.830 Y116.482 E0.2025
G1 X106.830 Y117.195 E0.2222
G1 X104.015 Y114.379 E0.3324
G1 X103.302 Y114.379 E0.3521
G1 X106.830 Y117.907 E0.4901
G1 X106.830 Y118.620 E0.5098
G1 X102.589 Y114.379 E0.6757
G1 X101.877 Y114.379 E0.6954
G1 X106.830 Y119.333 E0.8891
G1 X106.830 Y120.046 E0.9089
G1 X101.164 Y114.379 E1.1305
G1 X101.128 Y114.379 E1.1315
G1 X101.128 Y115.057 E1.1502
G1 X106.830 Y120.759 E1.3732
G1 X106.830 Y121.081 E1.3822
G1 X106.440 Y121.081 E1.3930
G1 X101.128 Y115.770 E1.6007
G1 X101.128 Y116.482 E1.6204
G1 X105.727 Y121.081 E1.8003
G1 X105.015 Y121.081 E1.8201
G1 X101.128 Y117.195 E1.9721
G1 X101.128 Y117.908 E1.9918
G1 X104.302 Y121.081 E2.1159
G1 X103.589 Y121.081 E2.1356
G1 X101.128 Y118.621 E2.2319
G1 X101.128 Y119.333 E2.2516
G1 X102.876 Y121.081 E2.3199
G1 X102.163 Y121.081 E2.3397
G1 X101.128 Y120.046 E2.3802
G1 X101.128 Y120.759 E2.3999
G1 X101.168 Y120.798 E2.4014
G1 X101.451 Y121.081 F1944
G92 E0
G1 E-8.0000 F1800
; outer perimeter
G1 X100.231 Y125.482 F4800
G1 E0.0000 F1800
G92 E0
G1 X107.727 Y125.482 E0.2073 F1620
G1 X107.727 Y130.482 E0.3456
G1 X112.231 Y130.482 E0.4702
G1 X112.231 Y125.482 E0.6085
G1 X119.727 Y125.482 E0.8158
G1 X119.727 Y133.978 E1.0508
G1 X112.227 Y133.978 E1.2583
G1 X112.227 Y141.478 E1.4657
G1 X103.136 Y141.478 E1.7172
G1 X103.136 Y136.982 E1.8415
G1 X107.731 Y136.982 E1.9686
G1 X107.731 Y133.978 E2.0517
G1 X100.231 Y133.978 E2.2592
G1 X100.231 Y125.882 E2.4831
G1 X100.231 Y125.482 F1620
G1 X105.231 Y125.482 F7200
; inner perimeter
G1 X107.223 Y125.986 F4800
G92 E0
G1 X107.223 Y130.986 E0.1383 F1890
G1 X112.735 Y130.986 E0.2908
G1 X112.735 Y125.986 E0.4290
G1 X119.223 Y125.986 E0.6085
G1 X119.223 Y133.474 E0.8156
G1 X111.723 Y133.474 E1.0231
G1 X111.723 Y140.974 E1.2305
G1 X103.640 Y140.974 E1.4541
G1 X103.640 Y137.486 E1.5506
G1 X108.235 Y137.486 E1.6777
G1 X108.235 Y133.474 E1.7886
G1 X100.735 Y133.474 E1.9961
G1 X100.735 Y125.986 E2.2032
G1 X106.823 Y125.986 E2.3716
G1 X107.223 Y125.986 F1890
; solid layer
G1 X106.830 Y126.461 F4800
G92 E0
G1 X106.749 Y126.379 E0.0032 F1944
G1 X106.036 Y126.379 E0.0229
G1 X106.830 Y127.173 E0.0539
G1 X106.830 Y127.886 E0.0737
G1 X105.323 Y126.379 E0.1326
G1 X104.611 Y126.379 E0.1523
G1 X106.830 Y128.599 E0.2391
G1 X106.830 Y129.312 E0.2588
G1 X103.898 Y126.379 E0.3735
G1 X103.185 Y126.379 E0.3933
G1 X106.830 Y130.024 E0.5358
G1 X106.830 Y130.737 E0.5556
G1 X102.472 Y126.379 E0.7260
G1 X101.760 Y126.379 E0.7457
G1 X108.461 Y133.081 E1.0079
G1 X108.628 Y133.081 E1.0125
G1 X108.628 Y133.248 E1.0171
G1 X111.330 Y135.950 E1.1228
G1 X111.330 Y135.237 E1.1425
G1 X107.472 Y131.379 E1.2934
G1 X108.185 Y131.379 E1.3131
G1 X111.330 Y134.524 E1.4361
G1 X111.330 Y133.812 E1.4559
G1 X108.898 Y131.379 E1.5510
G1 X109.611 Y131.379 E1.5707
G1 X111.330 Y133.099 E1.6380
G1 X111.330 Y133.081 E1.6385
G1 X112.025 Y133.081 E1.6577
G1 X110.323 Y131.379 E1.7243
G1 X111.036 Y131.379 E1.7440
G1 X112.738 Y133.081 E1.8105
G1 X113.451 Y133.081 E1.8303
G1 X111.749 Y131.379 E1.8968
G1 X112.462 Y131.379 E1.9165
G1 X114.163 Y133.081 E1.9831
G1 X114.876 Y133.081 E2.0028
G1 X113.128 Y131.333 E2.0712
G1 X113.128 Y130.621 E2.0909
G1 X115.589 Y133.081 E2.1871
G1 X116.302 Y133.081 E2.2069
G1 X113.128 Y129.908 E2.3310
G1 X113.128 Y129.195 E2.3507
G1 X117.015 Y133.081 E2.5027
G1 X117.727 Y133.081 E2.5224
G1 X113.128 Y128.482 E2.7023
G1 X113.128 Y127.770 E2.7220
G1 X118.440 Y133.081 E2.9298
G1 X118.830 Y133.081 E2.9406
G1 X118.830 Y132.759 E2.9495
G1 X113.128 Y127.057 E3.1725
G1 X113.128 Y126.379 E3.1913
G1 X113.164 Y126.379 E3.1923
G1 X118.830 Y132.046 E3.4139
G1 X118.830 Y131.333 E3.4336
G1 X113.877 Y126.379 E3.6274
G1 X114.589 Y126.379 E3.6471
G1 X118.830 Y130.620 E3.8130
G1 X118.830 Y129.907 E3.8327
G1 X115.302 Y126.379 E3.9707
G1 X116.015 Y126.379 E3.9904
G1 X118.830 Y129.195 E4.1005
G1 X118.830 Y128.482 E4.1202
G1 X116.728 Y126.379 E4.2025
G1 X117.440 Y126.379 E4.2222
G1 X118.830 Y127.769 E4.2766
G1 X118.830 Y127.056 E4.2963
G1 X118.436 Y126.662 E4.3117
G1 X118.153 Y126.379 F1944
G1 X108.628 Y133.961 F4800
G92 E0
G1 X111.330 Y136.663 E0.1057 F1944
G1 X111.330 Y137.376 E0.1254
G1 X108.628 Y134.674 E0.2311
G1 X108.628 Y135.387 E0.2508
G1 X111.330 Y138.088 E0.3565
G1 X111.330 Y138.801 E0.3762
G1 X108.628 Y136.099 E0.4819
G1 X108.628 Y136.812 E0.5016
G1 X111.330 Y139.514 E0.6073
G1 X111.330 Y140.227 E0.6270
G1 X108.628 Y137.525 E0.7327
G1 X108.628 Y137.879 E0.7425
G1 X108.270 Y137.879 E0.7524
G1 X110.972 Y140.581 E0.8581
G1 X110.259 Y140.581 E0.8778
G1 X107.558 Y137.879 E0.9835
G1 X106.845 Y137.879 E1.0032
G1 X109.547 Y140.581 E1.1089
G1 X108.834 Y140.581 E1.1286
G1 X106.132 Y137.879 E1.2342
G1 X105.419 Y137.879 E1.2540
G1 X108.121 Y140.581 E1.3596
G1 X107.408 Y140.581 E1.3794
G1 X104.706 Y137.879 E1.4850
G1 X104.033 Y137.879 E1.5037
G1 X104.033 Y137.919 E1.5048
G1 X106.695 Y140.581 E1.6089
G1 X105.983 Y140.581 E1.6286
G1 X104.033 Y138.631 E1.7049
G1 X104.033 Y139.344 E1.7246
G1 X105.270 Y140.581 E1.7730
G1 X104.557 Y140.581 E1.7927
G1 X104.316 Y140.340 E1.8021
G1 X104.033 Y140.057 F1944
G92 E0
G1 E-8.0000 F1800
G1 X101.128 Y132.876 F4800
G1 E0.0000 F1800
G92 E0
G1 X101.334 Y133.081 E0.0080 F1944
G1 X102.047 Y133.081 E0.0277
G1 X101.128 Y132.163 E0.0637
G1 X101.128 Y131.450 E0.0834
G1 X102.759 Y133.081 E0.1472
G1 X103.472 Y133.081 E0.1669
G1 X101.128 Y130.738 E0.2586
G1 X101.128 Y130.025 E0.2783
G1 X104.185 Y133.081 E0.3978
G1 X104.898 Y133.081 E0.4175
G1 X101.128 Y129.312 E0.5650
G1 X101.128 Y128.599 E0.5847
G1 X105.610 Y133.081 E0.7600
G1 X106.323 Y133.081 E0.7797
G1 X101.128 Y127.887 E0.9829
G1 X101.128 Y127.174 E1.0026
G1 X107.036 Y133.081 E1.2337
G1 X107.749 Y133.081 E1.2534
G1 X101.411 Y126.744 E1.5013
G1 X101.128 Y126.461 F1944
G92 E0
G1 E-8.0000 F1800
; outer perimeter
G1 X112.231 Y113.482 F4800
G1 E0.0000 F1800
G92 E0
G1 X119.727 Y113.482 E0.2073 F1620
G1 X119.727 Y121.978 E0.4423
G1 X112.231 Y121.978 E0.6497
G1 X112.231 Y113.882 E0.8736
G1 X112.231 Y113.482 F1620
G1 X117.231 Y113.482 F7200
; inner perimeter
G1 X119.223 Y113.986 F4800
G92 E0
G1 X119.223 Y121.474 E0.2071 F1890
G1 X112.735 Y121.474 E0.3866
G1 X112.735 Y113.986 E0.5937
G1 X118.823 Y113.986 E0.7621
G1 X119.223 Y113.986 F1890
; solid layer
G1 X118.270 Y114.379 F4800
G92 E0
G1 X118.830 Y114.939 E0.0219 F1944
G1 X118.830 Y115.652 E0.0416
G1 X117.557 Y114.379 E0.0914
G1 X116.845 Y114.379 E0.1111
G1 X118.830 Y116.365 E0.1888
G1 X118.830 Y117.078 E0.2085
G1 X116.132 Y114.379 E0.3140
G1 X115.419 Y114.379 E0.3338
G1 X118.830 Y117.791 E0.4672
G1 X118.830 Y118.503 E0.4869
G1 X114.706 Y114.379 E0.6482
G1 X113.994 Y114.379 E0.6679
G1 X118.830 Y119.216 E0.8571
G1 X118.830 Y119.929 E0.8768
G1 X113.281 Y114.379 E1.0939
G1 X113.128 Y114.379 E1.0981
G1 X113.128 Y114.940 E1.1136
G1 X118.830 Y120.642 E1.3366
G1 X118.830 Y121.081 E1.3488
G1 X118.557 Y121.081 E1.3564
G1 X113.128 Y115.653 E1.5687
G1 X113.128 Y116.365 E1.5884
G1 X117.844 Y121.081 E1.7729
G1 X117.132 Y121.081 E1.7926
G1 X113.128 Y117.078 E1.9492
G1 X113.128 Y117.791 E1.9689
G1 X116.419 Y121.081 E2.0976
G1 X115.706 Y121.081 E2.1173
G1 X113.128 Y118.504 E2.2181
G1 X113.128 Y119.216 E2.2379
G1 X114.993 Y121.081 E2.3108
G1 X114.280 Y121.081 E2.3305
G1 X113.128 Y119.929 E2.3756
G1 X113.128 Y120.642 E2.3953
G1 X113.285 Y120.798 E2.4014
G1 X113.568 Y121.081 F1944
G92 E0
G1 E-8.0000 F1800
; layer 2, Z = 0.270
; tool H0.150 W0.480
; outer perimeter
G1 X112.219 Y113.470 F4800
G1 Z0.270 F1002
G1 E0.0000 F1800
G92 E0
G1 X119.739 Y113.470 E0.1981 F2735
G1 X119.739 Y121.990 E0.4225
G1 X112.219 Y121.990 E0.6206
G1 X112.219 Y113.870 E0.8345
G1 X112.219 Y113.470 F2735
G1 X117.219 Y113.470 F7200
; inner perimeter
G1 X119.259 Y113.950 F4800
G92 E0
G1 X119.259 Y121.510 E0.1991 F3191
G1 X112.699 Y121.510 E0.3719
G1 X112.699 Y113.950 E0.5711
G1 X118.859 Y113.950 E0.7334
G1 X119.259 Y113.950 F3191
; solid layer
G1 X113.074 Y114.688 F4800
G92 E0
G1 X113.437 Y114.325 E0.0135 F3282
G1 X114.115 Y114.325 E0.0314
G1 X113.074 Y115.366 E0.0702
G1 X113.074 Y116.045 E0.0881
G1 X114.794 Y114.325 E0.1522
G1 X115.473 Y114.325 E0.1701
G1 X113.074 Y116.724 E0.2595
G1 X113.074 Y117.403 E0.2773
G1 X116.152 Y114.325 E0.3920
G1 X116.831 Y114.325 E0.4099
G1 X113.074 Y118.082 E0.5498
G1 X113.074 Y118.761 E0.5677
G1 X117.510 Y114.325 E0.7330
G1 X118.188 Y114.325 E0.7509
G1 X113.074 Y119.439 E0.9414
G1 X113.074 Y120.118 E0.9593
G1 X118.867 Y114.325 E1.1751
G1 X118.885 Y114.325 E1.1756
G1 X118.885 Y114.986 E1.1930
G1 X113.074 Y120.797 E1.4095
G1 X113.074 Y121.136 E1.4184
G1 X113.414 Y121.136 E1.4274
G1 X118.885 Y115.665 E1.6312
G1 X118.885 Y116.343 E1.6491
G1 X114.092 Y121.136 E1.8276
G1 X114.771 Y121.136 E1.8455
G1 X118.885 Y117.022 E1.9987
G1 X118.885 Y117.701 E2.0166
G1 X115.450 Y121.136 E2.1446
G1 X116.129 Y121.136 E2.1624
G1 X118.885 Y118.380 E2.2651
G1 X118.885 Y119.059 E2.2830
G1 X116.808 Y121.136 E2.3604
G1 X117.487 Y121.136 E2.3783
