; G-Code generated by Simplify3D(R) Version 4.0.1
; Nov 13, 2018 at 3:44:11 AM
; Settings Summary
;   processName,Process1
;   applyToModels,LACK_Feet,LACK_Feet(2),LACK_Feet(3),LACK_Feet(4)
;   profileName,Creality Ender-3 (modified)
;   profileVersion,2018-10-08 00:18:15
;   baseProfile,Creality Ender-3
;   printMaterial,PLA
;   printQuality,High
;   printExtruders,
;   extruderName,Primary Extruder
;   extruderToolheadNumber,0
;   extruderDiameter,0.4
;   extruderAutoWidth,1
;   extruderWidth,0.48
;   extrusionMultiplier,0.88
;   extruderUseRetract,1
;   extruderRetractionDistance,8
;   extruderExtraRestartDistance,0
;   extruderRetractionZLift,0
;   extruderRetractionSpeed,1800
;   extruderUseCoasting,1
;   extruderCoastingDistance,0.4
;   extruderUseWipe,1
;   extruderWipeDistance,5
;   primaryExtruder,0
;   layerHeight,0.3
;   topSolidLayers,4
;   bottomSolidLayers,4
;   perimeterOutlines,2
;   printPerimetersInsideOut,0
;   startPointOption,3
;   startPointOriginX,0
;   startPointOriginY,110
;   sequentialIslands,0
;   spiralVaseMode,0
;   firstLayerHeightPercentage,100
;   firstLayerWidthPercentage,105
;   firstLayerUnderspeed,0.5
;   useRaft,0
;   raftExtruder,0
;   raftTopLayers,3
;   raftBaseLayers,2
;   raftOffset,3
;   raftSeparationDistance,0.14
;   raftTopInfill,100
;   aboveRaftSpeedMultiplier,0.3
;   useSkirt,1
;   skirtExtruder,0
;   skirtLayers,3
;   skirtOutlines,3
;   skirtOffset,4
;   usePrimePillar,0
;   primePillarExtruder,999
;   primePillarWidth,12
;   primePillarLocation,7
;   primePillarSpeedMultiplier,1
;   useOozeShield,0
;   oozeShieldExtruder,999
;   oozeShieldOffset,2
;   oozeShieldOutlines,1
;   oozeShieldSidewallShape,1
;   oozeShieldSidewallAngle,30
;   oozeShieldSpeedMultiplier,1
;   infillExtruder,0
;   internalInfillPattern,Rectilinear
;   externalInfillPattern,Rectilinear
;   infillPercentage,60
;   outlineOverlapPercentage,22
;   infillExtrusionWidthPercentage,100
;   minInfillLength,5
;   infillLayerInterval,1
;   internalInfillAngles,45,-45
;   overlapInternalInfillAngles,0
;   externalInfillAngles,45,-45
;   generateSupport,0
;   supportExtruder,0
;   supportInfillPercentage,20
;   supportExtraInflation,1
;   supportBaseLayers,2
;   denseSupportExtruder,0
;   denseSupportLayers,2
;   denseSupportInfillPercentage,70
;   supportLayerInterval,1
;   supportHorizontalPartOffset,0.3
;   supportUpperSeparationLayers,1
;   supportLowerSeparationLayers,1
;   supportType,0
;   supportGridSpacing,4
;   maxOverhangAngle,45
;   supportAngles,45
;   temperatureName,Primary Extruder,Heated Bed
;   temperatureNumber,0,0
;   temperatureSetpointCount,1,1
;   temperatureSetpointLayers,1,1
;   temperatureSetpointTemperatures,230,50
;   temperatureStabilizeAtStartup,1,1
;   temperatureHeatedBed,0,1
;   temperatureRelayBetweenLayers,0,0
;   temperatureRelayBetweenLoops,0,0
;   fanLayers,1,4,5,8
;   fanSpeeds,0,30,60,100
;   blipFanToFullPower,1
;   adjustSpeedForCooling,1
;   minSpeedLayerTime,15
;   minCoolingSpeedSlowdown,20
;   increaseFanForCooling,0
;   minFanLayerTime,45
;   maxCoolingFanSpeed,100
;   increaseFanForBridging,0
;   bridgingFanSpeed,100
;   use5D,1
;   relativeEdistances,0
;   allowEaxisZeroing,1
;   independentExtruderAxes,0
;   includeM10123,0
;   stickySupport,1
;   applyToolheadOffsets,0
;   gcodeXoffset,0
;   gcodeYoffset,0
;   gcodeZoffset,0
;   overrideMachineDefinition,1
;   machineTypeOverride,0
;   strokeXoverride,220
;   strokeYoverride,220
;   strokeZoverride,250
;   originOffsetXoverride,0
;   originOffsetYoverride,0
;   originOffsetZoverride,0
;   homeXdirOverride,-1
;   homeYdirOverride,-1
;   homeZdirOverride,-1
;   flipXoverride,1
;   flipYoverride,-1
;   flipZoverride,1
;   toolheadOffsets,0,0|0,0|0,0|0,0|0,0|0,0
;   overrideFirmwareConfiguration,1
;   firmwareTypeOverride,RepRap (Marlin/Repetier/Sprinter)
;   GPXconfigOverride,r2
;   baudRateOverride,115200
;   overridePrinterModels,1
;   printerModelsOverride,Ender3bed.STL
;   startingGcode,M117 Here We Go!!!,G28 ; home all axes,M204 P500 S700  T1000,M205 X10 Y10 ; set jerk x/y=10,M117 Purging Extruder...,G1 Z1.0 F3000 ; lift Z,G1 X0.2 Y25 Z0.2 F3000.0 ; move to start-line position,G92 E0 ; reset extruder,G1 X0.2 Y150.0 F1000.0 E15 ; draw 1st line,G1 X0.7 Y150.0 F3000.0 ; move to side 0.5mm,G1 X0.7 Y50 F1000.0 E30 ; draw 2nd line,G1 X0.7 Y25 F5000.0 ; quick wipe,M117 Printing...
;   layerChangeGcode,
;   retractionGcode,
;   toolChangeGcode,
;   endingGcode,M104 S0 ; turn off extruder,M140 S0 ; turn off bed,G1 X0 Y295 F1000 ; move finished print out front,M84 ; disable motors,M106 S0 ; turn off cooling fan
;   exportFileFormat,gcode
;   celebration,0
;   celebrationSong,Funky Town
;   postProcessing,
;   defaultSpeed,6500
;   outlineUnderspeed,0.7
;   solidInfillUnderspeed,0.85
;   supportUnderspeed,0.85
;   rapidXYspeed,4800
;   rapidZspeed,1002
;   minBridgingArea,50
;   bridgingExtraInflation,0
;   bridgingExtrusionMultiplier,1
;   bridgingSpeedMultiplier,1
;   useFixedBridgingAngle,0
;   fixedBridgingAngle,0
;   applyBridgingToPerimeters,0
;   filamentDiameters,1.75|1.75|1.75|1.75|1.75|1.75
;   filamentPricesPerKg,17|46|46|46|46|46
;   filamentDensities,1.25|1.25|1.25|1.25|1.25|1.25
;   useMinPrintHeight,0
;   minPrintHeight,0
;   useMaxPrintHeight,0
;   maxPrintHeight,0
;   useDiaphragm,0
;   diaphragmLayerInterval,20
;   robustSlicing,1
;   mergeAllIntoSolid,0
;   onlyRetractWhenCrossingOutline,1
;   retractBetweenLayers,1
;   useRetractionMinTravel,0
;   retractionMinTravel,3
;   retractWhileWiping,0
;   onlyWipeOutlines,1
;   avoidCrossingOutline,0
;   maxMovementDetourFactor,3
;   toolChangeRetractionDistance,12
;   toolChangeExtraRestartDistance,-0.5
;   toolChangeRetractionSpeed,600
;   externalThinWallType,1
;   internalThinWallType,1
;   thinWallAllowedOverlapPercentage,14
;   singleExtrusionMinLength,1
;   singleExtrusionMinPrintingWidthPercentage,50
;   singleExtrusionMaxPrintingWidthPercentage,200
;   singleExtrusionEndpointExtension,0.2
;   horizontalSizeCompensation,0
G90
M82
M106 S255
G4 P500
M106 S0
M140 S50
M190 S50
M104 S230 T0
M109 S230 T0
M117 Here We Go!!!
G28 ; home all axes
M204 P500 S700  T1000
M205 X10 Y10 ; set jerk x/y=10
M117 Purging Extruder...
G1 Z1.0 F3000 ; lift Z
G1 X0.2 Y25 Z0.2 F3000.0 ; move to start-line position
G92 E0 ; reset extruder
G1 X0.2 Y150.0 F1000.0 E15 ; draw 1st line
G1 X0.7 Y150.0 F3000.0 ; move to side 0.5mm
G1 X0.7 Y50 F1000.0 E30 ; draw 2nd line
G1 X0.7 Y25 F5000.0 ; quick wipe
M117 Printing...
G92 E0
G1 E-8.0000 F1800
G1 Z0.300 F1002
; process Process1
; layer 1, Z = 0.300
T0
; tool H0.300 W0.504
; skirt
G1 X46.983 Y49.663 F4800
G1 E0.0000 F540
G92 E0
G1 X49.663 Y46.983 E0.2097 F3250
G1 X50.104 Y46.800 E0.2361
G1 X104.396 Y46.800 E3.2394
G1 X104.837 Y46.983 E3.2658
G1 X107.500 Y49.646 E3.4742
G1 X110.163 Y46.983 E3.6825
G1 X110.604 Y46.800 E3.7090
G1 X164.896 Y46.800 E6.7122
G1 X165.337 Y46.983 E6.7387
G1 X168.017 Y49.663 E6.9484
G1 X168.200 Y50.104 E6.9748
G1 X168.200 Y67.846 E7.9562
G1 X172.323 Y71.969 E8.2788
G1 X172.454 Y72.166 E8.2919
G1 X173.154 Y73.854 E8.3930
G1 X173.200 Y74.086 E8.4060
G1 X173.200 Y105.914 E10.1667
G1 X173.154 Y106.146 E10.1798
G1 X172.454 Y107.834 E10.2809
G1 X172.323 Y108.031 E10.2939
G1 X168.531 Y111.823 E10.5906
G1 X168.334 Y111.954 E10.6037
G1 X168.200 Y112.010 E10.6117
G1 X168.200 Y128.346 E11.5154
G1 X172.323 Y132.469 E11.8380
G1 X172.454 Y132.666 E11.8511
G1 X173.154 Y134.354 E11.9522
G1 X173.200 Y134.586 E11.9652
G1 X173.200 Y166.414 E13.7259
G1 X173.154 Y166.646 E13.7390
G1 X172.454 Y168.334 E13.8401
G1 X172.323 Y168.531 E13.8531
G1 X168.531 Y172.323 E14.1498
G1 X168.334 Y172.454 E14.1629
G1 X166.646 Y173.154 E14.2640
G1 X166.414 Y173.200 E14.2771
G1 X134.586 Y173.200 E16.0377
G1 X134.354 Y173.154 E16.0508
G1 X132.666 Y172.454 E16.1519
G1 X132.469 Y172.323 E16.1650
G1 X128.346 Y168.200 E16.4876
G1 X112.010 Y168.200 E17.3912
G1 X111.954 Y168.334 E17.3993
G1 X111.823 Y168.531 E17.4123
G1 X108.031 Y172.323 E17.7090
G1 X107.834 Y172.454 E17.7221
G1 X106.146 Y173.154 E17.8232
G1 X105.914 Y173.200 E17.8363
G1 X74.086 Y173.200 E19.5969
G1 X73.854 Y173.154 E19.6100
G1 X72.166 Y172.454 E19.7111
G1 X71.969 Y172.323 E19.7242
G1 X67.846 Y168.200 E20.0468
G1 X50.104 Y168.200 E21.0282
G1 X49.663 Y168.017 E21.0546
G1 X46.983 Y165.337 E21.2643
G1 X46.800 Y164.896 E21.2907
G1 X46.800 Y110.604 E24.2940
G1 X46.983 Y110.163 E24.3204
G1 X49.646 Y107.500 E24.5288
G1 X46.983 Y104.837 E24.7371
G1 X46.800 Y104.396 E24.7636
G1 X46.800 Y50.104 E27.7668
G1 X46.830 Y50.033 E27.7711
G1 X46.983 Y49.663 F3250
G1 X47.390 Y49.935 F4800
G92 E0
G1 X49.935 Y47.390 E0.1992 F3250
G1 X50.200 Y47.280 E0.2150
G1 X104.300 Y47.280 E3.2077
G1 X104.565 Y47.390 E3.2236
G1 X107.110 Y49.935 E3.4227
G1 X107.220 Y50.200 E3.4386
G1 X107.220 Y68.045 E4.4257
G1 X107.780 Y68.605 E4.4695
G1 X107.780 Y50.200 E5.4877
G1 X107.890 Y49.935 E5.5035
G1 X110.435 Y47.390 E5.7027
G1 X110.700 Y47.280 E5.7185
G1 X164.800 Y47.280 E8.7112
G1 X165.065 Y47.390 E8.7271
G1 X167.610 Y49.935 E8.9262
G1 X167.720 Y50.200 E8.9421
G1 X167.720 Y68.045 E9.9292
G1 X171.950 Y72.275 E10.2602
G1 X172.029 Y72.393 E10.2680
G1 X172.692 Y73.994 E10.3639
G1 X172.720 Y74.133 E10.3717
G1 X172.720 Y105.867 E12.1272
G1 X172.692 Y106.006 E12.1350
G1 X172.029 Y107.607 E12.2309
G1 X171.950 Y107.725 E12.2387
G1 X168.225 Y111.450 E12.5302
G1 X168.107 Y111.529 E12.5380
G1 X167.720 Y111.689 E12.5612
G1 X167.720 Y128.545 E13.4936
G1 X171.950 Y132.775 E13.8246
G1 X172.029 Y132.893 E13.8324
G1 X172.692 Y134.494 E13.9283
G1 X172.720 Y134.633 E13.9361
G1 X172.720 Y166.367 E15.6915
G1 X172.692 Y166.506 E15.6994
G1 X172.029 Y168.107 E15.7953
G1 X171.950 Y168.225 E15.8031
G1 X168.225 Y171.950 E16.0946
G1 X168.107 Y172.029 E16.1024
G1 X166.506 Y172.692 E16.1983
G1 X166.367 Y172.720 E16.2061
G1 X134.633 Y172.720 E17.9615
G1 X134.494 Y172.692 E17.9694
G1 X132.893 Y172.029 E18.0653
G1 X132.775 Y171.950 E18.0731
G1 X128.545 Y167.720 E18.4040
G1 X111.689 Y167.720 E19.3365
G1 X111.529 Y168.107 E19.3596
G1 X111.450 Y168.225 E19.3675
G1 X107.725 Y171.950 E19.6589
G1 X107.607 Y172.029 E19.6668
G1 X106.006 Y172.692 E19.7627
G1 X105.867 Y172.720 E19.7705
G1 X74.133 Y172.720 E21.5259
G1 X73.994 Y172.692 E21.5338
G1 X72.393 Y172.029 E21.6296
G1 X72.275 Y171.950 E21.6375
G1 X68.045 Y167.720 E21.9684
G1 X50.200 Y167.720 E22.9556
G1 X49.935 Y167.610 E22.9714
G1 X47.390 Y165.065 E23.1706
G1 X47.280 Y164.800 E23.1864
G1 X47.280 Y110.700 E26.1792
G1 X47.390 Y110.435 E26.1950
G1 X49.935 Y107.890 E26.3941
G1 X50.200 Y107.780 E26.4100
G1 X68.605 Y107.780 E27.4281
G1 X68.045 Y107.220 E27.4719
G1 X50.200 Y107.220 E28.4591
G1 X49.935 Y107.110 E28.4749
G1 X47.390 Y104.565 E28.6741
G1 X47.280 Y104.300 E28.6899
G1 X47.280 Y50.313 E31.6764
G1 X47.280 Y50.200 F3250
G1 X47.390 Y49.935 F3250
G1 X47.797 Y50.207 F4800
G92 E0
G1 X50.207 Y47.797 E0.1886 F3250
G1 X50.295 Y47.760 E0.1939
G1 X104.205 Y47.760 E3.1760
G1 X104.293 Y47.797 E3.1813
G1 X106.703 Y50.207 E3.3699
G1 X106.740 Y50.295 E3.3752
G1 X106.740 Y68.244 E4.3681
G1 X108.260 Y69.764 E4.4870
G1 X108.260 Y50.295 E5.5639
G1 X108.297 Y50.207 E5.5692
G1 X110.707 Y47.797 E5.7578
G1 X110.795 Y47.760 E5.7631
G1 X164.705 Y47.760 E8.7452
G1 X164.793 Y47.797 E8.7505
G1 X167.203 Y50.207 E8.9391
G1 X167.240 Y50.295 E8.9444
G1 X167.240 Y68.244 E9.9373
G1 X171.577 Y72.581 E10.2766
G1 X171.604 Y72.620 E10.2792
G1 X172.231 Y74.134 E10.3698
G1 X172.240 Y74.181 E10.3725
G1 X172.240 Y105.819 E12.1227
G1 X172.231 Y105.866 E12.1253
G1 X171.604 Y107.379 E12.2159
G1 X171.577 Y107.419 E12.2185
G1 X167.919 Y111.077 E12.5047
G1 X167.880 Y111.104 E12.5074
G1 X167.240 Y111.369 E12.5457
G1 X167.240 Y128.744 E13.5068
G1 X171.577 Y133.081 E13.8461
G1 X171.604 Y133.120 E13.8488
G1 X172.231 Y134.634 E13.9394
G1 X172.240 Y134.681 E13.9420
G1 X172.240 Y166.319 E15.6922
G1 X172.231 Y166.366 E15.6948
G1 X171.604 Y167.880 E15.7855
G1 X171.577 Y167.919 E15.7881
G1 X167.919 Y171.577 E16.0743
G1 X167.880 Y171.604 E16.0769
G1 X166.366 Y172.231 E16.1676
G1 X166.319 Y172.240 E16.1702
G1 X134.681 Y172.240 E17.9204
G1 X134.634 Y172.231 E17.9230
G1 X133.120 Y171.604 E18.0136
G1 X133.081 Y171.577 E18.0162
G1 X128.744 Y167.240 E18.3556
G1 X111.369 Y167.240 E19.3167
G1 X111.104 Y167.880 E19.3550
G1 X111.077 Y167.919 E19.3576
G1 X107.419 Y171.577 E19.6439
G1 X107.379 Y171.604 E19.6465
G1 X105.866 Y172.231 E19.7371
G1 X105.819 Y172.240 E19.7397
G1 X74.181 Y172.240 E21.4899
G1 X74.134 Y172.231 E21.4925
G1 X72.620 Y171.604 E21.5832
G1 X72.581 Y171.577 E21.5858
G1 X68.244 Y167.240 E21.9251
G1 X50.295 Y167.240 E22.9180
G1 X50.207 Y167.203 E22.9233
G1 X47.797 Y164.793 E23.1119
G1 X47.760 Y164.705 E23.1171
G1 X47.760 Y110.795 E26.0993
G1 X47.797 Y110.707 E26.1046
G1 X50.207 Y108.297 E26.2932
G1 X50.295 Y108.260 E26.2985
G1 X69.764 Y108.260 E27.3754
G1 X68.244 Y106.740 E27.4943
G1 X50.295 Y106.740 E28.4872
G1 X50.207 Y106.703 E28.4925
G1 X47.797 Y104.293 E28.6811
G1 X47.760 Y104.205 E28.6864
G1 X47.760 Y50.600 E31.6517
G1 X47.760 Y50.295 F3250
G1 X47.797 Y50.207 F3250
G92 E0
G1 E-8.0000 F1800
; outer perimeter
G1 X52.252 Y102.248 F4800
G1 E0.0000 F1800
G92 E0
G1 X52.252 Y52.252 E2.7657 F2275
G1 X102.248 Y52.252 E5.5314
G1 X102.248 Y70.104 E6.5189
G1 X107.248 Y75.104 E6.9101
G1 X107.248 Y104.896 E8.5581
G1 X104.896 Y107.248 E8.7421
G1 X75.104 Y107.248 E10.3901
G1 X70.104 Y102.248 E10.7813
G1 X52.652 Y102.248 E11.7467
G1 X52.252 Y102.248 F2275
G1 X52.252 Y97.248 F6500
; inner perimeter
G1 X52.756 Y101.744 F4800
G92 E0
G1 X52.756 Y52.756 E2.7099 F2762
G1 X101.744 Y52.756 E5.4199
G1 X101.744 Y70.313 E6.3911
G1 X106.744 Y75.313 E6.7823
G1 X106.744 Y104.687 E8.4072
G1 X104.687 Y106.744 E8.5681
G1 X75.313 Y106.744 E10.1930
G1 X70.313 Y101.744 E10.5841
G1 X53.156 Y101.744 E11.5333
G1 X52.756 Y101.744 F2762
; outer perimeter
G1 X87.682 Y90.395 F4800
G92 E0
G1 X87.861 Y90.886 E0.0289 F2275
G1 X88.149 Y91.324 E0.0579
G1 X88.529 Y91.683 E0.0868
G1 X88.982 Y91.944 E0.1158
G1 X89.484 Y92.094 E0.1447
G1 X90.006 Y92.125 E0.1737
G1 X90.521 Y92.034 E0.2026
G1 X91.002 Y91.827 E0.2316
G1 X91.422 Y91.514 E0.2605
G1 X91.758 Y91.113 E0.2895
G1 X91.993 Y90.646 E0.3184
G1 X92.113 Y90.137 E0.3474
G1 X92.113 Y89.613 E0.3763
G1 X91.993 Y89.104 E0.4053
G1 X91.758 Y88.637 E0.4342
G1 X91.422 Y88.236 E0.4632
G1 X91.002 Y87.923 E0.4921
G1 X90.521 Y87.716 E0.5210
G1 X90.006 Y87.625 E0.5500
G1 X89.484 Y87.656 E0.5789
G1 X88.982 Y87.806 E0.6079
G1 X88.529 Y88.067 E0.6368
G1 X88.149 Y88.426 E0.6658
G1 X87.861 Y88.864 E0.6947
G1 X87.682 Y89.355 E0.7237
G1 X87.621 Y89.875 E0.7526
G1 X87.636 Y89.997 E0.7594
G1 X87.682 Y90.395 F2275
G1 X87.861 Y90.886 F6500
G1 X88.149 Y91.324 F6500
G1 X88.529 Y91.683 F6500
G1 X88.982 Y91.944 F6500
G1 X89.484 Y92.094 F6500
G1 X90.006 Y92.125 F6500
G1 X90.521 Y92.034 F6500
G1 X91.002 Y91.827 F6500
G1 X91.422 Y91.514 F6500
G1 X91.608 Y91.292 F6500
; inner perimeter
G1 X92.182 Y91.392 F4800
G92 E0
G1 X92.470 Y90.819 E0.0355 F2762
G1 X92.617 Y90.196 E0.0709
G1 X92.617 Y89.554 E0.1064
G1 X92.470 Y88.931 E0.1419
G1 X92.182 Y88.358 E0.1773
G1 X91.770 Y87.867 E0.2128
G1 X91.256 Y87.484 E0.2483
G1 X90.667 Y87.230 E0.2837
G1 X90.036 Y87.119 E0.3192
G1 X89.396 Y87.156 E0.3546
G1 X88.781 Y87.340 E0.3901
G1 X88.226 Y87.660 E0.4256
G1 X87.760 Y88.100 E0.4610
G1 X87.408 Y88.636 E0.4965
G1 X87.188 Y89.238 E0.5320
G1 X87.114 Y89.875 E0.5674
G1 X87.188 Y90.512 E0.6029
G1 X87.408 Y91.114 E0.6384
G1 X87.760 Y91.650 E0.6738
G1 X88.226 Y92.090 E0.7093
G1 X88.781 Y92.410 E0.7448
G1 X89.396 Y92.594 E0.7802
G1 X90.036 Y92.631 E0.8157
G1 X90.667 Y92.520 E0.8511
G1 X91.256 Y92.266 E0.8866
G1 X91.770 Y91.883 E0.9221
G1 X91.925 Y91.699 E0.9354
G1 X92.182 Y91.392 F2762
; solid layer
G1 X92.991 Y89.428 F4800
G92 E0
G1 X106.351 Y102.787 E1.0451 F2762
G1 X106.351 Y103.500 E1.0846
G1 X93.011 Y90.160 E2.1282
G1 X93.011 Y90.242 E2.1327
G1 X92.890 Y90.751 E2.1617
G1 X106.351 Y104.213 E3.2148
G1 X106.351 Y104.524 E3.2320
G1 X106.150 Y104.725 E3.2477
G1 X92.687 Y91.262 E4.3010
G1 X92.513 Y91.610 E4.3225
G1 X92.426 Y91.713 E4.3300
G1 X105.794 Y105.081 E5.3758
